moelyaakoubi/URcartesian/robot_data_current.csv
Trajectory_ID,Timestamp,Joint_1,Joint_2,Joint_3,Joint_4,Joint_5,Joint_6,Cartesian_x,Cartesian_y,Cartesian_z,Cartesian_rx,Cartesian_ry,Cartesian_rz,Current_1,Current_2,Current_3,Current_4,Current_5,Current_6,Voltage_1,Voltage_2,Voltage_3,Voltage_4,Voltage_5,Voltage_6
1,1734620867.8968735,1.279901146888733,-1.2815706592849274,0.29806596437563115,-0.7946664255908509,-1.5063031355487269,0.16633358597755432,0.04737773829640762,-0.34734032777810897,0.35295945933727474,0.6930623754601036,3.000996487483513,-0.32189677386294374,0.021563805639743805,-1.1971628665924072,-0.9513272047042847,-0.5223009586334229,0.04500797018408775,-0.11249114573001862,47.513267517089844,47.369937896728516,47.427268981933594,47.427268981933594,47.498931884765625,47.369937896728516
1,1734620867.9975104,1.279913067817688,-1.281673477297165,0.2980912367450159,-0.7946902078441163,-1.5063031355487269,0.16626793146133423,0.04738662501317239,-0.34732394453205057,0.3529890686825081,0.6929402842556054,3.0010200904998015,-0.32205556318284656,0.03057044744491577,-1.1830233335494995,-0.9585373401641846,-0.5210765600204468,0.05507911369204521,-0.10656525939702988,47.47026824951172,47.38426971435547,47.39860534667969,47.44160079956055,47.498931884765625,47.369937896728516
1,1734620868.0979958,1.2799055576324463,-1.2816484731486817,0.29806262651552373,-0.7946458619884034,-1.5062959829913538,0.16628283262252808,0.04738657183334022,-0.3473215730232201,0.35298252176565936,0.6929740232452967,3.0010081937861903,-0.3219923263876399,0.03085915744304657,-1.1795085668563843,-0.9567773342132568,-0.530861496925354,0.03989125043153763,-0.12342396378517151,47.48460006713867,47.369937896728516,47.427268981933594,47.41293716430664,47.498931884765625,47.32693862915039
1,1734620868.1986623,1.279868483543396,-1.2816034418395539,0.2980864683734339,-0.794690267448761,-1.5062745253192347,0.1662917286157608,0.04737341097672538,-0.34734154871755013,0.35296830695436854,0.6930367541087853,3.000977191383004,-0.32195569740218527,0.014982685446739197,-1.1898908615112305,-0.9660831093788147,-0.522659182548523,0.04580395668745041,-0.09720999002456665,47.5275993347168,47.38426971435547,47.427268981933594,47.47026824951172,47.498931884765625,47.38426971435547
1,1734620868.2998395,1.2798759937286377,-1.28159915030513,0.2980864683734339,-0.7946242851069947,-1.5063074270831507,0.16631582379341125,0.04737240395027293,-0.34732666789937294,0.3529578695536001,0.693078736176979,3.0010047496085277,-0.3218460454573618,0.04707029461860657,-1.2006648778915405,-0.9525415897369385,-0.5273538827896118,0.05571611970663071,-0.07643083482980728,47.513267517089844,47.38426971435547,47.39860534667969,47.44160079956055,47.513267517089844,47.38426971435547
1,1734620868.4004195,1.2797785997390747,-1.281679944401123,0.298136059437887,-0.7946458619884034,-1.506298844014303,0.16628418862819672,0.04734430602706717,-0.3473190594712809,0.3529742162161934,0.6931734387957645,3.000982034210437,-0.3219332641540047,-0.1180449053645134,-1.3325495719909668,-0.8516594171524048,-0.3976336121559143,0.04599640890955925,-0.1800251454114914,47.498931884765625,47.35560607910156,47.427268981933594,47.41293716430664,47.498931884765625,47.38426971435547
1,1734620868.5018513,1.2779779434204102,-1.2828210455230256,0.2985318342791956,-0.7935587924769898,-1.5063265005694788,0.16543085873126984,0.04684831683208378,-0.3469520627734045,0.3530968534638887,0.6946975401237503,3.000959511796501,-0.321525809280896,-0.25122541189193726,-1.3554834127426147,-0.5912514925003052,-0.31061458587646484,-0.02859281748533249,-0.24168826639652252,47.48460006713867,47.39860534667969,47.427268981933594,47.455936431884766,47.513267517089844,47.39860534667969
1,1734620868.602636,1.270289659500122,-1.2864880722812195,0.30038482347597295,-0.7894380253604432,-1.5066264311419886,0.16227145493030548,0.04460442969706013,-0.34569496872057787,0.3532594852618694,0.7020405974933855,3.0008664342403013,-0.3184468318973529,-0.3711017370223999,-1.3985227346420288,-0.4997348487377167,-0.3002470135688782,-0.11444209516048431,-0.2406553328037262,47.5275993347168,47.38426971435547,47.41293716430664,47.44160079956055,47.48460006713867,47.39860534667969
1,1734620868.7039144,1.2511672973632812,-1.296040729885437,0.3051088492022913,-0.7792697113803406,-1.5073512236224573,0.15451326966285706,0.03915014870605747,-0.34243166035150474,0.3537701311259754,0.7204027131667795,3.0003618793624773,-0.31132865829197065,-0.40337762236595154,-1.434736967086792,-0.497317910194397,-0.28043726086616516,-0.14112158119678497,-0.23124903440475464,47.5275993347168,47.38426971435547,47.44160079956055,47.427268981933594,47.44160079956055,47.369937896728516
1,1734620868.8045948,1.2181134223937988,-1.3123937112144013,0.31339866319765264,-0.7616043847850342,-1.5085490385638636,0.14100369811058044,0.030073902564086537,-0.336588459705206,0.3545175639296665,0.7519383950363197,2.9989001564345297,-0.2982354525176015,-0.345944344997406,-1.382798194885254,-0.5361320376396179,-0.25709331035614014,-0.14774757623672485,-0.2431800216436386,47.498931884765625,47.369937896728516,47.39860534667969,47.39860534667969,47.498931884765625,47.34127426147461
1,1734620868.9055638,1.1739881038665771,-1.3346076321652909,0.3244102636920374,-0.7376877230456849,-1.5100882689105433,0.12251931428909302,0.01871574153662841,-0.32826929208634087,0.3555154233011414,0.7931978949430244,2.995896020865458,-0.2805485006867811,-0.4560815989971161,-1.3840405941009521,-0.5170225501060486,-0.16264912486076355,-0.21314817667007446,-0.20012857019901276,47.47026824951172,47.369937896728516,47.44160079956055,47.427268981933594,47.47026824951172,47.369937896728516
1,1734620869.0060923,1.11610746383667,-1.3635351967862626,0.3384812513934534,-0.7067500513843079,-1.5122788588153284,0.09893255680799484,0.004951229956818503,-0.3168986364380042,0.3567431404049745,0.8480149193019256,2.9897393670801815,-0.2576476697343628,-0.44776371121406555,-1.3507715463638306,-0.4678846597671509,-0.18835586309432983,-0.16142354905605316,-0.28549522161483765,47.455936431884766,47.38426971435547,47.369937896728516,47.38426971435547,47.47026824951172,47.34127426147461
1,1734620869.107237,1.0485095977783203,-1.397368387585022,0.35544044176210576,-0.6703440707973023,-1.5146601835833948,0.07106104493141174,-0.009257585394611122,-0.3028908860684889,0.35781019126576497,0.9109291028713278,2.979501096491256,-0.22914341576787448,-0.42819875478744507,-1.2298661470413208,-0.4624871611595154,-0.1916671097278595,-0.1687641590833664,-0.28000426292419434,47.455936431884766,47.34127426147461,47.39860534667969,47.39860534667969,47.455936431884766,47.35560607910156
1,1734620869.208294,0.9767301082611084,-1.432996929889061,0.372965161000387,-0.6319205921939393,-1.5173004309283655,0.041740383952856064,-0.022300447542259884,-0.2875536710928481,0.3587328030678332,0.9773221726372168,2.9650869234795,-0.19899641603953505,-0.37502652406692505,-1.1613025665283203,-0.4244479537010193,-0.22655761241912842,-0.1273455023765564,-0.27501580119132996,47.498931884765625,47.38426971435547,47.427268981933594,47.427268981933594,47.44160079956055,47.34127426147461
1,1734620869.3087366,0.9108599424362183,-1.4660065335086365,0.38932782808412725,-0.5963980120471497,-1.5196746031390589,0.014456710778176785,-0.032253938675970865,-0.2730791741003842,0.3593249024926712,1.0367526538651908,2.9487941991070823,-0.17081251278278767,-0.3212493062019348,-1.0166027545928955,-0.39041653275489807,-0.2737317383289337,-0.13017292320728302,-0.24577464163303375,47.513267517089844,47.39860534667969,47.41293716430664,47.39860534667969,47.47026824951172,47.32693862915039
1,1734620869.4092329,0.8568264245986938,-1.4931929123452683,0.40271264711488897,-0.5672499698451539,-1.5215609709369105,-0.007987324391500294,-0.0390209010938319,-0.26112953113978193,0.35966625037033056,1.0846367896069078,2.9332018548406706,-0.14796500460385847,-0.27761316299438477,-0.9354470372200012,-0.4218560755252838,-0.28442054986953735,-0.17609429359436035,-0.18102698028087616,47.513267517089844,47.38426971435547,47.455936431884766,47.427268981933594,47.47026824951172,47.369937896728516
1,1734620869.509976,0.814031183719635,-1.514210683559515,0.41326982179750615,-0.5446936649135132,-1.5232809225665491,-0.02526265779604131,-0.04371123152222228,-0.25182763693313787,0.35977261684686146,1.1228453784835053,2.9193647874621904,-0.12993995274975143,-0.13497041165828705,-0.948401927947998,-0.390124648809433,-0.20513910055160522,-0.0659351497888565,-0.24721969664096832,47.47026824951172,47.35560607910156,47.44160079956055,47.44160079956055,47.41293716430664,47.34127426147461
1,1734620869.6106515,0.7837164998054504,-1.5295736168375988,0.42082101503481084,-0.5279619258693238,-1.5242021719561976,-0.0379717985736292,-0.04634601971216041,-0.24513462841756709,0.35980168350730196,1.1487780330893103,2.908726155727669,-0.11693177775839583,-0.271697998046875,-0.8659282922744751,-0.4101337790489197,-0.3565436899662018,-0.18712222576141357,-0.18234950304031372,47.455936431884766,47.38426971435547,47.427268981933594,47.44160079956055,47.513267517089844,47.38426971435547
1,1734620869.7109928,0.7655129432678223,-1.5385346759906788,0.42523080507387334,-0.5184280437282105,-1.5250161329852503,-0.04536658922304326,-0.04791694211394939,-0.24122375810137378,0.359813752836174,1.164699534146769,2.902250973905767,-0.10955370723610729,-0.10124574601650238,-0.8325281739234924,-0.41369909048080444,-0.2956562042236328,-0.04863791912794113,-0.18759362399578094,47.47026824951172,47.38426971435547,47.41293716430664,47.44160079956055,47.498931884765625,47.369937896728516
1,1734620869.8122432,0.7595437169075012,-1.5414929662695904,0.42667943636049444,-0.5151801866343995,-1.5251315275775355,-0.04775411287416631,-0.048356488323138117,-0.23994958298224414,0.3598067869299223,1.1698833656717,2.899892405763483,-0.10708576643721968,0.03001117892563343,-0.6705175042152405,-0.5952034592628479,-0.4739404022693634,-0.09452744573354721,-0.022623583674430847,47.5275993347168,47.38426971435547,47.39860534667969,47.455936431884766,47.48460006713867,47.34127426147461
1,1734620869.9134512,0.7596144676208496,-1.5414393109134217,0.42676002184023076,-0.5151718419841309,-1.525118652974264,-0.04774076143373662,-0.048342118689474835,-0.23995956333998705,0.3597798153676607,1.1697789315858758,2.8998621600858687,-0.10688811757389652,-0.08160848915576935,-0.7930479049682617,-0.4403519928455353,-0.4180605411529541,-0.11100366711616516,-0.12512341141700745,47.498931884765625,47.38426971435547,47.41293716430664,47.47026824951172,47.498931884765625,47.38426971435547
1,1734620870.0139344,0.7596559524536133,-1.5414259780994435,0.42677098909486944,-0.5151760143092652,-1.525163475667135,-0.04780799547304326,-0.048341726281602444,-0.23995629882404926,0.35977501734966144,1.1696370449784732,2.899957324010239,-0.1068315769008553,-0.11563311517238617,-0.8588584065437317,-0.47358986735343933,-0.3844858705997467,-0.08676563203334808,-0.161542147397995,47.498931884765625,47.369937896728516,47.39860534667969,47.427268981933594,47.498931884765625,47.369937896728516
1,1734620870.1149242,0.7596330642700195,-1.5415361684611817,0.42681581178774053,-0.5152422946742554,-1.5252488295184534,-0.04784900346864873,-0.04835396723643354,-0.23993424858052118,0.35979414519222075,1.1696588161632397,2.900088559929194,-0.10696811883393346,-0.11792774498462677,-0.855095386505127,-0.4829108417034149,-0.3711794316768646,-0.10895127058029175,-0.13384240865707397,47.5275993347168,47.35560607910156,47.41293716430664,47.44160079956055,47.48460006713867,47.38426971435547
1,1734620870.216362,0.7596167325973511,-1.5415600401214142,0.42682010332216436,-0.5151847165874024,-1.525130573903219,-0.04782468477358037,-0.04832584563460563,-0.23994090993935124,0.3597935513540892,1.1696675189954375,2.8999509703641455,-0.10698726059205865,-0.1299554705619812,-0.8691239356994629,-0.4933180809020996,-0.36064010858535767,-0.09458336979150772,-0.11705007404088974,47.498931884765625,47.38426971435547,47.39860534667969,47.455936431884766,47.47026824951172,47.369937896728516
1,1734620870.3169262,0.7596191763877869,-1.541551188831665,0.42682010332216436,-0.5151360791972657,-1.525146786366598,-0.047820393239156544,-0.048321171137165865,-0.23993198949731728,0.3597868397396665,1.1696706041970049,2.8999428501296842,-0.10689464064845196,-0.11307920515537262,-0.8686962127685547,-0.5047083497047424,-0.371310293674469,-0.08787716180086136,-0.12701213359832764,47.48460006713867,47.39860534667969,47.41293716430664,47.44160079956055,47.48460006713867,47.34127426147461
1,1734620870.417397,0.7596197128295898,-1.541584226568677,0.42681581178774053,-0.5151403707316895,-1.5251677672015589,-0.04783326784242803,-0.0483202191497104,-0.2399245251619377,0.3597945015140057,1.1696639636303057,2.899983449909763,-0.10694148706298547,-0.16327664256095886,-0.8655900359153748,-0.5331369042396545,-0.3611815571784973,-0.06042264401912689,-0.11449450254440308,47.455936431884766,47.38426971435547,47.427268981933594,47.48460006713867,47.47026824951172,47.39860534667969
1,1734620870.523364,0.7596365809440613,-1.5415214889547606,0.42683250108827764,-0.5151847165874024,-1.525174919758932,-0.04783183733095342,-0.04833365028838173,-0.23993960321316737,0.3597830248343587,1.1696401798967984,2.8999858757625314,-0.1068863210848867,-0.1420411467552185,-0.8591156601905823,-0.5399596691131592,-0.37739890813827515,-0.06731078773736954,-0.10187815129756927,47.498931884765625,47.39860534667969,47.44160079956055,47.455936431884766,47.513267517089844,47.34127426147461
1,1734620870.6241512,0.7595318555831909,-1.5415556237897654,0.42680341402162725,-0.5151598018458863,-1.5251591841327112,-0.047889534627096,-0.048347761888177555,-0.23992914910820076,0.3597931607830125,1.1697084482533167,2.899963538098367,-0.10695300531950287,-0.1816139966249466,-0.6623356342315674,-0.6100391745567322,-0.440734326839447,-0.08495627343654633,-0.18334165215492249,47.498931884765625,47.39860534667969,47.44160079956055,47.44160079956055,47.498931884765625,47.38426971435547
1,1734620870.726214,0.7582119703292847,-1.5402659692666312,0.4263985792743128,-0.5162063401988526,-1.5253561178790491,-0.04924232164491826,-0.04907342164954758,-0.2401887707218389,0.35971394456631406,1.1697829231326988,2.9002975648602747,-0.10708839510909873,-0.1682935357093811,-0.2810005247592926,-0.8383155465126038,-0.7030936479568481,-0.16659122705459595,-0.22609150409698486,47.498931884765625,47.369937896728516,47.427268981933594,47.427268981933594,47.44160079956055,47.39860534667969
1,1734620870.8268592,0.7528064846992493,-1.5343883794597168,0.42481977144350225,-0.5205767911723633,-1.5260289351092737,-0.055007282887594044,-0.05213364363398515,-0.24135398578168257,0.3592572374161251,1.1696482547699842,2.901483118459945,-0.10687065572397755,-0.2922644317150116,-0.14144685864448547,-0.922655463218689,-0.778621256351471,-0.16428077220916748,-0.2709463834762573,47.498931884765625,47.39860534667969,47.39860534667969,47.455936431884766,47.44160079956055,47.32693862915039
1,1734620870.9274275,0.7380861043930054,-1.5184092198363324,0.42013770738710576,-0.532575325374939,-1.5278685728656214,-0.07094222704042608,-0.06055336672141014,-0.24440668242845842,0.35804375352505335,1.1689970321242487,2.90504332033018,-0.10691916534907345,-0.42023536562919617,0.00107559934258461,-0.8864286541938782,-0.8629505634307861,-0.196638286113739,-0.2812877893447876,47.498931884765625,47.369937896728516,47.41293716430664,47.41293716430664,47.455936431884766,47.369937896728516
1,1734620871.0286002,0.7098366618156433,-1.4881766450456162,0.4114120642291468,-0.5553985399058838,-1.5314129034625452,-0.10107976595033819,-0.07684643972359402,-0.24958748112775642,0.355499469082697,1.168378834504907,2.911597555948377,-0.10662063176473353,-0.4478026330471039,-0.03233972191810608,-0.9246419072151184,-0.8177822232246399,-0.211019366979599,-0.29608601331710815,47.513267517089844,47.34127426147461,47.41293716430664,47.41293716430664,47.47026824951172,47.35560607910156
1,1734620871.1292462,0.6709063053131104,-1.4464171019247551,0.39941531816591436,-0.5865828555873414,-1.536140267048971,-0.14253217378725225,-0.09969800345267771,-0.2554613916042696,0.3514396495860824,-1.1636790567652324,-2.9106945913799436,0.10471693949589066,-0.5604982376098633,0.013779491186141968,-0.9367600679397583,-0.8799217939376831,-0.2926179766654968,-0.33829620480537415,47.498931884765625,47.35560607910156,47.34127426147461,47.39860534667969,47.44160079956055,47.28394317626953
1,1734620871.2306454,0.6193912625312805,-1.3912748855403443,0.3838103453265589,-0.6280521911433716,-1.5427454153644007,-0.19751197496523076,-0.13064182322378728,-0.2608621815097952,0.3451697433001266,-1.1548122673354,-2.903300845126982,0.10055199976716434,-0.4879128336906433,-0.06955578923225403,-0.9993123412132263,-0.8790358304977417,-0.19726108014583588,-0.30777814984321594,47.47026824951172,47.34127426147461,47.38426971435547,47.35560607910156,47.44160079956055,47.298274993896484
1,1734620871.331189,0.5578720569610596,-1.3254005324891587,0.36495763460268194,-0.6772408050349732,-1.5503862539874476,-0.263040844594137,-0.1681596344938193,-0.26378286568191206,0.3363850576231485,-1.1447025003958962,-2.8950157829777043,0.09387376142473396,-0.483442097902298,-0.36412668228149414,-1.0990564823150635,-0.8216992616653442,-0.21618866920471191,-0.3451065719127655,47.48460006713867,47.34127426147461,47.41293716430664,47.369937896728516,47.41293716430664,47.298274993896484
1,1734620871.431554,0.4927126467227936,-1.2553697687438508,0.3449004332171839,-0.7298850578120728,-1.5585654417621058,-0.3324239889727991,-0.2083820391669412,-0.262666941583832,0.325556138681219,-1.1341719436076718,-2.8864370283201364,0.08519846358032004,-0.47633954882621765,-0.5801931619644165,-1.1764029264450073,-0.8966026902198792,-0.16891464591026306,-0.4035189151763916,47.498931884765625,47.38426971435547,47.39860534667969,47.39860534667969,47.455936431884766,47.32693862915039
1,1734620871.5324554,0.4261205196380615,-1.1839075249484559,0.3246830145465296,-0.7834415596774598,-1.5669563452350062,-0.40328962007631475,-0.24923032691944252,-0.25688595757808325,0.3128456031377658,-1.123890228958047,-2.8785162945720817,0.07381823179792932,-0.40638017654418945,-0.581204891204834,-1.2552624940872192,-0.8069857358932495,-0.21755343675613403,-0.3507744073867798,47.48460006713867,47.38426971435547,47.39860534667969,47.39860534667969,47.427268981933594,47.32693862915039
1,1734620871.633194,0.3608390688896179,-1.1140127044967194,0.30452043214906865,-0.8358858984759827,-1.5750935713397425,-0.47294408479799444,-0.28854448676958316,-0.2467679901016356,0.2990116803529907,-1.1137878343212497,-2.87131579450796,0.061401572637194334,-0.42257213592529297,-0.6668874025344849,-1.3034098148345947,-0.8673190474510193,-0.21543078124523163,-0.3063178062438965,47.47026824951172,47.38426971435547,47.41293716430664,47.39860534667969,47.47026824951172,47.34127426147461
1,1734620871.7337306,0.2956649363040924,-1.0440147084048768,0.28454620042909795,-0.8884737652591248,-1.583170239125387,-0.542694393788473,-0.326649142989247,-0.23238931871790638,0.2836744351855426,-1.1038085135501339,-2.8651381180659357,0.04720423331033572,-0.470886766910553,-0.7866280674934387,-1.3872367143630981,-0.881877601146698,-0.228117436170578,-0.3267025649547577,47.498931884765625,47.38426971435547,47.41293716430664,47.39860534667969,47.44160079956055,47.34127426147461
1,1734620871.8346379,0.23054814338684082,-0.9743312162211915,0.2647936979876917,-0.9407543700984498,-1.5913165251361292,-0.6119611899005335,-0.36291627546564803,-0.21382970851812788,0.26699382604701094,-1.0948853006554362,-2.859709060433282,0.031220785053709038,-0.3019607961177826,-1.07059907913208,-1.404137134552002,-0.7746891975402832,-0.23748905956745148,-0.33209073543548584,47.498931884765625,47.38426971435547,47.44160079956055,47.39860534667969,47.47026824951172,47.369937896728516
1,1734620871.9360492,0.1759345531463623,-0.9157253068736573,0.2478583494769495,-0.9846800130656739,-1.5982335249530237,-0.670260254536764,-0.3917424078555811,-0.19522377307854719,0.25203485087607913,-1.087333645641182,-2.8557110312185237,0.016850729476365008,-0.1989036500453949,-1.2020742893218994,-1.4720215797424316,-0.8188567757606506,-0.20631641149520874,-0.268280953168869,47.47026824951172,47.38426971435547,47.44160079956055,47.44160079956055,47.455936431884766,47.34127426147461
1,1734620872.0371115,0.13381867110729218,-0.8705059450915833,0.235084358845846,-1.0185609620860596,-1.6033700148211878,-0.7151048819171351,-0.412727163215875,-0.17912787831253324,0.23980611646877437,-1.0819874358887391,-2.853378625411346,0.005188105702017875,-0.24960169196128845,-1.2177375555038452,-1.4427260160446167,-0.7993836998939514,-0.19468680024147034,-0.2597869038581848,47.513267517089844,47.39860534667969,47.41293716430664,47.44160079956055,47.498931884765625,47.34127426147461
1,1734620872.1384172,0.10235033929347992,-0.8366890114596863,0.22534591356386358,-1.0439698857120057,-1.6073530356036585,-0.7488411108600062,-0.42768577978290606,-0.1661107546476716,0.23038933735585487,-1.0776950868417032,-2.851753335856667,-0.0038677092564409765,-0.23534570634365082,-1.2722992897033691,-1.492192029953003,-0.795551061630249,-0.1895166039466858,-0.2312135100364685,47.498931884765625,47.369937896728516,47.455936431884766,47.41293716430664,47.48460006713867,47.34127426147461
1,1734620872.2386477,0.08294179290533066,-0.8155293625644227,0.2193077246295374,-1.0597734612277527,-1.6097443739520472,-0.7697981039630335,-0.4366152447644708,-0.15770890830135584,0.2243311382035015,-1.074931227517321,-2.851099118258027,-0.009599874871173492,-0.2314373105764389,-1.3293198347091675,-1.543031930923462,-0.7866362929344177,-0.20684146881103516,-0.19823981821537018,47.427268981933594,47.31260681152344,47.41293716430664,47.41293716430664,47.455936431884766,47.34127426147461
1,1734620872.33954,0.07426528632640839,-0.8065325182727356,0.21664268175234014,-1.0666425389102479,-1.6107514540301722,-0.7787583510028284,-0.44043587948645674,-0.15386668419039443,0.22176629534996037,-1.0742311955434183,-2.8504421663772543,-0.011926207840041766,-0.12422037124633789,-1.44253671169281,-1.4388232231140137,-0.7532510161399841,-0.2047642469406128,-0.16085711121559143,47.48460006713867,47.38426971435547,47.41293716430664,47.41293716430664,47.455936431884766,47.369937896728516
1,1734620872.440352,0.07391638308763504,-0.8063023251346131,0.21660215059389287,-1.0668615859797974,-1.6108711401568812,-0.7791298071490687,-0.44054680131868873,-0.15368869987271683,0.22165545584519006,-1.074203757536243,-2.8505296511189764,-0.012218887361877187,-0.16829727590084076,-1.554127812385559,-1.2858567237854004,-0.6595526337623596,-0.1857793778181076,-0.05627281963825226,47.5275993347168,47.35560607910156,47.44160079956055,47.44160079956055,47.513267517089844,47.369937896728516
1,1734620872.541249,0.07377327978610992,-0.8062537473491211,0.21659499803651983,-1.0668235582164307,-1.6108859221087855,-0.7792003790484827,-0.4405785517308673,-0.15362368552454284,0.22167447952317396,-1.0743044548797214,-2.8504056406649796,-0.012212459988100046,-0.22172144055366516,-1.445852279663086,-1.341853141784668,-0.7169188261032104,-0.15480166673660278,-0.08090393245220184,47.498931884765625,47.39860534667969,47.44160079956055,47.44160079956055,47.498931884765625,47.38426971435547
1,1734620872.6423035,0.0737168937921524,-0.806237594490387,0.21653920808901006,-1.0668804806521912,-1.610950771962301,-0.779187027608053,-0.44060796989989887,-0.15358535554248032,0.2216895637404381,-1.0743699444352266,-2.8502583862616135,-0.012243111484998936,-0.16432559490203857,-1.3729103803634644,-1.3367797136306763,-0.7287678718566895,-0.1220424547791481,-0.10245038568973541,47.5275993347168,47.41293716430664,47.427268981933594,47.47026824951172,47.48460006713867,47.39860534667969
1,1734620872.7433212,0.07372429966926575,-0.8061968845180054,0.2165587584124964,-1.0668694537929078,-1.6109350363360804,-0.7791789213763636,-0.44060489078834003,-0.15359210340157675,0.22166439063476517,-1.0743928482104836,-2.850325740587986,-0.012266130338455078,-0.16516946256160736,-1.2967771291732788,-1.3543057441711426,-0.6955979466438293,-0.10552263259887695,-0.10677719116210938,47.498931884765625,47.41293716430664,47.41293716430664,47.47026824951172,47.48460006713867,47.38426971435547
1,1734620872.8492758,0.07374835014343262,-0.8061989110759278,0.21661693254579717,-1.0668520492366333,-1.6108563582049769,-0.7791417280780237,-0.4405897748027952,-0.15362010644431318,0.22164624726858365,-1.0744397012454905,-2.8504145749707677,-0.012200269776904533,-0.171549454331398,-1.3134486675262451,-1.3489031791687012,-0.7063475847244263,-0.08211037516593933,-0.12468503415584564,47.498931884765625,47.39860534667969,47.39860534667969,47.44160079956055,47.48460006713867,47.38426971435547
1,1734620872.9501157,0.07373637706041336,-0.8060463231853028,0.21654254594911748,-1.0670091074756165,-1.6109684149371546,-0.7791956106769007,-0.4406469430951167,-0.1535929402579978,0.2216160549267285,-1.074346068678905,-2.8503230799472794,-0.01230934093536101,-0.1286545693874359,-1.2577139139175415,-1.2717289924621582,-0.7654581665992737,-0.06676182150840759,-0.08543021976947784,47.498931884765625,47.369937896728516,47.41293716430664,47.455936431884766,47.48460006713867,47.369937896728516
1,1734620873.0508723,0.0737646222114563,-0.8045733732036133,0.2168219725238245,-1.0682451885989686,-1.6109026114093226,-0.7789767424212855,-0.4409900929606248,-0.15364634321596127,0.2210015544510721,-1.0747599289578147,-2.850694398324536,-0.0125342994434206,-0.06361620128154755,-1.2943229675292969,-0.906567394733429,-0.7984021306037903,-0.08794642984867096,0.12842461466789246,47.5275993347168,47.39860534667969,47.38426971435547,47.44160079956055,47.48460006713867,47.369937896728516
1,1734620873.1515458,0.07409083098173141,-0.7993316215327759,0.21855003038515264,-1.0739499491504212,-1.6110075155841272,-0.7777450720416468,-0.4423875516811036,-0.15387330222222212,0.21874147361471202,-1.0763521697029932,-2.851259771145015,-0.013388319455846693,0.08982811123132706,-1.1026954650878906,-0.7494919896125793,-0.7683297991752625,-0.2148430347442627,0.192240372300148,47.5275993347168,47.38426971435547,47.455936431884766,47.47026824951172,47.48460006713867,47.369937896728516
1,1734620873.252111,0.07514762133359909,-0.7837267082980652,0.2234104315387171,-1.090015099649765,-1.6112011114703577,-0.774510685597555,-0.446278173372405,-0.15460098791070176,0.21193842030912421,-1.0805549582710918,-2.8538045832437535,-0.01621939095889172,0.08922603726387024,-1.0309969186782837,-0.6675387024879456,-0.8564661145210266,-0.1928640604019165,0.20042692124843597,47.47026824951172,47.39860534667969,47.39860534667969,47.41293716430664,47.47026824951172,47.35560607910156
1,1734620873.3533435,0.0768762081861496,-0.7551136773875733,0.23213655153383428,-1.119605616932251,-1.611687485371725,-0.7684696356402796,-0.45318488418768504,-0.1558128200039131,0.1993140151545231,-1.0886140992379698,-2.8579311856915295,-0.021464836603345153,0.14897610247135162,-1.1394938230514526,-0.6787436008453369,-0.8426914811134338,-0.2095489501953125,0.16448795795440674,47.48460006713867,47.369937896728516,47.427268981933594,47.427268981933594,47.48460006713867,47.369937896728516
1,1734620873.4540162,0.07940837740898132,-0.7140199703029175,0.2445152441607874,-1.1622262460044404,-1.6122778097735804,-0.759949032460348,-0.46242146589922595,-0.15759250750829548,0.18076824993357915,-1.0998305745086365,-2.863694045939731,-0.028832671676439773,0.13983172178268433,-1.031111478805542,-0.6611936688423157,-0.8645009398460388,-0.20347031950950623,0.191952183842659,47.513267517089844,47.39860534667969,47.41293716430664,47.427268981933594,47.48460006713867,47.369937896728516
1,1734620873.5550098,0.08261579275131226,-0.661908285026886,0.260627571736471,-1.2160201531699677,-1.613032642995016,-0.748995606099264,-0.47276359595727424,-0.15980437818123705,0.15636707946445114,-1.1144753435790506,-2.8713303887215655,-0.03890143625440462,0.1250486671924591,-1.1420029401779175,-0.7436544895172119,-0.8691449761390686,-0.17590326070785522,0.2195199877023697,47.513267517089844,47.38426971435547,47.44160079956055,47.44160079956055,47.48460006713867,47.369937896728516
1,1734620873.6556518,0.08635546267032623,-0.5991179508021851,0.2796700636493128,-1.2807960373214264,-1.6139791647540491,-0.7359464804278772,-0.4833538426418279,-0.16233223627347676,0.12609191784879017,-1.131998757370687,-2.880020607388216,-0.05128950250591273,0.1980060338973999,-1.5909773111343384,-0.9540994763374329,-0.8826882243156433,-0.15898939967155457,0.21106719970703125,47.47026824951172,47.41293716430664,47.39860534667969,47.44160079956055,47.498931884765625,47.38426971435547
1,1734620873.7563486,0.09005256742238998,-0.5413254064372559,0.29730159441103154,-1.34072099745784,-1.6148365179644983,-0.7237995306598108,-0.4911862006371086,-0.16469586136195158,0.0974066397170125,-1.1479035417678556,-2.887692882688998,-0.06291600409070894,0.1323791742324829,-1.6238620281219482,-0.9159298539161682,-0.8566710948944092,-0.19894516468048096,0.19863703846931458,47.498931884765625,47.369937896728516,47.427268981933594,47.455936431884766,47.48460006713867,47.39860534667969
1,1734620873.8570795,0.09274951368570328,-0.49620743215594487,0.3108752409564417,-1.387404592042305,-1.6154821554767054,-0.7144244352923792,-0.4960286964278551,-0.16637641118182178,0.07459947491970112,-1.160421579742826,-2.8934217230104227,-0.07216556454252933,0.15241852402687073,-1.6137499809265137,-0.9425040483474731,-0.8417289853096008,-0.1884625107049942,0.23315152525901794,47.513267517089844,47.369937896728516,47.427268981933594,47.455936431884766,47.455936431884766,47.369937896728516
1,1734620873.9579442,0.09495612978935242,-0.4621977371028443,0.32139379182924444,-1.4226262134364625,-1.615988556538717,-0.7073038260089319,-0.4987873277637963,-0.16763983543752015,0.057370860538865615,-1.1696901622814857,-2.897852185039765,-0.07936796432880978,0.1438215970993042,-1.6987090110778809,-0.9594427347183228,-0.8020812273025513,-0.1447868049144745,0.1459667980670929,47.48460006713867,47.35560607910156,47.41293716430664,47.427268981933594,47.498931884765625,47.369937896728516
1,1734620874.0589633,0.09629775583744049,-0.44044120729479985,0.3279002348529261,-1.4451036018184205,-1.6162975470172327,-0.7027681509601038,-0.5003070801866573,-0.16843736791884065,0.04587967924405503,-1.1757529626515988,-2.900588515537337,-0.08412198530597914,0.12697230279445648,-1.7315998077392578,-0.923686146736145,-0.7870558500289917,-0.18367578089237213,0.18799607455730438,47.48460006713867,47.39860534667969,47.44160079956055,47.44160079956055,47.498931884765625,47.369937896728516
1,1734620874.1600604,0.09662948548793793,-0.4302113813212891,0.3309739271747034,-1.455604688530304,-1.6164653936969202,-0.700573746358053,-0.5009398955164758,-0.16863522274370227,0.04057298740775872,-1.1791194582479827,-2.901684080540887,-0.08640736112866684,0.16396458446979523,-1.800279140472412,-0.9159594774246216,-0.7458718419075012,-0.15429452061653137,0.13113921880722046,47.498931884765625,47.35560607910156,47.44160079956055,47.427268981933594,47.48460006713867,47.34127426147461
1,1734620874.2615712,0.0968145951628685,-0.4296812576106568,0.3310774008380335,-1.4562751364758988,-1.6164305845843714,-0.7005842367755335,-0.5009828347272363,-0.16874365904232688,0.0403237248134205,-1.1788245112343567,-2.9017838185013147,-0.08632893718201097,0.1510273814201355,-1.952574610710144,-0.9016566872596741,-0.5708567500114441,-0.1486712396144867,0.1255340278148651,47.498931884765625,47.369937896728516,47.44160079956055,47.47026824951172,47.498931884765625,47.369937896728516
1,1734620874.3620512,0.09692525863647461,-0.4296495479396363,0.3312032858477991,-1.4563368198326607,-1.6164024511920374,-0.7004678885089319,-0.5009476519794483,-0.16880399018659956,0.04027515013277014,-1.1788635171536463,-2.901866153998665,-0.08636059800540388,0.13223931193351746,-1.874886393547058,-0.9005861878395081,-0.6162410378456116,-0.14015260338783264,0.12014389038085938,47.498931884765625,47.369937896728516,47.427268981933594,47.44160079956055,47.455936431884766,47.369937896728516
1,1734620874.4638417,0.09686163812875748,-0.4296568197062989,0.33126527467836553,-1.4563412901810189,-1.6164186636554163,-0.700479809437887,-0.5009474773750017,-0.16876723507122024,0.04026127417016001,-1.1789507109873496,-2.9018710635856464,-0.08642116123595438,0.11991287767887115,-1.7684499025344849,-0.8971938490867615,-0.641398012638092,-0.13404083251953125,0.11434081196784973,47.455936431884766,47.34127426147461,47.39860534667969,47.39860534667969,47.44160079956055,47.35560607910156
1,1734620874.5643811,0.09694144129753113,-0.42964060724291997,0.3312738577472132,-1.456339755361416,-1.6165216604815882,-0.7004841009723108,-0.50093239476286,-0.16878304357169427,0.040251528929344305,-1.1788149960773042,-2.901892547368159,-0.08658183522263334,0.1263882964849472,-1.682085633277893,-0.9122658967971802,-0.6428144574165344,-0.12014666199684143,0.10748516023159027,47.47026824951172,47.35560607910156,47.35560607910156,47.427268981933594,47.44160079956055,47.34127426147461
1,1734620874.6650815,0.09686797857284546,-0.4296181958964844,0.3312738577472132,-1.4563397330096741,-1.6165054480182093,-0.7005050818072718,-0.5009419264127082,-0.16874973414218916,0.04023979469953026,-1.1789018213323943,-2.9018898321507525,-0.0865771076182515,0.1284436732530594,-1.6926958560943604,-0.9295534491539001,-0.6260631680488586,-0.11869314312934875,0.08746811747550964,47.513267517089844,47.32693862915039,47.427268981933594,47.47026824951172,47.47026824951172,47.35560607910156
1,1734620874.7660644,0.09693387150764465,-0.429581956272461,0.33128148714174444,-1.4563107055476685,-1.6164472738849085,-0.700479809437887,-0.5009170900865311,-0.16879491398238222,0.040215847790677745,-1.1788748463152217,-2.9019977517471847,-0.0865514251390327,0.11092770099639893,-1.6797244548797607,-0.9463208913803101,-0.6253141760826111,-0.08741617202758789,0.08565044403076172,47.48460006713867,47.369937896728516,47.41293716430664,47.427268981933594,47.47026824951172,47.35560607910156
1,1734620874.8671122,0.09686458855867386,-0.42956097543750005,0.3312481085406702,-1.4563236248544236,-1.616472069417135,-0.7004511992083948,-0.5009370911616253,-0.16875527338989912,0.040216180624275816,-1.1790048425811013,-2.901909039302234,-0.08656669558532006,0.10822305083274841,-1.6685826778411865,-0.9549219012260437,-0.6418358683586121,-0.09978967905044556,0.06493891775608063,47.5275993347168,47.369937896728516,47.35560607910156,47.455936431884766,47.498931884765625,47.39860534667969
1,1734620874.968338,0.09690140187740326,-0.4295254510692139,0.33126956621278936,-1.4563410219601174,-1.6164472738849085,-0.7004678885089319,-0.5009258556127465,-0.1687789896711547,0.040192713931661905,-1.1789432753521545,-2.9019839081321686,-0.08656221059069284,0.09692786633968353,-1.6908663511276245,-0.9726653099060059,-0.634566068649292,-0.09601682424545288,0.06568464636802673,47.54193115234375,47.39860534667969,47.44160079956055,47.455936431884766,47.498931884765625,47.35560607910156
1,1734620875.0730507,0.09695012867450714,-0.42958636701617436,0.3312771956073206,-1.4563561242869874,-1.6164563337909144,-0.7004631201373499,-0.500926497699093,-0.16880217922232899,0.0402231681343837,-1.1788573050690168,-2.9019484869373415,-0.08652284672748507,0.11644074320793152,-1.6902767419815063,-0.9759024381637573,-0.643873929977417,-0.09494639933109283,0.0692518800497055,47.513267517089844,47.34127426147461,47.39860534667969,47.47026824951172,47.47026824951172,47.369937896728516
1,1734620875.174134,0.09696634113788605,-0.42958636701617436,0.33128577867616826,-1.4563038733652611,-1.616472069417135,-0.7005050818072718,-0.500924029524887,-0.1687875710202019,0.04021389401541875,-1.1788477927982688,-2.9019798660369855,-0.08657267689780314,0.07848754525184631,-2.0126516819000244,-1.0037353038787842,-0.5387324690818787,-0.05741904675960541,0.05319617688655853,47.513267517089844,47.39860534667969,47.427268981933594,47.455936431884766,47.498931884765625,47.35560607910156
1,1734620875.2751951,0.09683647006750107,-0.4307137292674561,0.3312571684466761,-1.4552088540843506,-1.616284195576803,-0.7005289236651819,-0.5008045952806236,-0.16877090429057506,0.04071420361737582,-1.1789730880356206,-2.9019992676373367,-0.0862905742604908,-0.0031390078365802765,-2.479144334793091,-1.009545922279358,-0.3335462212562561,0.009117692708969116,0.045592278242111206,47.47026824951172,47.31260681152344,47.427268981933594,47.44160079956055,47.498931884765625,47.35560607910156
1,1734620875.3761005,0.09665687382221222,-0.436550573711731,0.33126527467836553,-1.4502197665027161,-1.6154916922198694,-0.7004931608783167,-0.5002950271254671,-0.16881030060036056,0.043299683027702124,-1.179246856690171,-2.9015343080250546,-0.08458528004581126,-0.11785021424293518,-2.6856741905212402,-1.0115717649459839,-0.255985289812088,0.15402911603450775,0.05334906280040741,47.513267517089844,47.38426971435547,47.427268981933594,47.455936431884766,47.498931884765625,47.369937896728516
1,1734620875.4768145,0.09586644172668457,-0.4528094095042725,0.3313253561602991,-1.4359044891646882,-1.6133063475238245,-0.7005050818072718,-0.49874317536629986,-0.16875339897346026,0.050435702501512025,-1.1803973738720899,-2.9004999509527263,-0.08021171787016389,-0.17816691100597382,-2.8450968265533447,-0.9361773729324341,-0.22300627827644348,0.1763014793395996,0.06446252763271332,47.47026824951172,47.34127426147461,47.39860534667969,47.427268981933594,47.48460006713867,47.32693862915039
1,1734620875.578089,0.09460906684398651,-0.48303242147479253,0.3315046469317835,-1.409341261988022,-1.6093247572528284,-0.7004841009723108,-0.4955224785601595,-0.1687129697508658,0.06359678195379204,-1.182255352535959,-2.8986371417014976,-0.07220616413903723,-0.20364172756671906,-2.7674689292907715,-0.9276062250137329,-0.20455867052078247,0.18936365842819214,0.041572436690330505,47.44160079956055,47.31260681152344,47.41293716430664,47.38426971435547,47.41293716430664,47.31260681152344
1,1734620875.6786733,0.09275995939970016,-0.5248844188502808,0.33173829713930303,-1.3725189429572602,-1.603551212941305,-0.7004664579974573,-0.4904334569683138,-0.16861976380316754,0.08161116187038836,-1.1849754455079862,-2.8961118604047034,-0.060781140740701504,-0.21967801451683044,-2.7225682735443115,-0.9115418791770935,-0.1114809587597847,0.18992392718791962,0.02137342095375061,47.44160079956055,47.369937896728516,47.39860534667969,47.427268981933594,47.41293716430664,47.32693862915039
1,1734620875.7795768,0.09033014625310898,-0.578692154293396,0.3320425192462366,-1.325254963045456,-1.5962985197650355,-0.7005041281329554,-0.48285180521652693,-0.16837134288369435,0.10437667711999732,-1.1883175162466892,-2.8926840665734916,-0.04627359723636483,-0.2457641065120697,-2.484421730041504,-0.8401210904121399,-0.15026813745498657,0.1579275131225586,-0.006679825484752655,47.455936431884766,47.369937896728516,47.369937896728516,47.39860534667969,47.44160079956055,47.32693862915039
1,1734620875.8803868,0.08798359334468842,-0.6327443879893799,0.3322246710406702,-1.277664141064026,-1.5890629927264612,-0.7005279699908655,-0.47402974532389647,-0.16809120129569322,0.12675694016179664,-1.1914442601464976,-2.8891991463882194,-0.03176178010862024,-0.22558632493019104,-2.329639196395874,-0.8299847841262817,-0.1709514707326889,0.18368008732795715,-0.009652853012084961,47.47026824951172,47.35560607910156,47.39860534667969,47.39860534667969,47.48460006713867,47.32693862915039
1,1734620875.9808152,0.08615946769714355,-0.6736443203738709,0.33244449297060186,-1.2416694325259705,-1.5835402647601526,-0.7005518118487757,-0.4665782818167934,-0.1678301126286615,0.1432864956642756,-1.1938333161489154,-2.8865760646160696,-0.020765163130102342,-0.2405526041984558,-2.213771343231201,-0.8147071599960327,-0.22900432348251343,0.238112211227417,-0.025889843702316284,47.498931884765625,47.369937896728516,47.39860534667969,47.427268981933594,47.513267517089844,47.35560607910156
1,1734620876.0823386,0.08481483161449432,-0.7027051013759156,0.3325436750995081,-1.2161570948413392,-1.5795391241656702,-0.7005518118487757,-0.46091804245338514,-0.1676264174072511,0.15483641915234964,-1.1955617676853527,-2.8845892559438013,-0.012759527818512978,-0.2086953967809677,-2.1725680828094482,-0.7958093881607056,-0.28585004806518555,0.17573091387748718,-0.01239602267742157,47.498931884765625,47.369937896728516,47.41293716430664,47.427268981933594,47.47026824951172,47.35560607910156
1,1734620876.1833098,0.08422906696796417,-0.7198679608157654,0.33268481889833623,-1.2011034947684784,-1.5773080031024378,-0.7005770842181605,-0.45738139372852604,-0.16756496719146483,0.1615466712611792,-1.196231988082565,-2.883546942521529,-0.008261691871322831,-0.23031720519065857,-2.102450132369995,-0.8227481245994568,-0.25163939595222473,0.18642547726631165,-0.008100740611553192,47.48460006713867,47.39860534667969,47.38426971435547,47.44160079956055,47.498931884765625,47.35560607910156
1,1734620876.284527,0.08405785262584686,-0.7246607106975098,0.332738224660055,-1.1968561869910737,-1.5767596403705042,-0.7005022207843226,-0.4563645261174619,-0.16752511490263708,0.16340072005714953,-1.1965538388683474,-2.883216143543793,-0.007149417009067934,-0.22076302766799927,-1.8761969804763794,-0.8713085055351257,-0.4491305351257324,0.15702661871910095,-0.03053322434425354,47.513267517089844,47.369937896728516,47.427268981933594,47.44160079956055,47.498931884765625,47.32693862915039
1,1734620876.3851635,0.08389425277709961,-0.7245572966388245,0.33273584047426397,-1.1968862277320405,-1.576623264943258,-0.7005308310138147,-0.4563977404673503,-0.167482704691922,0.1633552142448336,-1.196793995556692,-2.8832533119904693,-0.00701448351359325,-0.19154834747314453,-2.036027431488037,-0.9463008642196655,-0.43112581968307495,0.19299492239952087,-0.021451622247695923,47.498931884765625,47.32693862915039,47.427268981933594,47.427268981933594,47.498931884765625,47.34127426147461
1,1734620876.485839,0.08394398540258408,-0.7245891851237793,0.3327449003802698,-1.1969099205783387,-1.576623264943258,-0.7005441824542444,-0.4563931382513469,-0.16750573445215536,0.1633696761018648,-1.196687405411874,-2.8832528101509243,-0.006980463563019045,-0.21204142272472382,-2.168031930923462,-0.9925658106803894,-0.4427148699760437,0.16643135249614716,-0.03419652581214905,47.513267517089844,47.35560607910156,47.39860534667969,47.427268981933594,47.498931884765625,47.35560607910156
1,1734620876.5867658,0.08390282839536667,-0.7246769231608887,0.3327449003802698,-1.1968325239470978,-1.576627556477682,-0.7005603949176233,-0.4563813185273027,-0.16748435563162464,0.16340392126923972,-1.1967200267211537,-2.883227335201154,-0.006979862225642685,-0.2040732055902481,-2.206756830215454,-1.0388984680175781,-0.4477580189704895,0.1464890092611313,-0.01515273004770279,47.498931884765625,47.369937896728516,47.39860534667969,47.427268981933594,47.44160079956055,47.32693862915039
1,1734620876.687537,0.0838899239897728,-0.724724606876709,0.33273584047426397,-1.1968949598125,-1.5765951315509241,-0.7005890051471155,-0.4563980044556555,-0.16748730399069356,0.16343432678018938,-1.1966625633317514,-2.883153090381988,-0.006849892998010815,-0.21315717697143555,-2.172224760055542,-1.0654830932617188,-0.46405601501464844,0.12149710953235626,-0.023036740720272064,47.513267517089844,47.369937896728516,47.41293716430664,47.44160079956055,47.48460006713867,47.34127426147461
1,1734620876.788116,0.08392675966024399,-0.7247203153422852,0.3327449003802698,-1.1968370539001008,-1.576623264943258,-0.7005470434771937,-0.45637776849850614,-0.167496332461063,0.16342464879607715,-1.1966895151992631,-2.8831960542558788,-0.006938878978788319,-0.20173460245132446,-2.1617846488952637,-1.0772455930709839,-0.47698885202407837,0.1232338398694992,-0.019818000495433807,47.498931884765625,47.34127426147461,47.427268981933594,47.427268981933594,47.48460006713867,47.34127426147461
1,1734620876.8892763,0.08382060378789902,-0.7247041028789063,0.3327868620501917,-1.1968339842608948,-1.5766356627093714,-0.7006009260760706,-0.4563890072025387,-0.16744440850232414,0.16340480611085584,-1.196783449457169,-2.883210044876644,-0.007002554645288463,-0.21126388013362885,-2.162789821624756,-1.093457818031311,-0.4699535369873047,0.0922156572341919,-0.015482813119888306,47.48460006713867,47.34127426147461,47.41293716430664,47.39860534667969,47.48460006713867,47.32693862915039
1,1734620876.9897277,0.08389866352081299,-0.7247740191272278,0.3327449003802698,-1.196860746746399,-1.576599423085348,-0.7005484739886683,-0.4563868387720289,-0.16748946424704117,0.16345185916150487,-1.1967059743506887,-2.883126919338381,-0.006850652622886623,-0.18116715550422668,-2.1582891941070557,-1.1156049966812134,-0.4973587393760681,0.07502983510494232,-0.01126038283109665,47.48460006713867,47.34127426147461,47.47026824951172,47.427268981933594,47.47026824951172,47.35560607910156
1,1734620877.0904245,0.08392675220966339,-0.7247290176204224,0.3327239195453089,-1.1968413156322022,-1.5766485373126429,-0.7005308310138147,-0.45638226685972244,-0.16749083947988797,0.1634351827745248,-1.1966974249722375,-2.8831474996972646,-0.006949249669060571,-0.19443592429161072,-2.170309543609619,-1.1300318241119385,-0.502525269985199,0.06031821668148041,-0.01002078503370285,47.498931884765625,47.38426971435547,47.44160079956055,47.44160079956055,47.47026824951172,47.369937896728516
1,1734620877.190958,0.08391495048999786,-0.7247535151294251,0.33271629015077764,-1.1968532365611573,-1.5766599814044397,-0.7005766073810022,-0.45638805931634224,-0.16748312862399464,0.16344994149526793,-1.1966319041883047,-2.8831268198880595,-0.0069343380950818625,-0.16832812130451202,-2.1676013469696045,-1.1436128616333008,-0.5246227383613586,0.050914615392684937,-0.018231697380542755,47.513267517089844,47.38426971435547,47.44160079956055,47.427268981933594,47.47026824951172,47.369937896728516
1,1734620877.2921138,0.08386904746294022,-0.7246996325305481,0.3326953093158167,-1.1968489748290558,-1.5765865484820765,-0.7005279699908655,-0.4563944859070281,-0.16746920391021433,0.16343678495689104,-1.1967742151964427,-2.8830859450187254,-0.006954995787938132,-0.15807195007801056,-2.1555962562561035,-1.1490832567214966,-0.4997289776802063,0.03451016545295715,-0.025440014898777008,47.5275993347168,47.41293716430664,47.47026824951172,47.44160079956055,47.498931884765625,47.34127426147461
1,1734620877.392957,0.08390726894140244,-0.7247203153422852,0.33274919191469365,-1.1968489450267334,-1.576623264943258,-0.7005265394793909,-0.45638312568180467,-0.16748761768391723,0.1634244792544972,-1.1967445516529844,-2.8831659131868133,-0.006933396804005783,-0.17204394936561584,-2.155139446258545,-1.1381248235702515,-0.5124403238296509,0.03166516125202179,-0.01194426417350769,47.498931884765625,47.35560607910156,47.369937896728516,47.44160079956055,47.48460006713867,47.369937896728516
1,1734620877.493831,0.08387041091918945,-0.7247246664813538,0.3327282110797327,-1.1968489450267334,-1.5765741507159632,-0.7005475203143519,-0.45639142974197017,-0.16748243593988413,0.16343238153654835,-1.196767003034048,-2.883156976166943,-0.006848035465063879,-0.14374592900276184,-2.1617283821105957,-1.1449766159057617,-0.5109501481056213,0.018619492650032043,-0.00010336190462112427,47.48460006713867,47.34127426147461,47.38426971435547,47.44160079956055,47.44160079956055,47.31260681152344
1,1734620877.5981417,0.0839235931634903,-0.7247699064067383,0.3327534834491175,-1.1968130630305787,-1.576644245778219,-0.7005603949176233,-0.45637133801754215,-0.16748940737563306,0.16344335925123432,-1.1966660542772707,-2.883179001675107,-0.006955967730467522,-0.1606711745262146,-2.148954153060913,-1.1429946422576904,-0.5142046809196472,0.012823149561882019,-0.006490103900432587,47.48460006713867,47.38426971435547,47.41293716430664,47.44160079956055,47.455936431884766,47.34127426147461
1,1734620877.6995032,0.0839018002152443,-0.7248446506312867,0.33271629015077764,-1.1968780618957062,-1.5766361395465296,-0.7005441824542444,-0.4563944509575884,-0.16748307912292343,0.16349479696716854,-1.1966627891924497,-2.883014560699414,-0.0068176282631509525,-0.06474293768405914,-2.2852988243103027,-0.9688188433647156,-0.5053582787513733,0.008010953664779663,0.04406244307756424,47.48460006713867,47.369937896728516,47.41293716430664,47.44160079956055,47.44160079956055,47.38426971435547
1,1734620877.800063,0.08479731529951096,-0.7263670724681397,0.3339932600604456,-1.196886108522751,-1.5766757170306605,-0.6998403708087366,-0.45603860827116266,-0.16786457053297196,0.16384354317188238,-1.1962985863690883,-2.882899174588542,-0.006664168618449925,0.14514049887657166,-2.2572391033172607,-0.7928944230079651,-0.558322012424469,-0.08437813073396683,0.14543485641479492,47.455936431884766,47.34127426147461,47.369937896728516,47.427268981933594,47.47026824951172,47.32693862915039
1,1734620877.9007192,0.08871950954198837,-0.7318305534175416,0.3394368330584925,-1.1969836515239258,-1.5770061651812952,-0.6969459692584437,-0.4545268413910075,-0.1694971464190028,0.16485227443892178,-1.1947345876617894,-2.8832543955810976,-0.006924734732881308,0.2792302072048187,-2.3773930072784424,-0.8067135810852051,-0.587430477142334,-0.13935139775276184,0.15283925831317902,47.48460006713867,47.35560607910156,47.38426971435547,47.39860534667969,47.47026824951172,47.369937896728516
1,1734620878.0014448,0.09999740123748779,-0.7475254100612183,0.35447436967958623,-1.1973402959159394,-1.578048054371969,-0.6888445059405726,-0.450229177549984,-0.1741270115946424,0.16790207358632572,-1.1896775191266147,-2.8838034731754076,-0.007288685953130261,0.42090338468551636,-2.4322047233581543,-0.7909502387046814,-0.6514507532119751,-0.1680404245853424,0.2586270272731781,47.498931884765625,47.35560607910156,47.427268981933594,47.427268981933594,47.48460006713867,47.35560607910156
1,1734620878.102135,0.12127827107906342,-0.777604417209961,0.3828771750079554,-1.1979756516269227,-1.5800188223468226,-0.673349682484762,-0.441852726558637,-0.18263975739714486,0.17374878023603751,-1.1803080574789593,-2.8843510005265762,-0.007555909527112171,0.43936142325401306,-2.3868627548217773,-0.7724738717079163,-0.6769657731056213,-0.19442519545555115,0.21933236718177795,47.498931884765625,47.38426971435547,47.427268981933594,47.41293716430664,47.47026824951172,47.369937896728516
1,1734620878.2028625,0.15122497081756592,-0.8191903990558167,0.42214948335756475,-1.1987493497184296,-1.5825465361224573,-0.651926342641012,-0.42962610354093994,-0.19418035291940303,0.18156851008846184,-1.1666803469264184,-2.8855239368382275,-0.00744714093485122,0.35186177492141724,-2.4038968086242676,-0.7124406099319458,-0.6903976202011108,-0.1929091364145279,0.26239901781082153,47.498931884765625,47.34127426147461,47.369937896728516,47.41293716430664,47.47026824951172,47.369937896728516
1,1734620878.3035784,0.18953312933444977,-0.8727612060359498,0.4728329817401331,-1.199894444351532,-1.5859668890582483,-0.6242945829974573,-0.41311819183702586,-0.2079860671863405,0.19117932673776825,-1.1495435646728245,-2.8866248427554977,-0.007006123887455378,0.30264776945114136,-2.262605667114258,-0.6849903464317322,-0.657651424407959,-0.2115931510925293,0.3092247247695923,47.47026824951172,47.38426971435547,47.39860534667969,47.39860534667969,47.47026824951172,47.34127426147461
1,1734620878.4039667,0.23622743785381317,-0.9382097882083436,0.5347068945514124,-1.201286570434906,-1.590109650288717,-0.5906098524676722,-0.3918248279090313,-0.22335237550822165,0.20221309824618997,-1.1287021320081185,-2.887791756355445,-0.005650111597112865,0.393161416053772,-2.0994842052459717,-0.6794648766517639,-0.6223748922348022,-0.2350396364927292,0.3242667615413666,47.47026824951172,47.34127426147461,47.34127426147461,47.369937896728516,47.47026824951172,47.35560607910156
1,1734620878.5047448,0.2871643900871277,-1.0094698828509827,0.6023581663714808,-1.2025793355754395,-1.5945737997638147,-0.5538318792926233,-0.3672722613394077,-0.23816797480064966,0.21317562907484572,-1.1062404512534476,-2.8893175665650155,-0.003663754258859985,0.24935388565063477,-2.1456780433654785,-0.6920074224472046,-0.7042239904403687,-0.26247456669807434,0.26024970412254333,47.48460006713867,47.32693862915039,47.38426971435547,47.38426971435547,47.38426971435547,47.34127426147461
1,1734620878.6053436,0.3369877338409424,-1.0796606701663514,0.6686270872699183,-1.2039519411376496,-1.5989769140826624,-0.517735783253805,-0.3421832765313168,-0.25058672337343835,0.22307601374413485,-1.0843901797611517,-2.890228139008477,-0.000395620476579417,0.30278682708740234,-1.9792709350585938,-0.7039973735809326,-0.7080898284912109,-0.2572706341743469,0.23185408115386963,47.47026824951172,47.34127426147461,47.35560607910156,47.32693862915039,47.427268981933594,47.32693862915039
1,1734620878.7063372,0.3878115117549896,-1.1509450835040589,0.7362540403949183,-1.2053615611842652,-1.6036461035357874,-0.4808881918536585,-0.3157790328742648,-0.2610526290524351,0.23196633217750978,-1.0622861348839092,-2.8911903790646196,0.003318494389308054,0.39855700731277466,-1.8411824703216553,-0.7092653512954712,-0.7913163900375366,-0.15983571112155914,0.26305341720581055,47.44160079956055,47.34127426147461,47.369937896728516,47.38426971435547,47.427268981933594,47.31260681152344
1,1734620878.807077,0.4378736913204193,-1.2210251551917572,0.8024509588824671,-1.2067321103862305,-1.607840363179342,-0.4448125998126429,-0.28919426962232797,-0.26929151513842675,0.23969356066868253,-1.040320428835932,-2.8922839187432836,0.008578932578707052,0.228783518075943,-1.752295732498169,-0.624840259552002,-0.83205246925354,-0.25680282711982727,0.2627445161342621,47.48460006713867,47.369937896728516,47.39860534667969,47.39860534667969,47.48460006713867,47.32693862915039
1,1734620878.9080665,0.4888426661491394,-1.292287991648056,0.8698585669146937,-1.2083193820765992,-1.6124394575702112,-0.4080427328692835,-0.2618289840153093,-0.2753938148907699,0.24640376726659696,-1.0180550431904176,-2.8930878900307007,0.014567295052529555,0.39230552315711975,-1.8303824663162231,-0.585307240486145,-0.6685479283332825,-0.19519788026809692,0.3199785351753235,47.455936431884766,47.298274993896484,47.369937896728516,47.38426971435547,47.39860534667969,47.32693862915039
1,1734620879.0087385,0.5386162400245667,-1.3622915011695405,0.936080280934469,-1.2096729439548035,-1.6168487707721155,-0.37191945711244756,-0.23484270216944975,-0.27913111885284414,0.2518246294284585,-0.9968057244438466,-2.8939633654306465,0.021165135080936863,0.36990785598754883,-1.7680623531341553,-0.6064243912696838,-0.7436789870262146,-0.1825052797794342,0.2786654829978943,47.455936431884766,47.34127426147461,47.39860534667969,47.39860534667969,47.427268981933594,47.31260681152344
1,1734620879.1098447,0.5855820775032043,-1.4275076401284714,0.9978793303119105,-1.2110717457583924,-1.6207988897906702,-0.3383429686175745,-0.20961003017145816,-0.2808686492304967,0.25581352224896825,-0.9761793855055121,-2.8952623395830464,0.028262699969568216,0.08044720441102982,-1.509029746055603,-0.6351337432861328,-0.7365595102310181,-0.245052307844162,0.2993132472038269,47.498931884765625,47.34127426147461,47.41293716430664,47.39860534667969,47.44160079956055,47.35560607910156
1,1734620879.2110934,0.6220759153366089,-1.4796239000609894,1.0472071806537073,-1.212071256046631,-1.6242626349078577,-0.31152135530580694,-0.18993842289643317,-0.28067738225401145,0.25827942998802267,-0.9612150810425487,-2.895644407775422,0.03399398785641299,0.28701815009117126,-1.3534607887268066,-0.7366008758544922,-0.7154395580291748,-0.2045762538909912,0.26768314838409424,47.455936431884766,47.38426971435547,47.44160079956055,47.427268981933594,47.44160079956055,47.32693862915039
1,1734620879.3123097,0.6513912677764893,-1.5200588156333943,1.0855196158038538,-1.2128932040980835,-1.626676384602682,-0.2905777136432093,-0.17453211695828982,-0.2800049951460388,0.2597312718398634,-0.9484573667706803,-2.896616550627707,0.03906828671219301,0.059396449476480484,-1.2631007432937622,-0.7369003891944885,-0.7852863073348999,-0.29812633991241455,0.20502179861068726,47.498931884765625,47.38426971435547,47.41293716430664,47.427268981933594,47.455936431884766,47.34127426147461
1,1734620879.41333,0.6707292795181274,-1.5478202489069481,1.1118391195880335,-1.2134581369212647,-1.628803555165426,-0.27630454698671514,-0.16434844946534063,-0.27893753002627525,0.2605018815476433,-0.9406215254323926,-2.8966082318029356,0.042206896898152886,0.3515135645866394,-1.2151507139205933,-0.8152903318405151,-0.7428615093231201,-0.12866804003715515,0.2390507161617279,47.498931884765625,47.41293716430664,47.427268981933594,47.427268981933594,47.455936431884766,47.38426971435547
1,1734620879.5140986,0.6824082732200623,-1.5636379255777975,1.1267240683185022,-1.2137416464141388,-1.62946063676943,-0.26812869707216436,-0.1583324142742072,-0.2784079719630208,0.26087850170216353,-0.9353738827933872,-2.8973137134544995,0.04466724051925756,0.041298385709524155,-1.105225920677185,-0.8659986257553101,-0.7892325520515442,-0.23770785331726074,0.14296960830688477,47.498931884765625,47.369937896728516,47.44160079956055,47.44160079956055,47.455936431884766,47.34127426147461
1,1734620879.6149702,0.6848466992378235,-1.567301504114159,1.1302784124957483,-1.213901476269104,-1.6297310034381312,-0.2663472334491175,-0.1570404379101559,-0.27821173237792873,0.2609369038794318,-0.9343597577051032,-2.897313562006027,0.04509778756981965,0.16695410013198853,-0.9742650389671326,-1.0144076347351074,-0.7113897800445557,-0.18173328042030334,0.043166328221559525,47.498931884765625,47.34127426147461,47.39860534667969,47.41293716430664,47.498931884765625,47.32693862915039
1,1734620879.7161095,0.6850218772888184,-1.5672837179484596,1.130266014729635,-1.2138571304133912,-1.6297262350665491,-0.26626569429506475,-0.15698610320135073,-0.27823607774034165,0.2609306438805906,-0.9342327284094928,-2.897391751749589,0.04505765023169805,0.10370983183383942,-1.1126477718353271,-0.8917131423950195,-0.6946358680725098,-0.17112213373184204,0.1309726983308792,47.455936431884766,47.369937896728516,47.38426971435547,47.41293716430664,47.47026824951172,47.35560607910156
1,1734620879.8171794,0.6850621104240417,-1.5673730415622522,1.1303098837481897,-1.2138600808433075,-1.6297429243670862,-0.2661941687213343,-0.15696572966736497,-0.2782299081339639,0.26094476418047663,-0.9342692771340698,-2.897338609670439,0.04511343922664391,0.11503076553344727,-1.1560372114181519,-0.8309357762336731,-0.6778067946434021,-0.19050508737564087,0.12683148682117462,47.455936431884766,47.38426971435547,47.38426971435547,47.44160079956055,47.455936431884766,47.369937896728516
1,1734620879.9177396,0.6850664615631104,-1.567379252785333,1.13035756746401,-1.2138928932002564,-1.6297310034381312,-0.2661822477923792,-0.1569629949415618,-0.27823290895646097,0.26093568378152987,-0.9342835252744742,-2.897349722671334,0.04511372385958404,0.14921173453330994,-1.1747031211853027,-0.8859710693359375,-0.6578989028930664,-0.17591595649719238,0.11646296083927155,47.455936431884766,47.369937896728516,47.38426971435547,47.427268981933594,47.48460006713867,47.38426971435547
1,1734620880.018284,0.6850129961967468,-1.5673747819713135,1.1303823629962366,-1.2138973337462922,-1.6297887007342737,-0.2661994139300745,-0.15698482820237689,-0.2782129281354451,0.2609283229504391,-0.9343277988331778,-2.897299099571533,0.045028325275187187,0.1346542239189148,-1.1563191413879395,-0.9033530354499817,-0.6580114364624023,-0.15551751852035522,0.11329659819602966,47.513267517089844,47.39860534667969,47.427268981933594,47.44160079956055,47.498931884765625,47.38426971435547
1,1734620880.1187108,0.6850695013999939,-1.5674167436412354,1.1303618589984339,-1.213848428135254,-1.6297591368304651,-0.26620704332460576,-0.15695490577330934,-0.27821904197926567,0.26094139757774726,-0.9342394818232941,-2.8973459416011393,0.045074127047614536,0.1527489721775055,-1.160416841506958,-0.9200366735458374,-0.6673527956008911,-0.17761197686195374,0.12109935283660889,47.48460006713867,47.38426971435547,47.44160079956055,47.44160079956055,47.48460006713867,47.369937896728516
1,1734620880.2243326,0.6849796175956726,-1.5674374057310452,1.1303532759295862,-1.2138154369643708,-1.6297515074359339,-0.2662308851825159,-0.1569722226056355,-0.27820093082344377,0.2609465714304178,-0.9343368891805606,-2.8973217489590684,0.04506739294326362,0.13927656412124634,-1.138277292251587,-0.9176931381225586,-0.6547452211380005,-0.16376817226409912,0.11692476272583008,47.513267517089844,47.39860534667969,47.41293716430664,47.455936431884766,47.47026824951172,47.38426971435547
1,1734620880.3250806,0.685101330280304,-1.5674167350265016,1.13039476076235,-1.2138572198203583,-1.629763428364889,-0.2662280241595667,-0.15694477837181992,-0.27822170534999385,0.26093261344195445,-0.9341652239135707,-2.897380592927788,0.04504069764426695,0.18848451972007751,-1.0133159160614014,-0.9442009925842285,-0.6922067403793335,-0.1341918408870697,0.1387479305267334,47.47026824951172,47.369937896728516,47.427268981933594,47.427268981933594,47.498931884765625,47.34127426147461
1,1734620880.4254518,0.6863915324211121,-1.566870800951012,1.1303542296039026,-1.214393602018692,-1.6294878164874476,-0.2653725782977503,-0.1566888449256899,-0.2785911028425423,0.26083340422997114,-0.9335890721799712,-2.8978172045339763,0.04547046354100101,0.19147804379463196,-0.6866256594657898,-1.1307711601257324,-0.736987829208374,0.05168969929218292,0.1759127676486969,47.498931884765625,47.34127426147461,47.41293716430664,47.39860534667969,47.513267517089844,47.39860534667969
1,1734620880.526262,0.692341685295105,-1.5641228000498195,1.1299298445331019,-1.2163002055934449,-1.6279881636248987,-0.26211673418153936,-0.15541158042528416,-0.28028781085363574,0.2603148000087647,-0.930047582928669,-2.900635056755031,0.046870377499770854,0.2114439159631729,-0.5311573147773743,-1.3621430397033691,-0.7379876971244812,0.13062065839767456,0.15884847939014435,47.498931884765625,47.39860534667969,47.41293716430664,47.44160079956055,47.47026824951172,47.34127426147461
1,1734620880.6273513,0.7083243727684021,-1.5566351649216195,1.128697697316305,-1.221595750456192,-1.624059025441305,-0.2530449072467249,-0.15196649021214098,-0.2848384509686499,0.2589277397899711,-0.920953778176341,-2.9078979021543523,0.05067692366783899,0.3336288630962372,-0.48556002974510193,-1.4779889583587646,-0.7904990911483765,0.17874795198440552,0.2704482674598694,47.44160079956055,47.38426971435547,47.41293716430664,47.41293716430664,47.48460006713867,47.32693862915039
1,1734620880.727787,0.7380072474479675,-1.5428124734065314,1.126528565083639,-1.2315696638873597,-1.6169441382037562,-0.23647958437074834,-0.14530311052947958,-0.293142693248433,0.2563226282637973,-0.9035450242127363,-2.9213382691886376,0.0573349443089003,0.363234281539917,-0.49283483624458313,-1.5083732604980469,-0.820598840713501,0.23400524258613586,0.21131303906440735,47.47026824951172,47.34127426147461,47.41293716430664,47.38426971435547,47.44160079956055,47.34127426147461
1,1734620880.8285394,0.7802591919898987,-1.5232501339963456,1.123340908681051,-1.2459352773479004,-1.606668774281637,-0.21244365373720342,-0.13516448236454115,-0.3047227080996295,0.25261607179270607,-0.8792792017902371,-2.9402608569384747,0.06661285397696363,0.42904365062713623,-0.43943461775779724,-1.4180868864059448,-0.8021079301834106,0.19209769368171692,0.28809022903442383,47.48460006713867,47.369937896728516,47.38426971435547,47.427268981933594,47.47026824951172,47.38426971435547
1,1734620880.9295855,0.8342854976654053,-1.4980478224209328,1.119499985371725,-1.2640238565257569,-1.5935199896441858,-0.18191081682314092,-0.12103290148421884,-0.318902272777297,0.24758679769363426,-0.8477919500240725,-2.9649724015515333,0.07602094625710724,0.4531143307685852,-0.4953114986419678,-1.5006190538406372,-0.7848128080368042,0.1851714551448822,0.3364331126213074,47.48460006713867,47.34127426147461,47.39860534667969,47.39860534667969,47.39860534667969,47.34127426147461
1,1734620881.0307379,0.9009367227554321,-1.4668067631176491,1.1146004835711878,-1.2866299909404297,-1.5774758497821253,-0.14409333864320928,-0.10202859054096164,-0.33542039839196724,0.24120818933118834,-0.8086785494703078,-2.995122527000035,0.08550069012275688,0.6332113146781921,-0.5642889738082886,-1.5397056341171265,-0.805907130241394,0.34578433632850647,0.26356351375579834,47.48460006713867,47.34127426147461,47.41293716430664,47.427268981933594,47.48460006713867,47.34127426147461
1,1734620881.1316042,0.9713488817214966,-1.4342065465501328,1.1095173994647425,-1.3100988131812592,-1.5602291266070765,-0.10456449190248662,-0.07989250214804663,-0.35138165217986234,0.23429224049890313,-0.7662354621836585,-3.0273430798391825,0.09253996709812344,0.30692052841186523,-0.6972994804382324,-1.6261781454086304,-0.8328374028205872,0.1597474217414856,0.25770992040634155,47.47026824951172,47.369937896728516,47.41293716430664,47.41293716430664,47.455936431884766,47.34127426147461
1,1734620881.2327418,1.0426641702651978,-1.4010792088559647,1.1042445341693323,-1.3342473220876236,-1.543098274861471,-0.06411391893495733,-0.055714783235052856,-0.3659054462202347,0.22708375142022133,0.7216093195558284,3.052623622635184,-0.09660743632348115,0.4157666563987732,-0.6759520769119263,-1.6083370447158813,-0.7262267470359802,0.2651914954185486,0.26114585995674133,47.44160079956055,47.38426971435547,47.427268981933594,47.427268981933594,47.455936431884766,47.369937896728516
1,1734620881.3331573,1.108909249305725,-1.3703511965325852,1.0993760267840784,-1.3563858282617112,-1.5269787947284144,-0.02685863176454717,-0.03159913646027215,-0.3776557390153367,0.22015192421941382,0.6721692443905738,3.043734108617188,-0.09604822137032827,0.2631140649318695,-0.791135847568512,-1.6522948741912842,-0.821303129196167,0.20031730830669403,0.28145191073417664,47.48460006713867,47.34127426147461,47.38426971435547,47.427268981933594,47.455936431884766,47.298274993896484
1,1734620881.434191,1.1639608144760132,-1.3446571093848725,1.0953214804278772,-1.375050501232483,-1.5136788527118128,0.004389902111142874,-0.010548704366409164,-0.3861141976179564,0.2142097605896696,0.6319440541552883,3.035822231627221,-0.0935175236152688,0.23229005932807922,-0.8048205971717834,-1.570600986480713,-0.7384020090103149,0.23292143642902374,0.2940042018890381,47.48460006713867,47.35560607910156,47.427268981933594,47.39860534667969,47.44160079956055,47.32693862915039
1,1734620881.535983,1.20683753490448,-1.324645758872368,1.092266861592428,-1.3894259196570893,-1.5032265822040003,0.028604470193386078,0.006499991101065476,-0.3917461078437398,0.2094403869640259,0.6006760193263583,3.029299218485314,-0.08980983982075517,0.2530016303062439,-0.8433210849761963,-1.631797432899475,-0.7606860399246216,0.18507760763168335,0.24744382500648499,47.48460006713867,47.38426971435547,47.34127426147461,47.44160079956055,47.48460006713867,47.369937896728516
1,1734620881.6370924,1.2369539737701416,-1.3108289402774354,1.0901406447040003,-1.3993814599565049,-1.4959729353534144,0.04544315114617348,0.018766023426973023,-0.3951473228631394,0.20610828364342915,0.5786237741969116,3.024748884355754,-0.08661085702170802,0.050010621547698975,-0.9288442730903625,-1.6533714532852173,-0.7902967929840088,0.185691237449646,0.17859870195388794,47.455936431884766,47.38426971435547,47.41293716430664,47.41293716430664,47.47026824951172,47.369937896728516
1,1734620881.7377448,1.254649043083191,-1.302560643558838,1.088754955922262,-1.4054566335729142,-1.4916303793536585,0.0554860420525074,0.026069270661737726,-0.3970332904594893,0.20414168254647747,0.5659195682844468,3.0219306643500548,-0.0847974531567238,0.013316698372364044,-0.9568589329719543,-1.5317611694335938,-0.6508095264434814,0.14276859164237976,0.20113439857959747,47.455936431884766,47.34127426147461,47.39860534667969,47.38426971435547,47.44160079956055,47.34127426147461
1,1734620881.838545,1.260602593421936,-1.2998170119575043,1.0885074774371546,-1.4072293204120179,-1.4902690092669886,0.05880127102136612,0.02855324589514288,-0.3975286120098561,0.20339679123961682,0.561601835728811,3.0210486981093077,-0.08343967877771932,-0.0029197540134191513,-1.2239069938659668,-1.533598780632019,-0.6433655023574829,0.10031475126743317,0.06314650177955627,47.48460006713867,47.32693862915039,47.369937896728516,47.427268981933594,47.44160079956055,47.34127426147461
1,1734620881.939746,1.2602722644805908,-1.2997927528670807,1.0883749167071741,-1.4073493790677567,-1.4903228918658655,0.058784522116184235,0.02839401470304871,-0.3975845468692883,0.20343872806130883,0.5620782007555958,3.021043685744113,-0.08379770311236275,0.05604930222034454,-1.2132670879364014,-1.5360220670700073,-0.6961431503295898,0.1832823008298874,0.06404097378253937,47.455936431884766,47.34127426147461,47.369937896728516,47.44160079956055,47.455936431884766,47.35560607910156
1,1734620882.0406437,1.260322093963623,-1.299796388750412,1.0883057753192347,-1.407430262570717,-1.4902661482440394,0.05883399397134781,0.028416998164841712,-0.39761649360223533,0.2034698485865873,0.5620574485914094,3.0210007289420298,-0.08403654796548951,0.10734279453754425,-1.1634001731872559,-1.5182639360427856,-0.7095465660095215,0.18127445876598358,0.09187886118888855,47.498931884765625,47.369937896728516,47.41293716430664,47.427268981933594,47.455936431884766,47.369937896728516
1,1734620882.1412585,1.2603459358215332,-1.2998660963824769,1.0882957617389124,-1.4074096840671082,-1.4902303854571741,0.05879802629351616,0.028436348057053473,-0.3976121919079012,0.2034973182595125,0.5619569856662571,3.0209885701099153,-0.08413346576138947,0.10285121202468872,-1.1513103246688843,-1.4950435161590576,-0.7044138312339783,0.18565480411052704,0.14079123735427856,47.498931884765625,47.34127426147461,47.39860534667969,47.44160079956055,47.47026824951172,47.38426971435547
1,1734620882.2420645,1.2603578567504883,-1.2998050910285492,1.0883320013629358,-1.4073885691216965,-1.4902213255511683,0.05881762504577637,0.028445577228184075,-0.3976045915470814,0.2034618640275473,0.5619716130881153,3.020965617067444,-0.08395255270250726,0.12727130949497223,-1.113234043121338,-1.4767853021621704,-0.6861171722412109,0.1687077432870865,0.14111538231372833,47.5275993347168,47.369937896728516,47.427268981933594,47.427268981933594,47.48460006713867,47.369937896728516
1,1734620882.3431194,1.2602951526641846,-1.299853877430298,1.0883482138263147,-1.4074539107135315,-1.4902508894549769,0.05880124494433403,0.02841130179186198,-0.39761322571022195,0.20348072349877172,0.5620438669478689,3.0209926255518558,-0.08410133929031871,0.10592058300971985,-1.1242122650146484,-1.4632785320281982,-0.6763962507247925,0.16342686116695404,0.1594628393650055,47.48460006713867,47.38426971435547,47.427268981933594,47.427268981933594,47.498931884765625,47.369937896728516
1,1734620882.4436514,1.2603325843811035,-1.2997883719256897,1.0882986227618616,-1.407388524418213,-1.4902451674090784,0.05885818600654602,0.02842814877415316,-0.3976102713970471,0.2034654220329768,0.562075478234165,3.020971536366361,-0.08397315118168404,0.10750307142734528,-1.1077430248260498,-1.4539856910705566,-0.6685491800308228,0.16465534269809723,0.1476908028125763,47.5275993347168,47.34127426147461,47.369937896728516,47.427268981933594,47.498931884765625,47.38426971435547
1,1734620882.5447829,1.2603414058685303,-1.2998050612262269,1.0882733503924769,-1.4073930394700547,-1.4902542273150843,0.05883243680000305,0.028428209583087588,-0.3976139513187009,0.20347956017977525,0.5620233159504484,3.0209948990531807,-0.08404351469028441,0.11692850291728973,-1.076235294342041,-1.4518002271652222,-0.6496219038963318,0.1593468338251114,0.16222989559173584,47.498931884765625,47.38426971435547,47.44160079956055,47.427268981933594,47.48460006713867,47.369937896728516
1,1734620882.6455362,1.2603816986083984,-1.2997928124717255,1.0882986227618616,-1.407451109295227,-1.4902303854571741,0.058808691799640656,0.028446701572623204,-0.39762323882304335,0.20347332096886914,0.561919934743276,3.0209912616785437,-0.08407797365669671,0.0784970372915268,-1.068690299987793,-1.4406617879867554,-0.6299548745155334,0.15470574796199799,0.15307897329330444,47.455936431884766,47.39860534667969,47.427268981933594,47.41293716430664,47.498931884765625,47.35560607910156
1,1734620882.7463136,1.2603906393051147,-1.299800620680191,1.0883320013629358,-1.4074466538480301,-1.4903000036822718,0.05883846431970596,0.028437175664532594,-0.3976109407184859,0.20346441819655678,0.5619679227552077,3.0210492652171217,-0.08401852267232489,0.1071062982082367,-1.050984501838684,-1.4335519075393677,-0.6523785591125488,0.13805730640888214,0.1490592062473297,47.48460006713867,47.38426971435547,47.44160079956055,47.44160079956055,47.5275993347168,47.35560607910156
1,1734620882.8471365,1.2603325843811035,-1.2997601193240662,1.0882986227618616,-1.407406435613968,-1.4902661482440394,0.058829545974731445,0.02842183264637194,-0.3976140645569026,0.2034563288883838,0.5620372485077535,3.0209997878221944,-0.08395537200160322,0.0725032240152359,-1.0620737075805664,-1.4271942377090454,-0.6418712735176086,0.14503253996372223,0.14614570140838623,47.498931884765625,47.369937896728516,47.39860534667969,47.39860534667969,47.44160079956055,47.369937896728516
1,1734620882.948188,1.2603906393051147,-1.2998258930495759,1.0883029142962855,-1.4073975098184128,-1.4902260939227503,0.0588536262512207,0.028455661672492836,-0.39760931175179187,0.20347918224263706,0.5619746176921102,3.020973174317233,-0.08403797517450697,0.06754322350025177,-1.0764625072479248,-1.4255694150924683,-0.636985182762146,0.1403159350156784,0.15268626809120178,47.47026824951172,47.34127426147461,47.38426971435547,47.427268981933594,47.47026824951172,47.35560607910156
1,1734620883.0524323,1.2603607177734375,-1.2998274129680176,1.0882628599749964,-1.407376692896225,-1.4902952353106897,0.05882798507809639,0.028427738198976066,-0.3976077240171662,0.20348874062518305,0.5619958321996443,3.021042620574787,-0.08406111769745363,0.09374132752418518,-1.0648229122161865,-1.4161813259124756,-0.6511061191558838,0.14952223002910614,0.136163592338562,47.48460006713867,47.369937896728516,47.34127426147461,47.39860534667969,47.47026824951172,47.369937896728516
1,1734620883.1529186,1.2603950500488281,-1.2997315388968964,1.0882824102984827,-1.4074495446733017,-1.4902218023883265,0.05888194963335991,0.028452132246410716,-0.39762895452639835,0.20345559490000356,0.5620100355948727,3.02095953982156,-0.08400361485613926,0.08867715299129486,-0.9363585114479065,-1.331827163696289,-0.7351123094558716,0.10892818868160248,0.1857081651687622,47.48460006713867,47.369937896728516,47.41293716430664,47.455936431884766,47.44160079956055,47.35560607910156
1,1734620883.2536204,1.260387659072876,-1.2987847489169617,1.0886977354632776,-1.4087121498635788,-1.4903343359576624,0.05974946543574333,0.028345408139912306,-0.3978683786724793,0.20309805483762633,0.5633460420584028,3.0207932518508094,-0.08378728335152728,0.014096038416028023,-0.8789074420928955,-0.9474653005599976,-0.7236732840538025,0.012927040457725525,0.18041127920150757,47.5275993347168,47.41293716430664,47.47026824951172,47.44160079956055,47.498931884765625,47.38426971435547
1,1734620883.353912,1.2601736783981323,-1.2950828832438965,1.091156307850973,-1.4144288909486313,-1.4909423033343714,0.06334039568901062,0.027811545091951627,-0.39881590448273957,0.20151500961156535,0.5691836951354778,3.0201868214607694,-0.08283086572709557,-0.10998500138521194,-0.8072158694267273,-0.8028218746185303,-0.8423188924789429,-0.0981554239988327,0.21615435183048248,47.513267517089844,47.369937896728516,47.47026824951172,47.427268981933594,47.498931884765625,47.369937896728516
1,1734620883.4546268,1.2596025466918945,-1.2847538751414795,1.097992245350973,-1.430102528338768,-1.4922645727740687,0.07332754135131836,0.026445047723067168,-0.4013838139336681,0.1970604395068582,0.5853099494240008,3.018073534690737,-0.07984679503731715,-0.16841498017311096,-0.7718731164932251,-0.7576248645782471,-0.8256980776786804,-0.12782147526741028,0.2569355368614197,47.498931884765625,47.369937896728516,47.427268981933594,47.427268981933594,47.498931884765625,47.369937896728516
1,1734620883.5561137,1.2585885524749756,-1.2649600964835663,1.1108573118792933,-1.4602192726782341,-1.494995419179098,0.09245803952217102,0.02384801281867429,-0.406161729108979,0.18850198445516944,0.6160931873309818,3.0140620812471988,-0.07461742811962692,-0.1820911169052124,-0.7423285841941833,-0.7752097845077515,-0.8486881852149963,-0.15265639126300812,0.28846418857574463,47.48460006713867,47.35560607910156,47.44160079956055,47.41293716430664,47.48460006713867,47.35560607910156
1,1734620883.6568348,1.25718092918396,-1.2375431519797822,1.1284297148333948,-1.5017809879830857,-1.4987247625934046,0.11877959966659546,0.020371334289958482,-0.41239096397679914,0.17650950667770884,0.6584198706212954,3.008073812853209,-0.06762701231260206,-0.21803295612335205,-0.8359866738319397,-0.766228437423706,-0.8773618340492249,-0.17070968449115753,0.2727382183074951,47.5275993347168,47.39860534667969,47.427268981933594,47.47026824951172,47.47026824951172,47.34127426147461
1,1734620883.7574358,1.2552945613861084,-1.2022590798190613,1.151114288960592,-1.555392720071115,-1.5035479704486292,0.15279437601566315,0.016056657527051627,-0.4197205801722703,0.16075538587762464,0.7131492190941436,2.9995560742543814,-0.058869656335031856,-0.24869310855865479,-0.7004499435424805,-0.6938867568969727,-0.8183965682983398,-0.20679402351379395,0.32601064443588257,47.48460006713867,47.38426971435547,47.41293716430664,47.427268981933594,47.48460006713867,47.35560607910156
1,1734620883.8586285,1.2530293464660645,-1.1579571825316926,1.1795805136310022,-1.6221515140929164,-1.5095227400409144,0.19539792835712433,0.011069705265935127,-0.42767794369299544,0.14049952653797684,0.7814298621900746,2.9876072287380744,-0.04731521229622632,-0.2281203418970108,-0.847713053226471,-0.7419384121894836,-0.9062227606773376,-0.1951269805431366,0.2920307517051697,47.513267517089844,47.35560607910156,47.39860534667969,47.39860534667969,47.44160079956055,47.34127426147461
1,1734620883.9595437,1.2505165338516235,-1.1108235877803345,1.2101414839373987,-1.6934548817076625,-1.5160062948810022,0.24069428443908691,0.006114677641749491,-0.43472964023530125,0.11845900854388744,0.854041251970045,2.9735122607171776,-0.035348756346494606,-0.1868574023246765,-1.0319404602050781,-0.8138110041618347,-0.9348407983779907,-0.15974490344524384,0.26812559366226196,47.47026824951172,47.369937896728516,47.44160079956055,47.44160079956055,47.44160079956055,47.35560607910156
1,1734620884.0610316,1.248279094696045,-1.0660404127887269,1.2388947645770472,-1.761331697503561,-1.5220730940448206,0.28387749195098877,0.0018781422122781891,-0.44017875011277263,0.09730277570296064,0.9227931742490405,2.9586213824682823,-0.02493684298244076,-0.18113014101982117,-1.2031426429748535,-0.8381538987159729,-0.8734816908836365,-0.16084079444408417,0.3085392713546753,47.498931884765625,47.41293716430664,47.41293716430664,47.455936431884766,47.498931884765625,47.35560607910156
1,1734620884.163315,1.2462602853775024,-1.0280375641635437,1.263550106679098,-1.8190380535521449,-1.527339283620016,0.32052695751190186,-0.0014544598056499044,-0.4437158790564177,0.07911370351745578,0.9812001435526055,2.9449418858344525,-0.016130086327149025,-0.15018709003925323,-1.1479997634887695,-0.906778872013092,-0.8383942246437073,-0.14992116391658783,0.26334822177886963,47.513267517089844,47.41293716430664,47.427268981933594,47.44160079956055,47.513267517089844,47.369937896728516
1,1734620884.2647774,1.2448374032974243,-0.9981244963458558,1.2824509779559534,-1.8643704853453578,-1.5313275496112269,0.34926363825798035,-0.0037934053270712005,-0.44596058915268416,0.06486986518695934,1.026587614458289,2.9334568326439667,-0.010012292424428679,-0.17535723745822906,-1.2647414207458496,-0.843120276927948,-0.8493778109550476,-0.1684931367635727,0.24878939986228943,47.498931884765625,47.39860534667969,47.39860534667969,47.41293716430664,47.455936431884766,47.34127426147461
1,1734620884.3655274,1.2436308860778809,-0.9768319886973877,1.2964070479022425,-1.8966175518431605,-1.5342744032489222,0.3696956932544708,-0.005403562292749235,-0.4470494333656103,0.054561671448556226,1.0591345119693638,2.9249202839008377,-0.004944617541788165,-0.16756589710712433,-1.2027513980865479,-0.9016772508621216,-0.77333664894104,-0.15369971096515656,0.22100234031677246,47.48460006713867,47.38426971435547,47.427268981933594,47.427268981933594,47.498931884765625,47.34127426147461
1,1734620884.4663117,1.2430691719055176,-0.9633984726718445,1.3049190680133265,-1.9171320400633753,-1.536081616078512,0.38280200958251953,-0.006308717262080128,-0.447708626639855,0.04815452446191626,1.0796279979177914,2.919307769332908,-0.002495500370586812,-0.1824684888124466,-1.2675197124481201,-0.8500097990036011,-0.7192448377609253,-0.2068210393190384,0.21519893407821655,47.48460006713867,47.39860534667969,47.455936431884766,47.44160079956055,47.48460006713867,47.369937896728516
1,1734620884.5674264,1.242785096168518,-0.9580262464335938,1.3083394209491175,-1.925108095208639,-1.5367067495929163,0.3878833055496216,-0.006646621937668204,-0.44789176892081484,0.045568463614804544,1.087645351361925,2.916995425622087,-0.0011452321985431764,-0.16139522194862366,-1.3552783727645874,-0.8622647523880005,-0.7317931056022644,-0.1546858847141266,0.16110286116600037,47.498931884765625,47.39860534667969,47.44160079956055,47.44160079956055,47.48460006713867,47.38426971435547
1,1734620884.6680422,1.2426584959030151,-0.9579591912082215,1.3084328810321253,-1.925215860406393,-1.5368402639972132,0.3878849148750305,-0.0067291873483171895,-0.44787088652680723,0.045521537684869634,1.0878806426029606,2.917051445436332,-0.0010723598318134301,-0.16812391579151154,-1.5745337009429932,-0.8384212851524353,-0.7081534266471863,-0.14639462530612946,0.10766717046499252,47.513267517089844,47.39860534667969,47.47026824951172,47.455936431884766,47.47026824951172,47.38426971435547
1,1734620884.7685997,1.242673397064209,-0.9579709333232422,1.308430020009176,-1.9253612957396449,-1.536844555531637,0.3879295885562897,-0.00673485489844668,-0.447904637256963,0.04553980356722073,1.0879192791213805,2.9170361894461228,-0.0013202363240074854,-0.15308687090873718,-1.5035037994384766,-0.7733498811721802,-0.7328826189041138,-0.15109042823314667,0.15480035543441772,47.513267517089844,47.369937896728516,47.427268981933594,47.39860534667969,47.48460006713867,47.369937896728516
1,1734620884.8700745,1.242689847946167,-0.9579547208598633,1.3085110823260706,-1.925385137597555,-1.5368359724627894,0.3879312574863434,-0.006718862215448828,-0.44788553874902043,0.0455118388788151,1.0878970287538703,2.917037497758932,-0.0012051556327552194,-0.18137554824352264,-1.494110107421875,-0.8088448643684387,-0.721011221408844,-0.10641677677631378,0.13684093952178955,47.47026824951172,47.34127426147461,47.41293716430664,47.39860534667969,47.498931884765625,47.34127426147461
1,1734620884.9715457,1.2426570653915405,-0.9579709333232422,1.3085559050189417,-1.925326486627096,-1.5368107000934046,0.38793572783470154,-0.006719824248585882,-0.4478629739195582,0.04550107971686937,1.0879457961844101,2.9169952110034836,-0.0010687933776821997,-0.17909669876098633,-1.4727505445480347,-0.8349089026451111,-0.7109162211418152,-0.11580397188663483,0.1266208291053772,47.455936431884766,47.369937896728516,47.39860534667969,47.41293716430664,47.455936431884766,47.35560607910156
1,1734620885.072079,1.2426525354385376,-0.9579261106303711,1.3085063139544886,-1.925347467462057,-1.536879841481344,0.3880063593387604,-0.006741937814561585,-0.4478722449411442,0.04549748683270197,1.0880787655844242,2.917018531902723,-0.0011107499380818783,-0.15441745519638062,-1.423482060432434,-0.8328030705451965,-0.709402859210968,-0.11007438600063324,0.12191756069660187,47.455936431884766,47.369937896728516,47.427268981933594,47.39860534667969,47.47026824951172,47.32693862915039
1,1734620885.1729202,1.2426153421401978,-0.9579054278186341,1.3085487524615687,-1.925309797326559,-1.5368064085589808,0.3879658877849579,-0.006734809350921873,-0.44785481136251964,0.04547381633938907,1.088051629514611,2.916953562546682,-0.0009520813923476603,-0.16065846383571625,-1.3935256004333496,-0.8313500285148621,-0.6734774708747864,-0.08510071039199829,0.114310622215271,47.5275993347168,47.38426971435547,47.44160079956055,47.44160079956055,47.47026824951172,47.35560607910156
1,1734620885.2734404,1.2425988912582397,-0.9579184216311951,1.3085697332965296,-1.9253608189024867,-1.5368273893939417,0.3879436254501343,-0.006748936809281495,-0.4478595917143313,0.04547759159591322,1.088048846885236,2.916975496708226,-0.0010208978101218678,-0.1707543432712555,-1.3926974534988403,-0.8333954215049744,-0.6809470057487488,-0.08164514601230621,0.12965229153633118,47.5275993347168,47.38426971435547,47.41293716430664,47.455936431884766,47.498931884765625,47.35560607910156
1,1734620885.373834,1.2426897287368774,-0.9579883974841614,1.3085606733905237,-1.925272604028219,-1.5368683973895472,0.38798996806144714,-0.006714037921728415,-0.4478474440999492,0.04550214805161576,1.0879994397455186,2.917038148816932,-0.001005604381545357,-0.17311833798885345,-1.3752278089523315,-0.8602660894393921,-0.6696539521217346,-0.06452448666095734,0.11386427283287048,47.498931884765625,47.38426971435547,47.41293716430664,47.44160079956055,47.498931884765625,47.34127426147461
1,1734620885.4745843,1.2427181005477905,-0.957930402164795,1.3085230032550257,-1.925352235833639,-1.5368474165545862,0.3879943788051605,-0.0067043052692734185,-0.4478717474656868,0.04549517412556253,1.0879544276687587,2.9170305109169146,-0.0010961250406100538,-0.16925685107707977,-1.3497663736343384,-0.8576619029045105,-0.6640821695327759,-0.05613614618778229,0.12740197777748108,47.498931884765625,47.369937896728516,47.369937896728516,47.44160079956055,47.48460006713867,47.369937896728516
1,1734620885.5752506,1.2427469491958618,-0.95794232309375,1.3085487524615687,-1.9252978763976039,-1.53685170808901,0.38802263140678406,-0.006686205579245244,-0.4478534269179286,0.045488205971939866,1.0879577531872704,2.917036087832274,-0.0009889915610137483,-0.15654875338077545,-1.3807039260864258,-0.8661458492279053,-0.6498205065727234,-0.05972902476787567,0.11071324348449707,47.513267517089844,47.38426971435547,47.41293716430664,47.41293716430664,47.455936431884766,47.39860534667969
1,1734620885.681163,1.2426972389221191,-0.9579141300967713,1.3084943930255335,-1.925302644769186,-1.53685170808901,0.3879358470439911,-0.006713187784512395,-0.44786702869955586,0.04549213393293705,1.0879025341207318,2.9170557959411987,-0.0010401280304282706,-0.1702566146850586,-1.3678797483444214,-0.8739709258079529,-0.6574798822402954,-0.04990549385547638,0.10162951052188873,47.47026824951172,47.41293716430664,47.427268981933594,47.455936431884766,47.5275993347168,47.34127426147461
1,1734620885.7820928,1.242673397064209,-0.9578889173320313,1.3085272947894495,-1.9252778492369593,-1.5368402639972132,0.38799434900283813,-0.0067154399848652,-0.44785020851822693,0.04546994559295356,1.0880215062773695,2.917001835264907,-0.0009098102441589208,-0.15605628490447998,-1.4785953760147095,-1.0460700988769531,-0.5278002619743347,-0.039974018931388855,0.08034466207027435,47.513267517089844,47.369937896728516,47.44160079956055,47.427268981933594,47.48460006713867,47.39860534667969
1,1734620885.8836224,1.2427135705947876,-0.9581975501826783,1.3076050917254847,-1.9240442715086878,-1.536811653767721,0.3877573013305664,-0.006701064950295932,-0.44787932686941,0.045759327002639766,1.0876149435283478,2.9171271217377295,-0.0009087965139565577,-0.09428717941045761,-1.8678313493728638,-1.4607272148132324,-0.29982173442840576,0.009731307625770569,-0.10520738363265991,47.47026824951172,47.35560607910156,47.39860534667969,47.427268981933594,47.498931884765625,47.369937896728516
1,1734620885.9841135,1.2428079843521118,-0.9602320951274415,1.3024047056781214,-1.9180733166136683,-1.536677662526266,0.386508047580719,-0.006765630114372321,-0.4482805842062697,0.04760271425863194,1.0856033213692216,2.9177146567293475,-0.002895971444738959,0.05388496816158295,-2.02339768409729,-1.553189992904663,-0.2942526340484619,0.07174159586429596,-0.20410174131393433,47.47026824951172,47.38426971435547,47.39860534667969,47.44160079956055,47.455936431884766,47.38426971435547
1,1734620886.0855293,1.2434802055358887,-0.9654545348933716,1.2883098761187952,-1.9021607838072718,-1.536201302205221,0.38327208161354065,-0.006720619300497677,-0.44935798215313,0.05251489176992932,1.079718490888072,2.919337799091282,-0.008231334243849302,0.13395102322101593,-2.099863052368164,-1.7090847492218018,-0.1932966709136963,0.14669740200042725,-0.21972981095314026,47.427268981933594,47.35560607910156,47.369937896728516,47.38426971435547,47.44160079956055,47.35560607910156
1,1734620886.1860197,1.2444742918014526,-0.9752167028239747,1.2624576727496546,-1.871824403802389,-1.535323444996969,0.3770233392715454,-0.006595102146456384,-0.4508995182301816,0.06155986110729994,1.068848498447848,2.9223418091136963,-0.016527390262302027,0.17054857313632965,-2.1458585262298584,-1.7514399290084839,-0.20004838705062866,0.19452990591526031,-0.1842091679573059,47.44160079956055,47.31260681152344,47.34127426147461,47.38426971435547,47.427268981933594,47.32693862915039
1,1734620886.2870157,1.2458916902542114,-0.9888152045062562,1.22626239458193,-1.829977651635641,-1.5341461340533655,0.3686313033103943,-0.006309280648606158,-0.452749125948815,0.07435605257499384,1.0540916387094825,2.9263420209242375,-0.02900661193223815,0.22821533679962158,-2.1661009788513184,-1.779026746749878,-0.15769587457180023,0.2194659262895584,-0.20806348323822021,47.44160079956055,47.35560607910156,47.39860534667969,47.39860534667969,47.44160079956055,47.32693862915039
1,1734620886.387969,1.247742772102356,-1.0067019623569031,1.178957764302389,-1.7751924000182093,-1.532625977193014,0.35743555426597595,-0.005663921900189455,-0.45434242146761705,0.09090117809143228,1.0348965237692433,2.931454589491198,-0.044959537407760014,0.20702429115772247,-2.164480686187744,-1.7424860000610352,-0.077193483710289,0.2252149134874344,-0.23180371522903442,47.48460006713867,47.35560607910156,47.35560607910156,47.35560607910156,47.427268981933594,47.28394317626953
1,1734620886.4891293,1.2500858306884766,-1.0281991523555298,1.1221607367144983,-1.7092777691283167,-1.5307310263263147,0.34395116567611694,-0.004408717465603439,-0.4551186082588675,0.11172701366686782,1.01057106335724,2.9377515410685544,-0.06482002440879517,0.20396338403224945,-2.121230125427246,-1.762467622756958,-0.10362178087234497,0.22467468678951263,-0.22443604469299316,47.455936431884766,47.35560607910156,47.38426971435547,47.41293716430664,47.455936431884766,47.32693862915039
1,1734620886.589973,1.2525973320007324,-1.0514587324908753,1.060540501271383,-1.6378175220885218,-1.5287416617022913,0.32957106828689575,-0.0025835566760043773,-0.4544547087094584,0.13396745565766047,0.9850397905436262,2.94413374665141,-0.08592375067667897,0.13911280035972595,-1.9924864768981934,-1.6966129541397095,-0.10082895308732986,0.2225831151008606,-0.21549096703529358,47.48460006713867,47.34127426147461,47.34127426147461,47.39860534667969,47.44160079956055,47.32693862915039
1,1734620886.6912012,1.2550311088562012,-1.0741969806006928,1.0003278891192835,-1.5677245001173397,-1.5268266836749476,0.31527990102767944,-0.00031125030914344945,-0.4522569658391065,0.15562517351530447,0.9597395085621023,2.950306926724981,-0.1061694698357193,0.13937850296497345,-1.9898613691329956,-1.7292779684066772,-0.14914482831954956,0.23224535584449768,-0.20138251781463623,47.455936431884766,47.34127426147461,47.369937896728516,47.38426971435547,47.44160079956055,47.32693862915039
1,1734620886.7918434,1.257416009902954,-1.0974287551692505,0.9388316313373011,-1.49632170171056,-1.524799648915426,0.30074235796928406,0.002450200260963326,-0.44853882530487194,0.17758466129055775,0.9340414593005737,2.9562457397367092,-0.12715797837367493,0.1617477536201477,-1.9822033643722534,-1.7286467552185059,-0.10670515894889832,0.2337786853313446,-0.19895198941230774,47.47026824951172,47.34127426147461,47.34127426147461,47.38426971435547,47.41293716430664,47.32693862915039
1,1734620886.8929882,1.2598329782485962,-1.1201701623252411,0.878585163746969,-1.4263493728688736,-1.5228341261493128,0.2865932285785675,0.0056466250019045015,-0.44341487632428683,0.19878440543030731,0.9088338065146264,2.961859334616006,-0.14766700548022996,0.16928911209106445,-1.938596487045288,-1.6911475658416748,-0.10666753351688385,0.2141401171684265,-0.2604841887950897,47.48460006713867,47.34127426147461,47.38426971435547,47.38426971435547,47.427268981933594,47.35560607910156
1,1734620886.9940324,1.2621976137161255,-1.143449829225876,0.8170626799212855,-1.3550141018680115,-1.5208175818072718,0.272030770778656,0.009309226476508824,-0.43672067424554056,0.2200334709970525,0.8830065990767709,2.9673709272318223,-0.1689019596859273,0.17009808123111725,-1.9029784202575684,-1.6431922912597656,-0.12347937375307083,0.24130329489707947,-0.22318632900714874,47.48460006713867,47.34127426147461,47.38426971435547,47.41293716430664,47.47026824951172,47.298274993896484
1,1734620887.095231,1.264653205871582,-1.1662320655635376,0.7567513624774378,-1.284948245888092,-1.5188668409930628,0.257838636636734,0.01338141880217865,-0.4287032278065703,0.2402840730925411,0.8575637569365377,2.9726043798922377,-0.1894545690763819,0.18054544925689697,-1.8280003070831299,-1.6792421340942383,-0.12213435024023056,0.2568470537662506,-0.20846034586429596,47.498931884765625,47.35560607910156,47.35560607910156,47.38426971435547,47.44160079956055,47.298274993896484
1,1734620887.1962621,1.2670845985412598,-1.1893845659545441,0.6953170935260218,-1.2135656637004395,-1.516869846974508,0.24319779872894287,0.017901807398682097,-0.41913261129588736,0.2602100898584469,0.8314181356401502,2.9777726152259194,-0.2103092508652358,0.1870691031217575,-1.7537879943847656,-1.6769968271255493,-0.1681516021490097,0.21980954706668854,-0.19836342334747314,47.455936431884766,47.28394317626953,47.31260681152344,47.369937896728516,47.38426971435547,47.28394317626953
1,1734620887.296983,1.2694473266601562,-1.212237612610199,0.6349495092975062,-1.1435386401465912,-1.5149801413165491,0.22915364801883698,0.022681002975623386,-0.40840359234868184,0.2790626389881731,0.8062210941372753,2.9825174938776353,-0.23114191957503183,0.21073634922504425,-1.6387748718261719,-1.5980126857757568,-0.14041359722614288,0.23349544405937195,-0.230770081281662,47.48460006713867,47.35560607910156,47.369937896728516,47.41293716430664,47.41293716430664,47.28394317626953
1,1734620887.3976133,1.2717890739440918,-1.2349276703647156,0.5746801535235804,-1.0735108715346833,-1.512972656880514,0.21473704278469086,0.02781133777726501,-0.3964327511004953,0.2969455214262772,0.7804152057181082,2.9871259200718057,-0.2515951333534252,0.21531669795513153,-1.6235029697418213,-1.49201500415802,-0.14289292693138123,0.1925593763589859,-0.19670139253139496,47.498931884765625,47.38426971435547,47.41293716430664,47.39860534667969,47.427268981933594,47.35560607910156
1,1734620887.4982634,1.2742009162902832,-1.2575898927501221,0.5146458784686487,-1.0038404625705262,-1.5110176245318812,0.20065157115459442,0.03324376263313788,-0.38332850708872945,0.31381886050870206,0.7549380409989446,2.9914323139608565,-0.27219152515502865,0.20153385400772095,-1.4288259744644165,-1.3715083599090576,-0.2075018584728241,0.19762131571769714,-0.23119130730628967,47.48460006713867,47.35560607910156,47.38426971435547,47.39860534667969,47.427268981933594,47.32693862915039
1,1734620887.5991147,1.276097297668457,-1.2762834590724488,0.4650023619281214,-0.9465695184520264,-1.5093854109393519,0.18898779153823853,0.03788540406802438,-0.37173276402628486,0.3269992318577198,0.7339182555255077,2.994776641637223,-0.28969173955772964,0.16670221090316772,-1.3996119499206543,-1.279620885848999,-0.16032135486602783,0.18053874373435974,-0.18329383432865143,47.427268981933594,47.369937896728516,47.41293716430664,47.39860534667969,47.455936431884766,47.369937896728516
1,1734620887.699883,1.2778364419937134,-1.2913336914828797,0.4252365271197718,-0.9001239103129883,-1.5081184546100062,0.17952749133110046,0.04183564398504353,-0.3617880753477023,0.3369526308356865,0.7165921257934004,2.9975376079174065,-0.30294942116742535,0.11973720788955688,-1.3172894716262817,-1.2211062908172607,-0.2578374743461609,0.15818457305431366,-0.15473666787147522,47.498931884765625,47.35560607910156,47.38426971435547,47.455936431884766,47.47026824951172,47.38426971435547
1,1734620887.8012745,1.2789263725280762,-1.3021934789470215,0.3965495268451136,-0.866764561539032,-1.5071685949908655,0.17281901836395264,0.0446851370336533,-0.3543817581707203,0.3438290367571717,0.7044722714538632,2.9993297662664857,-0.31274866869900736,0.14701831340789795,-1.2567200660705566,-1.1508376598358154,-0.30726417899131775,0.17107033729553223,-0.18878009915351868,47.498931884765625,47.369937896728516,47.41293716430664,47.39860534667969,47.48460006713867,47.35560607910156
1,1734620887.902106,1.2795968055725098,-1.3091883522323151,0.3779695669757288,-0.845210925941803,-1.5066235701190394,0.16847433149814606,0.046522985757429344,-0.34948424818206586,0.34812675737135396,0.6966942527463503,3.000520963864414,-0.31912018538874454,0.16953732073307037,-1.207177996635437,-1.1361474990844727,-0.34487658739089966,0.15996958315372467,-0.21079382300376892,47.48460006713867,47.369937896728516,47.39860534667969,47.427268981933594,47.47026824951172,47.35560607910156
1,1734620888.0027816,1.2798758745193481,-1.3121400338462372,0.37020618120302373,-0.8362311285785218,-1.506289307271139,0.16660284996032715,0.04732011212736311,-0.34741855342429506,0.3499012724531062,0.6933164926079143,3.0009334307617315,-0.321869628575647,0.14131060242652893,-1.1879690885543823,-1.085729956626892,-0.3926375210285187,0.15897716581821442,-0.1688602864742279,47.513267517089844,47.39860534667969,47.41293716430664,47.427268981933594,47.498931884765625,47.38426971435547
1,1734620888.1036892,1.279922604560852,-1.312123106127121,0.3698948065387171,-0.8358947795680542,-1.5062530676471155,0.16664578020572662,0.04736043851096408,-0.34736561718216435,0.34993225490942326,0.6932997774470745,3.0008945997807515,-0.3218007552073991,0.14074110984802246,-1.0895198583602905,-1.053310751914978,-0.4327348470687866,0.15370862185955048,-0.1853131800889969,47.498931884765625,47.38426971435547,47.41293716430664,47.44160079956055,47.498931884765625,47.35560607910156
1,1734620888.2041733,1.279977560043335,-1.3121112448028107,0.3698471228228968,-0.8359089654735108,-1.5062616507159632,0.16645891964435577,0.04737560245967987,-0.34736926887546177,0.3499424406664463,0.6929396255717638,3.0009951797393883,-0.32188393322652725,0.14340755343437195,-1.217191457748413,-1.1138683557510376,-0.39261624217033386,0.13427022099494934,-0.18110746145248413,47.48460006713867,47.38426971435547,47.38426971435547,47.48460006713867,47.48460006713867,47.38426971435547
2,1734620888.3100421,1.279955267906189,-1.3121953767589112,0.36978179613222295,-0.8357660931399842,-1.5062325636493128,0.1664762645959854,0.047387032528502265,-0.34732992851202343,0.34996774617058524,0.6929886719388976,3.000953579215014,-0.32189416926100334,0.13040627539157867,-1.2875038385391235,-1.1336491107940674,-0.3819243609905243,0.1301550269126892,-0.1675134003162384,47.5275993347168,47.41293716430664,47.38426971435547,47.41293716430664,47.48460006713867,47.369937896728516
