moelyaakoubi/URcartesian/robot_data_current.csv
Timestamp,Joint_1,Joint_2,Joint_3,Joint_4,Joint_5,Joint_6,Cartesian_x,Cartesian_y,Cartesian_z,Cartesian_rx,Cartesian_ry,Cartesian_rz,Current_1,Current_2,Current_3,Current_4,Current_5,Current_6,Voltage_1,Voltage_2,Voltage_3,Voltage_4,Voltage_5,Voltage_6
1734610533.3416607,0.08352470397949219,-0.4235038322261353,-0.3184567093849182,-0.8469677728465577,-1.5767839590655726,-0.7018287817584437,-0.45639990346980175,-0.16747117320064284,0.16470649526025286,-1.1967278971121615,-2.8830557668229875,-0.006927569189419908,-0.12042146921157837,-2.085704803466797,-0.8930724263191223,-0.5535288453102112,0.05890271067619324,0.06091051548719406,47.427268981933594,47.35560607910156,47.39860534667969,47.44160079956055,47.455936431884766,47.35560607910156
1734610533.4426355,0.08351217210292816,-0.42349501073870854,-0.3184102177619934,-0.8469407719424744,-1.5767672697650355,-0.7018588224994105,-0.45639156053648133,-0.1674684216307653,0.16468845083438338,-1.1967330762989508,-2.883141088610323,-0.0069642144571538354,-0.09402085840702057,-2.1128153800964355,-0.9007954001426697,-0.5584405660629272,0.07700029015541077,0.043235115706920624,47.513267517089844,47.35560607910156,47.39860534667969,47.44160079956055,47.455936431884766,47.369937896728516
1734610533.5430017,0.08355697244405746,-0.42347855985675054,-0.31841468811035156,-0.8469183605960389,-1.5767343680011194,-0.7018707434283655,-0.4563788784574788,-0.1674960892237372,0.16467975398567702,-1.1966682082126148,-2.8832173860125714,-0.006942760284460959,-0.0906413197517395,-2.0899977684020996,-0.8865953683853149,-0.5601153373718262,0.05444002151489258,0.044080838561058044,47.48460006713867,47.34127426147461,47.427268981933594,47.47026824951172,47.498931884765625,47.39860534667969
1734610533.643738,0.08351626247167587,-0.4234919112971802,-0.3184102475643158,-0.8469038766673584,-1.5767553488360804,-0.7018707434283655,-0.4563822108324327,-0.16747232482222932,0.16468368725303228,-1.1967255301374493,-2.8831885788751945,-0.006976472256747797,-0.11158013343811035,-2.1235764026641846,-0.896307110786438,-0.5660117268562317,0.08400747179985046,0.05897507071495056,47.455936431884766,47.38426971435547,47.39860534667969,47.44160079956055,47.48460006713867,47.38426971435547
1734610533.7444673,0.08352470397949219,-0.42350979269061284,-0.3183937966823578,-0.8469276589206238,-1.5767253080951136,-0.7018373648272913,-0.45638403683021467,-0.16748345168938797,0.16469004342430643,-1.1967577747005256,-2.8831658642308167,-0.006916088383151433,-0.0712454691529274,-2.20934796333313,-0.9027699828147888,-0.5675524473190308,0.06515324115753174,0.03638730198144913,47.498931884765625,47.41293716430664,47.44160079956055,47.44160079956055,47.48460006713867,47.38426971435547
1734610533.8450842,0.08357592672109604,-0.4236524862102051,-0.31841468811035156,-0.8469094795039673,-1.5767391363727015,-0.7018349806415003,-0.4563715228172479,-0.1675033296974052,0.16476048271688093,-1.1966369954576621,-2.883069368809762,-0.006829921657779946,0.009815782308578491,-2.333587408065796,-0.9302279949188232,-0.41335272789001465,0.08830703794956207,0.15012580156326294,47.48460006713867,47.369937896728516,47.39860534667969,47.455936431884766,47.47026824951172,47.38426971435547
1734610533.9457889,0.08482495695352554,-0.42539604127917485,-0.3184490203857422,-0.8452094358256836,-1.5765350500689905,-0.7005785147296351,-0.4557472900898897,-0.16808541144245792,0.16543366209349863,-1.1966690082508233,-2.8830784703537597,-0.00644958755597395,0.18096357583999634,-2.3866209983825684,-1.0567524433135986,-0.2642980217933655,0.16098149120807648,0.17666447162628174,47.498931884765625,47.369937896728516,47.427268981933594,47.427268981933594,47.47026824951172,47.38426971435547
1734610534.0467124,0.09002069383859634,-0.43162556112323003,-0.31890439987182617,-0.8386400502971192,-1.5759719053851526,-0.6958492437945765,-0.4532945766452229,-0.17044003994899193,0.16787065166490311,-1.1961038889587887,-2.883468308234226,-0.005422920295254342,0.30951422452926636,-2.4937713146209717,-1.2303768396377563,-0.2559841573238373,0.1992775797843933,0.19589319825172424,47.47026824951172,47.34127426147461,47.35560607910156,47.41293716430664,47.455936431884766,47.34127426147461
1734610534.1471493,0.10447420179843903,-0.44885166109118657,-0.3201802372932434,-0.82088257492099,-1.5743206183062952,-0.683026138936178,-0.4464467695363496,-0.17690404834517623,0.174595594678861,-1.193932058507873,-2.8844746169818523,-0.0021514893566726206,0.4797419309616089,-2.523254156112671,-1.3623626232147217,-0.19858357310295105,0.20096810162067413,0.27705347537994385,47.427268981933594,47.32693862915039,47.38426971435547,47.41293716430664,47.41293716430664,47.32693862915039
1734610534.2476156,0.12892092764377594,-0.47882945955310063,-0.3223336935043335,-0.7897666257670899,-1.5713823477374476,-0.6604722181903284,-0.4341133386891377,-0.18743142020809495,0.1860689196930367,-1.19165888832955,-2.886028117694391,0.0033984241538905155,0.48821118474006653,-2.497253894805908,-1.2993552684783936,-0.18429464101791382,0.22294270992279053,0.28667211532592773,47.427268981933594,47.34127426147461,47.369937896728516,47.41293716430664,47.455936431884766,47.31260681152344
1734610534.348353,0.16298481822013855,-0.5204493564418335,-0.32524245977401733,-0.746816412811615,-1.5674398581134241,-0.6292889753924769,-0.41605458727814454,-0.2011591337098399,0.2015751032378066,-1.1881369576651122,-2.8883649652220753,0.010999822536184624,0.6459039449691772,-2.463618516921997,-1.2765897512435913,-0.12084630131721497,0.2441052794456482,0.2555274963378906,47.44160079956055,47.31260681152344,47.34127426147461,47.427268981933594,47.455936431884766,47.34127426147461
1734610534.448961,0.20820322632789612,-0.5748484295657654,-0.3290523290634155,-0.6904847782901307,-1.5621374289142054,-0.5887106100665491,-0.3906746270243692,-0.21767492561481888,0.22103759892170158,-1.1824943242379855,-2.892557602470815,0.020870228040590376,0.5488808751106262,-2.380843162536621,-1.1763851642608643,-0.08590878546237946,0.23417747020721436,0.35473722219467163,47.427268981933594,47.34127426147461,47.369937896728516,47.38426971435547,47.44160079956055,47.34127426147461
1734610534.5496309,0.2614721357822418,-0.6395662587932129,-0.3337309658527374,-0.6237216752818604,-1.5558598677264612,-0.5403450171100062,-0.3585632639374951,-0.23434721469683997,0.243004000875863,-1.176730748088902,-2.8974487945642817,0.03268671711275783,0.4591614603996277,-2.191312074661255,-1.0352803468704224,-0.08655725419521332,0.24822984635829926,0.29165565967559814,47.47026824951172,47.298274993896484,47.34127426147461,47.38426971435547,47.44160079956055,47.32693862915039
1734610534.6503677,0.3171514868736267,-0.7072298687747498,-0.3385871648788452,-0.553692178135254,-1.5492947737323206,-0.48962527910341436,-0.3228724350282728,-0.24831275705476652,0.2643976070140106,-1.1712480152381903,-2.903349710273583,0.044459523919490235,0.41129636764526367,-1.9442867040634155,-0.9878287315368652,-0.08575544506311417,0.24628497660160065,0.30269697308540344,47.47026824951172,47.34127426147461,47.35560607910156,47.39860534667969,47.47026824951172,47.35560607910156
1734610534.7512057,0.3742707371711731,-0.776392475967743,-0.34348851442337036,-0.4825274509242554,-1.5424459616290491,-0.43776160875429326,-0.2846676862163053,-0.2588467513685624,0.28455641609308263,-1.1655115419676911,-2.9100481294883522,0.056556493495039,0.3463518023490906,-1.9983093738555908,-0.9379504919052124,-0.0261165052652359,0.20073671638965607,0.3348182439804077,47.48460006713867,47.369937896728516,47.34127426147461,47.41293716430664,47.44160079956055,47.31260681152344
1734610534.851531,0.43020880222320557,-0.8440317076495667,-0.3481767177581787,-0.4124809068492432,-1.5358160177813929,-0.38723975816835576,-0.24593684177765401,-0.2651599760277421,0.3024204542869786,-1.1598474182966314,-2.917787897708977,0.06716278927850546,0.36799806356430054,-1.9410251379013062,-0.8795343637466431,-0.05608145892620087,0.1574213206768036,0.2524711489677429,47.47026824951172,47.369937896728516,47.39860534667969,47.39860534667969,47.44160079956055,47.34127426147461
1734610534.9523394,0.48628348112106323,-0.9118088048747559,-0.3529175817966461,-0.34224243581805425,-1.529290501271383,-0.3365233580218714,-0.20635752466570262,-0.26742242860950927,0.318462654439162,1.1508095350846466,2.9169282121248727,-0.0767439736941366,0.3195372223854065,-1.8304489850997925,-0.8360558748245239,-0.1512221097946167,0.20064079761505127,0.3187495470046997,47.455936431884766,47.35560607910156,47.35560607910156,47.39860534667969,47.44160079956055,47.34127426147461
1734610535.0526576,0.5418869256973267,-0.9795098465732117,-0.35771939158439636,-0.27230854452166753,-1.522747818623678,-0.28576547304262334,-0.16668815064676565,-0.26556047472582855,0.3325823186877746,1.1415462016710862,2.913418010661419,-0.08580796631400958,0.32133758068084717,-1.6633691787719727,-0.7503464221954346,-0.18584713339805603,0.20787313580513,0.2958330512046814,47.41293716430664,47.298274993896484,47.38426971435547,47.35560607910156,47.427268981933594,47.31260681152344
1734610535.1530461,0.5945067405700684,-1.043073670273163,-0.36221250891685486,-0.20648844659838872,-1.5163996855365198,-0.23820621172060186,-0.12943826054283492,-0.26020996032182087,0.34400335460311093,1.1317623797129799,2.909598035380118,-0.09343618494693821,0.12345625460147858,-1.284252643585205,-0.5975234508514404,-0.17584149539470673,0.15509949624538422,0.2207278460264206,47.48460006713867,47.34127426147461,47.369937896728516,47.41293716430664,47.48460006713867,47.32693862915039
1734610535.2536342,0.6362228989601135,-1.09383840978656,-0.36574792861938477,-0.15402336538348393,-1.5116294066058558,-0.20019656816591436,-0.10020786648308855,-0.2533159673293417,0.35182570906435173,1.1243946566721292,2.9062674468193594,-0.09869872348069016,0.22466133534908295,-1.157188057899475,-0.5562942624092102,-0.24435517191886902,0.22030697762966156,0.23915420472621918,47.48460006713867,47.369937896728516,47.39860534667969,47.41293716430664,47.47026824951172,47.35560607910156
1734610535.3544967,0.6687824130058289,-1.1328885418227692,-0.368525892496109,-0.11378987253222661,-1.5077670256244105,-0.17099506059755498,-0.07796639168155464,-0.2466105629077503,0.3570655216598997,1.1178552282889394,2.903706710820989,-0.10274150252611708,0.08127906173467636,-1.0170352458953857,-0.4983240067958832,-0.2488963007926941,0.10181587934494019,0.22532159090042114,47.498931884765625,47.35560607910156,47.39860534667969,47.44160079956055,47.47026824951172,47.34127426147461
1734610535.4550488,0.6915175318717957,-1.160817490225174,-0.3705282211303711,-0.08490415037188725,-1.50511342683901,-0.14997655550111944,-0.06243858634154078,-0.24095354070989475,0.36037150924504197,1.1141588066007064,2.9014443544120043,-0.10520932993792367,0.11269699782133102,-0.9617104530334473,-0.4595111310482025,-0.2592228651046753,0.16257528960704803,0.21847505867481232,47.47026824951172,47.38426971435547,47.38426971435547,47.39860534667969,47.498931884765625,47.38426971435547
1734610535.5558355,0.7044230103492737,-1.1765640538981934,-0.3715924024581909,-0.06869836271319585,-1.50366717973818,-0.13835460344423467,-0.053787137953377126,-0.23749283937838322,0.362076062463914,1.1116221772560095,2.9003620577803253,-0.10650777252870536,0.17677079141139984,-0.8711658716201782,-0.41914060711860657,-0.3232274055480957,0.165233314037323,0.1725056767463684,47.498931884765625,47.369937896728516,47.35560607910156,47.44160079956055,47.513267517089844,47.38426971435547
1734610535.656647,0.7077984809875488,-1.1806911093047638,-0.37188246846199036,-0.06445820749316411,-1.5032833258258265,-0.13531572023500615,-0.05153527233537733,-0.23655453196441562,0.3625056376280289,1.1109556872543696,2.9000786292008036,-0.10686780452030036,0.05450250208377838,-0.7103983759880066,-0.40317121148109436,-0.4427323043346405,0.1196829080581665,0.04727666825056076,47.513267517089844,47.369937896728516,47.44160079956055,47.455936431884766,47.47026824951172,47.369937896728516
1734610535.756997,0.7077703475952148,-1.1805785459331055,-0.37193191051483154,-0.0644105237773438,-1.503211800252096,-0.135291878377096,-0.05154147863404249,-0.23657455600611088,0.36248538061132957,1.1109937379463881,2.8999440153265006,-0.10676633688891188,0.14775915443897247,-0.9191785454750061,-0.4273057281970978,-0.3756684958934784,0.15537917613983154,0.1154106929898262,47.47026824951172,47.39860534667969,47.39860534667969,47.44160079956055,47.498931884765625,47.39860534667969
1734610535.8575935,0.7078266143798828,-1.1806858342937012,-0.37195897102355957,-0.06437094629321294,-1.5032032171832483,-0.13521176973451787,-0.05150313219160033,-0.23655871616378277,0.36250512024323406,1.111033847527481,2.8999588897920368,-0.10689968222339923,0.14509616792201996,-0.9406511783599854,-0.4085523188114166,-0.36522698402404785,0.1484311819076538,0.14761659502983093,47.498931884765625,47.39860534667969,47.41293716430664,47.44160079956055,47.513267517089844,47.38426971435547
1734610535.960324,0.707904040813446,-1.1807816785625,-0.37195897102355957,-0.06433816373858647,-1.5031750837909144,-0.13524037996401006,-0.051459559631509375,-0.23654971748421402,0.3625208840895221,1.1108763172951737,2.9000191503691526,-0.10700568913205727,0.11941586434841156,-0.9174386858940125,-0.39517948031425476,-0.35664528608322144,0.1292692869901657,0.12720109522342682,47.513267517089844,47.34127426147461,47.39860534667969,47.427268981933594,47.498931884765625,47.39860534667969
1734610536.0616195,0.7078255414962769,-1.180713490848877,-0.3719707429409027,-0.06435878694567876,-1.5032203833209437,-0.13523608842958623,-0.051499556187842015,-0.2365501684065927,0.3625102134442486,1.1110095300954081,2.8999981815123137,-0.10692577357073253,0.00919409841299057,-0.7842126488685608,-0.385839581489563,-0.48163920640945435,0.09985978901386261,0.044581007212400436,47.47026824951172,47.34127426147461,47.39860534667969,47.427268981933594,47.455936431884766,47.38426971435547
1734610536.1624064,0.7067880630493164,-1.179812715654709,-0.37189289927482605,-0.0655558866313477,-1.5033987204181116,-0.1362822691546839,-0.05212292838954727,-0.2367636509100768,0.3624402453887165,1.1111045025715556,2.900315133823865,-0.10715239052087691,-0.17462745308876038,-0.3849030137062073,-0.2317773699760437,-0.7523741126060486,-0.050622761249542236,-0.16950640082359314,47.5275993347168,47.38426971435547,47.41293716430664,47.427268981933594,47.48460006713867,47.34127426147461
1734610536.2628896,0.7019397020339966,-1.1748737555793305,-0.37158241868019104,-0.07122965276751714,-1.5042365233050745,-0.14104110399355108,-0.055174009186990655,-0.23785707941324552,0.36197873987345663,1.1116732735095047,2.901474691633407,-0.10737037070360367,-0.2793809175491333,-0.23612937331199646,-0.09810023009777069,-0.7889221906661987,-0.15366140007972717,-0.21527594327926636,47.455936431884766,47.369937896728516,47.39860534667969,47.41293716430664,47.455936431884766,47.34127426147461
1734610536.3635767,0.6880686283111572,-1.1609131258777161,-0.37068960070610046,-0.08711524427447515,-1.5068429152118128,-0.15450793901552373,-0.0638990771360916,-0.24073355651818384,0.3605945582749495,1.1135723967229842,2.9047983769368177,-0.10749553436050374,-0.40927833318710327,-0.12545977532863617,-0.04946710541844368,-0.9150436520576477,-0.2188216745853424,-0.26495161652565,47.47026824951172,47.38426971435547,47.39860534667969,47.427268981933594,47.455936431884766,47.35560607910156
1734610536.4643123,0.6625065207481384,-1.1354392033866425,-0.36909419298171997,-0.11639149606738286,-1.5115850607501429,-0.1793001333819788,-0.08011596992014745,-0.245462853258796,0.35787263785139184,1.117131614009035,2.9109862641584816,-0.10781875060927423,-0.3994404673576355,-0.14476141333580017,-0.035877201706171036,-0.8781557083129883,-0.18264751136302948,-0.2906123995780945,47.513267517089844,47.369937896728516,47.34127426147461,47.44160079956055,47.48460006713867,47.369937896728516
1734610536.5649817,0.6256051063537598,-1.0986715716174622,-0.3666903078556061,-0.158801869755127,-1.518400017415182,-0.215278450642721,-0.10391596449505018,-0.25103806915206395,0.35343220700241385,1.122014239939165,2.9200115484871336,-0.10753123825433247,-0.37895849347114563,-0.22941724956035614,-0.06268804520368576,-0.9072801470756531,-0.1826799064874649,-0.3177824020385742,47.513267517089844,47.39860534667969,47.44160079956055,47.427268981933594,47.47026824951172,47.369937896728516
1734610536.6656315,0.5793737769126892,-1.0519051116755982,-0.36368805170059204,-0.21223254621539311,-1.5269649664508265,-0.2608864943133753,-0.13438256126242493,-0.2559593879309382,0.3468699791345361,-1.1267115348211039,-2.929805881074502,0.10514820460759186,-0.5065894722938538,-0.32778024673461914,-0.14454439282417297,-0.9621169567108154,-0.2213108390569687,-0.30856847763061523,47.47026824951172,47.34127426147461,47.39860534667969,47.38426971435547,47.455936431884766,47.34127426147461
1734610536.766192,0.522111713886261,-0.9949622315219422,-0.35998350381851196,-0.2778385442546387,-1.5377767721759241,-0.3163264433490198,-0.17231231535225067,-0.2584234498176694,0.33762692169996494,-1.123795591196124,-2.9145299496104355,0.09944423358265708,-0.3482711911201477,-0.4950621426105499,-0.24168814718723297,-0.8763611316680908,-0.1609693467617035,-0.2890605032444,47.5275993347168,47.38426971435547,47.41293716430664,47.41293716430664,47.47026824951172,47.32693862915039
1734610536.8666317,0.46130770444869995,-0.934139148598053,-0.3563002049922943,-0.34787126005206304,-1.5488079229937952,-0.37571508089174444,-0.21278338221630763,-0.2570372063322387,0.3262580444157156,-1.1201786052175795,-2.8991970671289855,0.09166101755874138,-0.4628586769104004,-0.610517680644989,-0.2219422459602356,-0.8512426614761353,-0.19870898127555847,-0.3187316060066223,47.48460006713867,47.369937896728516,47.41293716430664,47.41293716430664,47.455936431884766,47.34127426147461
1734610536.9669268,0.3991154432296753,-0.8719729346087952,-0.35220545530319214,-0.4191541236690064,-1.5603206793414515,-0.4363301436053675,-0.2537455583191186,-0.25108530710409693,0.31296074766378656,-1.1170722703878453,-2.884305740995149,0.08024911741857715,-0.36465293169021606,-0.7463421821594238,-0.3389684855937958,-0.9345064759254456,-0.21124303340911865,-0.3095233142375946,47.48460006713867,47.34127426147461,47.39860534667969,47.369937896728516,47.41293716430664,47.32693862915039
1734610537.0674183,0.33843857049942017,-0.8110545438579102,-0.3483225107192993,-0.48901040971789556,-1.5714548269854944,-0.49568254152406865,-0.29295059047911176,-0.2410680395650051,0.2984403116137509,-1.114022620694512,-2.870559091538651,0.06709257346984532,-0.5454829931259155,-0.78547203540802,-0.3738876283168793,-0.9582362174987793,-0.30801182985305786,-0.3561527729034424,47.455936431884766,47.32693862915039,47.369937896728516,47.38426971435547,47.44160079956055,47.32693862915039
1734610537.1677594,0.2774048149585724,-0.7499810618213196,-0.344391793012619,-0.5591463607600708,-1.582839314137594,-0.5551040808307093,-0.33100970302060184,-0.22678297299598915,0.28244328519055395,-1.1116739141337866,-2.8572328963805527,0.05153440823328982,-0.5123516917228699,-0.9102630615234375,-0.44419795274734497,-0.9784731268882751,-0.22673076391220093,-0.35528528690338135,47.48460006713867,47.38426971435547,47.32693862915039,47.39860534667969,47.48460006713867,47.369937896728516
1734610537.269207,0.21749867498874664,-0.6902477306178589,-0.34066247940063477,-0.628018931751587,-1.5938919226275843,-0.6135728994952601,-0.36660021363019557,-0.20890983425607437,0.2655145226052901,-1.1094561844189124,-2.8448648775874554,0.03473666154778021,-0.36277782917022705,-1.115635633468628,-0.5271514654159546,-0.7993313074111938,-0.24086028337478638,-0.2997347116470337,47.513267517089844,47.38426971435547,47.39860534667969,47.44160079956055,47.48460006713867,47.38426971435547
1734610537.3699176,0.16875064373016357,-0.64144320905719,-0.3374873995780945,-0.6838994783214112,-1.6028478781329554,-0.6612609068499964,-0.39397692637832854,-0.19168438719697128,0.25067971021172153,-1.1079481632299268,-2.835948172646947,0.019328613590483486,-0.2394159734249115,-1.191288948059082,-0.6218294501304626,-0.884769856929779,-0.2228865623474121,-0.24470189213752747,47.5275993347168,47.41293716430664,47.44160079956055,47.455936431884766,47.48460006713867,47.369937896728516
1734610537.471384,0.12991181015968323,-0.6022940439036866,-0.335073322057724,-0.7287959021380921,-1.6100905577289026,-0.6993187109576624,-0.4147431711119291,-0.17632305780147955,0.23823785926065172,-1.1067843929158163,-2.829108427206672,0.006274232930827357,-0.3271785378456116,-1.3058364391326904,-0.5976142883300781,-0.8435694575309753,-0.19935831427574158,-0.25278034806251526,47.48460006713867,47.38426971435547,47.41293716430664,47.44160079956055,47.455936431884766,47.369937896728516
1734610537.5728087,0.10167282819747925,-0.5742268127254029,-0.3332769274711609,-0.761207179432251,-1.6152856985675257,-0.726666275654928,-0.4290424965955652,-0.1642979790110585,0.2290218445142928,-1.1064903250109812,-2.8241518908301724,-0.003442582220402578,-0.2099069207906723,-1.3846031427383423,-0.5900343060493469,-0.8190110921859741,-0.18921369314193726,-0.2255670428276062,47.513267517089844,47.35560607910156,47.39860534667969,47.47026824951172,47.455936431884766,47.35560607910156
1734610537.6736312,0.08482092618942261,-0.5572078985026856,-0.33227968215942383,-0.780760721569397,-1.6184170881854456,-0.7432578245746058,-0.43734645228523633,-0.15679199824803045,0.22332473882014456,-1.1059707469673519,-2.8214249225877563,-0.009464500600027582,-0.19033285975456238,-1.3689862489700317,-0.6060086488723755,-0.7265340089797974,-0.19863148033618927,-0.21957425773143768,47.498931884765625,47.369937896728516,47.44160079956055,47.427268981933594,47.498931884765625,47.369937896728516
1734610537.7747684,0.07808481156826019,-0.5504715007594605,-0.3318624198436737,-0.7883969110301514,-1.6195347944842737,-0.7497451941119593,-0.4405522617349085,-0.15375161934457793,0.2210271334660393,-1.1060292399243241,-2.820447765697052,-0.011798978232126315,-0.11836899816989899,-1.5311298370361328,-0.6459183096885681,-0.7640423774719238,-0.10354876518249512,-0.22471883893013,47.47026824951172,47.34127426147461,47.41293716430664,47.427268981933594,47.48460006713867,47.369937896728516
1734610537.8755443,0.07804872840642929,-0.5505331319621583,-0.3317503333091736,-0.7884537738612671,-1.6197064558612269,-0.7497976461993616,-0.4405624977117627,-0.15369612938974536,0.22103595512569052,-1.105989192989995,-2.820376843790899,-0.012036512783833952,-0.23722416162490845,-1.6833040714263916,-0.5853676795959473,-0.7515369653701782,-0.18814340233802795,-0.12911592423915863,47.427268981933594,47.32693862915039,47.41293716430664,47.44160079956055,47.41293716430664,47.34127426147461
1734610537.9762807,0.0778655931353569,-0.5504869979671021,-0.3317633867263794,-0.7885078352740784,-1.619685475026266,-0.7498582045184534,-0.44060621392271926,-0.1536215514288666,0.2210238700377727,-1.106157607415936,-2.82030134936351,-0.012014776141741205,-0.20070664584636688,-1.608305811882019,-0.6069090962409973,-0.7406655550003052,-0.15143537521362305,-0.22161418199539185,47.455936431884766,47.34127426147461,47.41293716430664,47.427268981933594,47.48460006713867,47.32693862915039
1734610538.0770807,0.07788659632205963,-0.5504959386638184,-0.33173060417175293,-0.7884882253459473,-1.619744125996725,-0.7498691717730921,-0.4405970879771501,-0.1536166795562136,0.22101856245924317,-1.1061202062639404,-2.820330282957604,-0.012122759402352625,-0.18247710168361664,-1.5511738061904907,-0.6188138127326965,-0.7325361967086792,-0.11352115869522095,-0.21091459691524506,47.48460006713867,47.38426971435547,47.41293716430664,47.455936431884766,47.455936431884766,47.35560607910156
1734610538.1778185,0.07786712795495987,-0.5505420726588746,-0.33174681663513184,-0.7884913843921204,-1.619748894368307,-0.7498729864703577,-0.44059861388207383,-0.15360690471857386,0.22104371797288852,-1.1061228922653548,-2.820263953429202,-0.012087722999294491,-0.18731527030467987,-1.4919066429138184,-0.627301037311554,-0.7231075763702393,-0.10432374477386475,-0.18354834616184235,47.47026824951172,47.35560607910156,47.41293716430664,47.44160079956055,47.48460006713867,47.369937896728516
1734610538.2815237,0.0778699740767479,-0.5504759115031739,-0.33175110816955566,-0.7884925168803711,-1.6197355429278772,-0.7499302069293421,-0.4406030196536402,-0.15361162468623196,0.221014870593414,-1.1060569535711637,-2.8203548326245014,-0.012114490241438366,-0.16017155349254608,-1.464962363243103,-0.6316162943840027,-0.7145156860351562,-0.11347541213035583,-0.1697799265384674,47.47026824951172,47.34127426147461,47.44160079956055,47.427268981933594,47.427268981933594,47.369937896728516
1734610538.3822532,0.07783330231904984,-0.5504219096950074,-0.33175113797187805,-0.7884795230678101,-1.6197236219989222,-0.7499259153949183,-0.4406093010787056,-0.1535982690364594,0.22098896967966702,-1.1061352730716842,-2.820394392020925,-0.012145446435711166,-0.16330139338970184,-1.3561267852783203,-0.650027334690094,-0.7807179689407349,-0.07712195813655853,-0.1463005244731903,47.498931884765625,47.32693862915039,47.44160079956055,47.47026824951172,47.47026824951172,47.369937896728516
1734610538.4828506,0.07788224518299103,-0.5489344161799927,-0.3317708373069763,-0.7895259422114869,-1.619727913533346,-0.749852482472555,-0.4409370869144123,-0.15364490873845232,0.22043508038844406,-1.1062812497132393,-2.82073973108579,-0.012423055349125125,-0.08610837161540985,-1.221756100654602,-0.6594513058662415,-0.7677008509635925,-0.0752730667591095,0.04566298425197601,47.48460006713867,47.369937896728516,47.41293716430664,47.44160079956055,47.48460006713867,47.38426971435547
1734610538.583515,0.07805676758289337,-0.5433353942683716,-0.3317795991897583,-0.7936009925654908,-1.6196377913104456,-0.7490695158587855,-0.44219006559228274,-0.15384257900459594,0.21834216556447786,-1.107546192714974,-2.821738026370888,-0.013235598829169465,0.007269255816936493,-1.1747747659683228,-0.7369419932365417,-0.7422087788581848,-0.0027948617935180664,0.15162938833236694,47.5275993347168,47.39860534667969,47.427268981933594,47.44160079956055,47.513267517089844,47.38426971435547
1734610538.68425,0.0787750706076622,-0.5276320737651368,-0.3318754732608795,-0.8048775953105469,-1.6196001211749476,-0.7473376433001917,-0.44558363212970536,-0.15444469427560992,0.21243098761784238,-1.1101230230249688,-2.824891969250379,-0.015894452148531576,0.12165261059999466,-1.1217994689941406,-0.8462989330291748,-0.838862419128418,0.030693426728248596,0.2205522060394287,47.513267517089844,47.39860534667969,47.427268981933594,47.44160079956055,47.48460006713867,47.38426971435547
1734610538.7851017,0.08008334040641785,-0.4976692956737061,-0.3321138620376587,-0.8266463440707703,-1.6193111578570765,-0.7439850012408655,-0.451878945918246,-0.15561515769750361,0.2010095808708111,-1.115127703321433,-2.8306632607505073,-0.020518059215616544,0.09021459519863129,-1.1742888689041138,-0.9676118493080139,-0.8383004069328308,0.0953710526227951,0.2022448033094406,47.498931884765625,47.369937896728516,47.41293716430664,47.427268981933594,47.47026824951172,47.38426971435547
1734610538.885763,0.08191708475351334,-0.4561903041652222,-0.33252596855163574,-0.856667236690857,-1.618983570729391,-0.7394121328936976,-0.4600297743729473,-0.1572119833143044,0.18483294681899634,-1.1219380223604765,-2.8386567957869353,-0.02715136078332161,0.1330907642841339,-1.1839078664779663,-1.0489039421081543,-0.8266056776046753,0.09614458680152893,0.17448121309280396,47.48460006713867,47.369937896728516,47.39860534667969,47.427268981933594,47.47026824951172,47.38426971435547
1734610538.9864929,0.084236741065979,-0.40244419992480474,-0.33299490809440613,-0.8954119247249146,-1.618556324635641,-0.7334087530719202,-0.46959794353504203,-0.15921791985084738,0.1632324715571262,-1.1310315597090679,-2.84904836611534,-0.03608198930175329,0.18211886286735535,-1.142917275428772,-1.1003947257995605,-0.8277118802070618,0.12220869958400726,0.15188583731651306,47.513267517089844,47.369937896728516,47.41293716430664,47.44160079956055,47.498931884765625,47.38426971435547
1734610539.0868819,0.08708643168210983,-0.33560820043597417,-0.3334972858428955,-0.9438019555858155,-1.6180380026446741,-0.7259252707110804,-0.47997472942363395,-0.1616259122549206,0.13549527174513096,-1.1423955853486933,-2.8617031283714582,-0.04742207475411193,0.1676623523235321,-1.2317241430282593,-1.262179970741272,-0.8676870465278625,0.11379022896289825,0.19258545339107513,47.5275993347168,47.38426971435547,47.41293716430664,47.427268981933594,47.498931884765625,47.38426971435547
1734610539.1875007,0.0899878516793251,-0.26975591600451665,-0.33407723903656006,-0.9914106291583558,-1.6175554434405726,-0.7186153570758265,-0.4884194458370439,-0.1639416462328309,0.10733781555390048,-1.1533798616331392,-2.874096293094532,-0.05895255117456866,0.15336789190769196,-1.556917428970337,-1.401535987854004,-0.8232378959655762,0.13057999312877655,0.2343645989894867,47.498931884765625,47.369937896728516,47.44160079956055,47.44160079956055,47.498931884765625,47.38426971435547
1734610539.2882826,0.09233963489532471,-0.21555574358020024,-0.33454468846321106,-1.0306456846049805,-1.617082420979635,-0.7125213781939905,-0.49403875705466377,-0.16576419853179866,0.08361625299063791,-1.1625990958156416,-2.8841250116923107,-0.06855720028489846,0.15273462235927582,-1.6509736776351929,-1.4611291885375977,-0.7666841745376587,0.11057773232460022,0.1882239133119583,47.498931884765625,47.41293716430664,47.47026824951172,47.44160079956055,47.513267517089844,47.39860534667969
1734610539.388936,0.09425163269042969,-0.17253609121356206,-0.3349074423313141,-1.061664657001831,-1.616779629384176,-0.7077940146075647,-0.49757967241300877,-0.16715149290858328,0.06447109921019495,-1.1697296251530966,-2.892180418299854,-0.07653962985932378,0.14772458374500275,-1.6664830446243286,-1.522792935371399,-0.7763280272483826,0.14110922813415527,0.1579216569662094,47.54193115234375,47.39860534667969,47.47026824951172,47.47026824951172,47.48460006713867,47.369937896728516
1734610539.489365,0.09554679691791534,-0.14268358171496587,-0.33520394563674927,-1.0832305413535614,-1.6165731588946741,-0.7044265905963343,-0.4995911260832928,-0.16806361412837661,0.051062294550086845,-1.1748269760616639,-2.8975903705327353,-0.08210444403262629,0.12701666355133057,-1.7345117330551147,-1.5226327180862427,-0.7966732978820801,0.1435496211051941,0.1651357114315033,47.498931884765625,47.38426971435547,47.39860534667969,47.44160079956055,47.48460006713867,47.369937896728516
1734610539.590195,0.09618178009986877,-0.12467308462176518,-0.33536696434020996,-1.0962382119945069,-1.6163838545428675,-0.702428166066305,-0.5006386641575074,-0.16854027943722183,0.042917570538711536,-1.1780885229112699,-2.900822486228615,-0.0854224610844807,0.13529576361179352,-1.8055624961853027,-1.5212370157241821,-0.7106887102127075,0.14958275854587555,0.1863473504781723,47.47026824951172,47.34127426147461,47.427268981933594,47.39860534667969,47.44160079956055,47.369937896728516
1734610539.6907775,0.0964333787560463,-0.11871416986499028,-0.3354072570800781,-1.1005120438388367,-1.6163643042193812,-0.7018869558917444,-0.5009393714162262,-0.1687053162820662,0.04020952975317044,-1.1789389430435453,-2.902002042715221,-0.08661809202054506,0.1551772803068161,-1.9753483533859253,-1.4906460046768188,-0.5883423089981079,0.1138954758644104,0.1515422910451889,47.47026824951172,47.34127426147461,47.41293716430664,47.44160079956055,47.455936431884766,47.369937896728516
1734610539.7919812,0.09652306884527206,-0.1188548368266602,-0.33554720878601074,-1.1005284947207947,-1.6163600126849573,-0.701761547719137,-0.5009631128268899,-0.16875518763796593,0.04032140026152853,-1.178903210449762,-2.901735163910722,-0.0863874308154451,0.11822681128978729,-1.9570554494857788,-1.298447608947754,-0.6266143918037415,0.12676729261875153,0.19082428514957428,47.47026824951172,47.35560607910156,47.41293716430664,47.44160079956055,47.48460006713867,47.369937896728516
1734610539.8930058,0.09658082574605942,-0.11877663553271489,-0.3354940712451935,-1.1005570751479645,-1.6163480917560022,-0.7017882505999964,-0.5009436345029216,-0.16878590704332117,0.040268823370572165,-1.1788122272788095,-2.9018736211776344,-0.08644800588077048,0.1340983361005783,-1.84297776222229,-1.221394658088684,-0.6690770983695984,0.13768422603607178,0.14353884756565094,47.48460006713867,47.35560607910156,47.44160079956055,47.455936431884766,47.455936431884766,47.38426971435547
1734610539.9939418,0.09658830612897873,-0.11877377450976567,-0.3355030119419098,-1.1005675357631226,-1.616401497517721,-0.7017911116229456,-0.5009469392633262,-0.16877766927916574,0.04027128294907756,-1.1787816576865204,-2.901841493817159,-0.0865089120727761,0.12010347843170166,-1.7486623525619507,-1.142977237701416,-0.6600196957588196,0.11844249069690704,0.14844770729541779,47.47026824951172,47.39860534667969,47.39860534667969,47.39860534667969,47.455936431884766,47.369937896728516
1734610540.0946603,0.0965958833694458,-0.11873038232836919,-0.33542540669441223,-1.1005883377841492,-1.616352383290426,-0.7017748991595667,-0.5009337290343657,-0.16879168797736352,0.0402288689258091,-1.1788326185673466,-2.9019402688432923,-0.08651655546522043,0.1350908875465393,-1.6876612901687622,-1.1162439584732056,-0.6576967835426331,0.12485958635807037,0.11732165515422821,47.47026824951172,47.369937896728516,47.39860534667969,47.44160079956055,47.455936431884766,47.38426971435547
1734610540.1958969,0.09656631946563721,-0.11870665967974858,-0.3354550898075104,-1.100583867435791,-1.6163438002215784,-0.7017672697650355,-0.5009389936497265,-0.1687789176214185,0.040224290184217554,-1.178888052043098,-2.9019216744864424,-0.08650377002963161,0.11054906249046326,-1.6929795742034912,-1.121012806892395,-0.6542790532112122,0.11875908821821213,0.12087884545326233,47.498931884765625,47.369937896728516,47.39860534667969,47.427268981933594,47.47026824951172,47.369937896728516
1734610540.2971828,0.09656763076782227,-0.11866600931201177,-0.33542537689208984,-1.100555734043457,-1.6163438002215784,-0.7017882505999964,-0.5009235757054608,-0.16877804115562223,0.040192978790883405,-1.1788846509851734,-2.9020155936019445,-0.0865779419941153,0.13052113354206085,-1.7130321264266968,-1.1251810789108276,-0.6480709314346313,0.10462936758995056,0.09219011664390564,47.498931884765625,47.39860534667969,47.427268981933594,47.427268981933594,47.498931884765625,47.38426971435547
1734610540.3978016,0.09652304649353027,-0.11862929285083013,-0.3354506194591522,-1.100571946506836,-1.6163390318499964,-0.7017868200885218,-0.5009341993340098,-0.16875713984443405,0.040182223337150935,-1.1789512292293802,-2.9019880022743303,-0.08656808668649223,0.11944471299648285,-1.73540461063385,-1.112851619720459,-0.644490122795105,0.10612910985946655,0.09922422468662262,47.498931884765625,47.369937896728516,47.369937896728516,47.47026824951172,47.498931884765625,47.34127426147461
1734610540.5038583,0.09653802216053009,-0.11866600931201177,-0.3354761004447937,-1.1005838376334687,-1.6163108984576624,-0.7017748991595667,-0.500941433595657,-0.16877218485507064,0.04020869909869068,-1.1789305771582228,-2.901941686015024,-0.08647356026564877,0.11233896017074585,-1.7532142400741577,-1.1224803924560547,-0.6482667326927185,0.0972025990486145,0.10274532437324524,47.48460006713867,47.38426971435547,47.39860534667969,47.41293716430664,47.498931884765625,47.369937896728516
1734610540.604408,0.09659147262573242,-0.11871846139941411,-0.3354223966598511,-1.1005437535098572,-1.6163719336139124,-0.7017510573016565,-0.5009228193876089,-0.1687837525071415,0.04021853195846839,-1.1788871005286103,-2.901962513847565,-0.08658803210416721,0.07260757684707642,-2.0568432807922363,-1.1287957429885864,-0.5343051552772522,0.10950495302677155,0.08556962758302689,47.498931884765625,47.427268981933594,47.39860534667969,47.455936431884766,47.48460006713867,47.38426971435547
1734610540.7051501,0.09653043746948242,-0.11984332025561528,-0.3354313373565674,-1.0994726580432435,-1.6161683241473597,-0.7017958799945276,-0.5008057695974335,-0.16878783374235232,0.04071058134723496,-1.1789440899135586,-2.901994044635911,-0.08626324906453753,0.043181683868169785,-2.527939796447754,-1.073133945465088,-0.33515140414237976,0.15998141467571259,0.05878722295165062,47.498931884765625,47.38426971435547,47.39860534667969,47.44160079956055,47.498931884765625,47.369937896728516
1734610540.8061256,0.0963679850101471,-0.12564118326220708,-0.33527135848999023,-1.0945934814265748,-1.6154211203204554,-0.7017539183246058,-0.5002953887331539,-0.16882660962516183,0.043243994473016134,-1.1792169018924556,-2.901581346552024,-0.08467399376848146,-0.13079385459423065,-2.7326178550720215,-1.0160372257232666,-0.23337200284004211,0.19585058093070984,0.055981460958719254,47.498931884765625,47.38426971435547,47.41293716430664,47.44160079956055,47.498931884765625,47.38426971435547
1734610540.9068172,0.09560182690620422,-0.14198537290606694,-0.3347442150115967,-1.0808237355998536,-1.6132639090167444,-0.7017791906939905,-0.49881768547092953,-0.1687863205893006,0.050342712087826175,-1.1802595688077648,-2.900426675620747,-0.08019654775636012,-0.187534362077713,-2.8293228149414062,-0.9269782304763794,-0.20974013209342957,0.14319343864917755,0.03546678647398949,47.48460006713867,47.35560607910156,47.41293716430664,47.427268981933594,47.498931884765625,47.369937896728516
1734610541.007679,0.09429660439491272,-0.17150934160266118,-0.3337969481945038,-1.0554278057864686,-1.6093905607806605,-0.7017496267901819,-0.4957334260461503,-0.16871552321065164,0.06304323292995553,-1.1822646080109795,-2.8987364456856373,-0.07252743557753483,-0.17716090381145477,-2.796738862991333,-0.8563894033432007,-0.21360598504543304,0.17239953577518463,0.006518812850117683,47.427268981933594,47.32693862915039,47.369937896728516,47.38426971435547,47.455936431884766,47.35560607910156
1734610541.1088135,0.09249459952116013,-0.21394176900897222,-0.3324870467185974,-1.019170419578888,-1.6038134733783167,-0.7017706076251429,-0.4907210114831056,-0.16861637448820413,0.08112795309895213,-1.184808889369355,-2.8961257423007125,-0.06127138355006986,-0.23586921393871307,-2.796969175338745,-0.7871248722076416,-0.13968858122825623,0.18173262476921082,-0.04375788941979408,47.427268981933594,47.28394317626953,47.32693862915039,47.38426971435547,47.39860534667969,47.32693862915039
1734610541.209793,0.09014763683080673,-0.26781876504931645,-0.3307144045829773,-0.9731195133975525,-1.5966790358172815,-0.7018359343158167,-0.4832942810395144,-0.16840698261750933,0.10367205496605925,-1.1880283751528717,-2.8928781421687946,-0.046999526554092376,-0.2470548152923584,-2.7865896224975586,-0.7265561819076538,-0.1382681131362915,0.20356431603431702,-0.08026186376810074,47.455936431884766,47.32693862915039,47.35560607910156,47.369937896728516,47.427268981933594,47.31260681152344
1734610541.3108227,0.08778505772352219,-0.3228086990169068,-0.328931987285614,-0.9260096710971375,-1.5894997755633753,-0.7018597761737269,-0.47449663887682564,-0.16811849259449965,0.12617337386078434,-1.1912338870267736,-2.8895226360739708,-0.0326332963871583,-0.2573593556880951,-2.4552464485168457,-0.6748589277267456,-0.17050856351852417,0.18782255053520203,-0.09077440202236176,47.455936431884766,47.35560607910156,47.39860534667969,47.39860534667969,47.47026824951172,47.35560607910156
1734610541.4118924,0.08590330183506012,-0.3649532359889527,-0.32759377360343933,-0.890145556335785,-1.5838430563556116,-0.7018707434283655,-0.46702388217986623,-0.16786739034019152,0.14305867574216694,-1.1936709923042368,-2.886716342848577,-0.0212157729473166,-0.2897944450378418,-2.336369037628174,-0.6312978267669678,-0.165981262922287,0.18627400696277618,-0.10390619933605194,47.48460006713867,47.35560607910156,47.39860534667969,47.39860534667969,47.48460006713867,47.35560607910156
1734610541.5131803,0.08459897339344025,-0.3954194349101563,-0.3267034888267517,-0.8640586894801636,-1.5798528830157679,-0.7018664518939417,-0.4611623211564522,-0.16766950855845164,0.15504356794513108,-1.1953407313911677,-2.8847183599432773,-0.013160425316403188,-0.23204267024993896,-2.207759380340576,-0.5863020420074463,-0.22075289487838745,0.1719347983598709,-0.12054221332073212,47.48460006713867,47.38426971435547,47.41293716430664,47.427268981933594,47.498931884765625,47.369937896728516
1734610541.6138203,0.08395828306674957,-0.4133271735957642,-0.32611483335494995,-0.8487848204425354,-1.5775154272662562,-0.7018421331988733,-0.4575411534427352,-0.16760370166627087,0.16198323786223617,-1.196156572059564,-2.8835997598193517,-0.00843903686964062,-0.24397240579128265,-2.1725096702575684,-0.5919944643974304,-0.31742846965789795,0.19270694255828857,-0.07690216600894928,47.48460006713867,47.35560607910156,47.427268981933594,47.427268981933594,47.498931884765625,47.35560607910156
1734610541.714549,0.08363361656665802,-0.4190214437297364,-0.3259811997413635,-0.8439224523356934,-1.576862637196676,-0.7018373648272913,-0.45639008947497256,-0.16750592618138252,0.1641878467084623,-1.1965531993108969,-2.883094251276383,-0.007030705573591087,-0.2266714721918106,-1.8127020597457886,-0.594403862953186,-0.4882684051990509,0.15393668413162231,-0.07962322235107422,47.48460006713867,47.34127426147461,47.427268981933594,47.41293716430664,47.498931884765625,47.369937896728516
1734610541.8149736,0.08352033793926239,-0.4189574283412476,-0.32578229904174805,-0.843880371456482,-1.576775852833883,-0.7018588224994105,-0.4563813660485239,-0.16747195035378112,0.16410491885181042,-1.1968018179153603,-2.8833275253835953,-0.007131647078279475,-0.22800496220588684,-2.0712149143218994,-0.7343763709068298,-0.4400331974029541,0.1800595223903656,-0.06924617290496826,47.47026824951172,47.38426971435547,47.44160079956055,47.44160079956055,47.513267517089844,47.39860534667969
1734610541.916337,0.08353345096111298,-0.4190034431270142,-0.32583141326904297,-0.8439224523356934,-1.5767477194415491,-0.7018736044513147,-0.4563919825621315,-0.16748562888322466,0.16414222900510259,-1.1967201367613423,-2.8832437188683193,-0.006994105353866113,-0.21136680245399475,-2.2098634243011475,-0.7745066285133362,-0.421421080827713,0.1616000533103943,-0.07541416585445404,47.48460006713867,47.369937896728516,47.427268981933594,47.455936431884766,47.48460006713867,47.38426971435547
1734610542.0167515,0.08349509537220001,-0.41901834428820806,-0.3258480727672577,-0.8438938421062012,-1.5767596403705042,-0.7018373648272913,-0.45639331122630644,-0.16746492458798792,0.16415079849756986,-1.1968249881421638,-2.8831914365011655,-0.007008504579784383,-0.2058873176574707,-2.3002777099609375,-0.7929627895355225,-0.4185369908809662,0.1515950858592987,-0.08654746413230896,47.47026824951172,47.35560607910156,47.41293716430664,47.39860534667969,47.47026824951172,47.35560607910156
1734610542.1176028,0.08350370824337006,-0.41916342199359136,-0.32584041357040405,-0.8439268630794068,-1.5767477194415491,-0.7018664518939417,-0.4563967883780452,-0.16747209852238024,0.16421980741940378,-1.1967157961416601,-2.8830790904036463,-0.006869881356334086,-0.23524326086044312,-2.2530620098114014,-0.8175588250160217,-0.40678533911705017,0.12442582845687866,-0.06641800701618195,47.455936431884766,47.34127426147461,47.34127426147461,47.41293716430664,47.47026824951172,47.35560607910156
1734610542.218267,0.08352035284042358,-0.4191121619990845,-0.3258719742298126,-0.8439146441272278,-1.5767195860492151,-0.7018988768206995,-0.4563940102870996,-0.16748625204599857,0.1642023817483041,-1.196660229706897,-2.883146885358767,-0.006854020632513646,-0.19996356964111328,-2.2857794761657715,-0.8345128893852234,-0.4054643213748932,0.09167250990867615,-0.051089610904455185,47.48460006713867,47.38426971435547,47.39860534667969,47.44160079956055,47.48460006713867,47.369937896728516
1734610542.319686,0.08356595039367676,-0.41910047948870854,-0.3258807957172394,-0.843880907898285,-1.5767110029803675,-0.7019079367267054,-0.45637936003919244,-0.1675084637396575,0.1641960492772075,-1.1965952213130022,-2.8832132205650605,-0.006867795747899445,-0.190580815076828,-2.2920584678649902,-0.8554202318191528,-0.4169887900352478,0.09579166769981384,-0.050380680710077286,47.48460006713867,47.34127426147461,47.39860534667969,47.455936431884766,47.47026824951172,47.369937896728516
1734610542.4204876,0.0834922045469284,-0.41913385808978276,-0.3258897662162781,-0.8439057630351563,-1.576752010975973,-0.7018664518939417,-0.456398566584882,-0.16746585294225924,0.16421622866515406,-1.196732181664524,-2.8830714501841492,-0.0068769080234367345,-0.19343923032283783,-2.242919683456421,-0.8719051480293274,-0.4008963704109192,0.06871730089187622,-0.061249759048223495,47.48460006713867,47.369937896728516,47.39860534667969,47.41293716430664,47.498931884765625,47.38426971435547
1734610542.5216246,0.08359847962856293,-0.41910047948870854,-0.3258555829524994,-0.8439100545695801,-1.5767067114459437,-0.7018917242633265,-0.45637835407324445,-0.16752467548447225,0.16419242886609717,-1.1965708477827492,-2.8832215684208853,-0.006858307927759856,-0.18594372272491455,-2.2266082763671875,-0.8800878524780273,-0.4206256568431854,0.048982858657836914,-0.02897052839398384,47.48460006713867,47.32693862915039,47.41293716430664,47.427268981933594,47.48460006713867,47.38426971435547
1734610542.622966,0.08351683616638184,-0.419159011249878,-0.3258436620235443,-0.8439057630351563,-1.5767272154437464,-0.7018616835223597,-0.4563896848125012,-0.16748244926852565,0.16421660226007107,-1.1967146206141153,-2.8831111537066145,-0.006857136089919764,-0.18684251606464386,-2.2138724327087402,-0.8914029002189636,-0.4316253364086151,0.05223861336708069,-0.04992065206170082,47.498931884765625,47.38426971435547,47.41293716430664,47.44160079956055,47.498931884765625,47.369937896728516
1734610542.7241185,0.08350814133882523,-0.4191093009761353,-0.32589274644851685,-0.8439186972430726,-1.5767067114459437,-0.7018588224994105,-0.45639856873491425,-0.16748390430535307,0.16420647566218682,-1.1967302527713786,-2.8831030900923005,-0.006819951977302444,-0.17895087599754333,-2.212019681930542,-0.8909897804260254,-0.42933598160743713,0.05696691572666168,-0.049573179334402084,47.48460006713867,47.35560607910156,47.34127426147461,47.44160079956055,47.47026824951172,47.369937896728516
1734610542.8248987,0.08345171809196472,-0.41907067716632085,-0.3258644640445709,-0.8439136308482666,-1.5767315069781702,-0.7018707434283655,-0.4564053606098905,-0.16745211873600577,0.1641810367188408,-1.1968144425175355,-2.883125038870956,-0.006907110438051178,-0.1828474998474121,-2.192817211151123,-0.9133943319320679,-0.4311700761318207,0.036541104316711426,-0.04627543315291405,47.498931884765625,47.34127426147461,47.39860534667969,47.47026824951172,47.48460006713867,47.35560607910156
1734610542.9330404,0.08350811898708344,-0.41907210767779546,-0.32583922147750854,-0.8438732785037537,-1.576714340840475,-0.7019122282611292,-0.4563841194855023,-0.1674808388707743,0.16417185597914097,-1.1966978296357011,-2.883243599263541,-0.006929129436244586,-0.15694744884967804,-2.185220956802368,-0.8997765779495239,-0.44663259387016296,0.027647987008094788,-0.051731858402490616,47.498931884765625,47.369937896728516,47.39860534667969,47.41293716430664,47.48460006713867,47.39860534667969
1734610543.033784,0.08355293422937393,-0.41912563264880376,-0.3259529173374176,-0.8438327473453064,-1.576780144368307,-0.7018588224994105,-0.45637769510181997,-0.16748613098402168,0.16422149027327956,-1.1966575252163705,-2.8831056524239447,-0.006927728134639708,-0.06358049064874649,-2.3086886405944824,-0.9711250066757202,-0.3543103337287903,0.02285134792327881,0.01917988806962967,47.455936431884766,47.35560607910156,47.41293716430664,47.44160079956055,47.48460006713867,47.369937896728516
1734610543.1348248,0.08435916900634766,-0.4192802470973511,-0.3270845115184784,-0.8425747913173218,-1.5767510573016565,-0.7012208143817347,-0.4560483638770663,-0.1678447272043969,0.16446013247783098,-1.196417723846082,-2.8831899426183933,-0.0068424537081198415,0.1451837122440338,-2.363755941390991,-1.2231910228729248,-0.2544063329696655,-0.04807181656360626,0.1696855127811432,47.48460006713867,47.35560607910156,47.38426971435547,47.44160079956055,47.47026824951172,47.369937896728516
1734610543.2357454,0.08828304708003998,-0.4202501338771363,-0.33267447352409363,-0.8366671365550538,-1.5770528952227991,-0.6987183729754847,-0.4545000200012936,-0.16948600521523072,0.1657604227685407,-1.1941380650122837,-2.883347247825594,-0.0066776010130995085,0.2790817618370056,-2.356170415878296,-1.3022258281707764,-0.25168752670288086,-0.10872197151184082,0.2247675657272339,47.47026824951172,47.369937896728516,47.41293716430664,47.41293716430664,47.47026824951172,47.35560607910156
1734610543.336834,0.0996733009815216,-0.42212505758319097,-0.3483080267906189,-0.8202824157527466,-1.5777533690081995,-0.6915691534625452,-0.45007241114424223,-0.17424676556259405,0.16898612254010728,-1.1876337253933205,-2.884573994283831,-0.006485247816480299,0.46544110774993896,-2.384860038757324,-1.4480257034301758,-0.17683133482933044,-0.12374833971261978,0.2721349895000458,47.5275993347168,47.38426971435547,47.39860534667969,47.427268981933594,47.498931884765625,47.35560607910156
1734610543.43789,0.11986050009727478,-0.4256938260844727,-0.37622392177581787,-0.7904066008380433,-1.5788806120501917,-0.678591553364889,-0.4418048337652733,-0.1824813342260548,0.17467844130515145,-1.176700081520792,-2.8868947691038827,-0.006173602752173057,0.4355311989784241,-2.3936221599578857,-1.451881766319275,-0.1814994364976883,-0.1782073676586151,0.21202236413955688,47.427268981933594,47.35560607910156,47.369937896728516,47.38426971435547,47.427268981933594,47.31260681152344
1734610543.5387836,0.14936448633670807,-0.4310836356929322,-0.41638651490211487,-0.7476324600032349,-1.5805814901935022,-0.6599162260638636,-0.4293471133234693,-0.19401520359646504,0.1827352881969807,-1.1601520273576253,-2.8900210879799926,-0.005269111284742428,0.3758818209171295,-2.3742899894714355,-1.3982141017913818,-0.128363698720932,-0.1939009130001068,0.2711423337459564,47.39860534667969,47.31260681152344,47.26960754394531,47.369937896728516,47.38426971435547,47.298274993896484
1734610543.6396768,0.1864262968301773,-0.437893347149231,-0.4669949412345886,-0.6936006110957642,-1.582813564931051,-0.6364434401141565,-0.41281711167793367,-0.20757813060177374,0.1924105880029919,-1.139415068198407,-2.893866729302454,-0.003985103491252922,0.3533084988594055,-2.2452120780944824,-1.3324906826019287,-0.06300439685583115,-0.23473554849624634,0.19994647800922394,47.455936431884766,47.35560607910156,47.32693862915039,47.39860534667969,47.455936431884766,47.34127426147461
1734610543.7404835,0.23147468268871307,-0.4461340469172974,-0.5288689732551575,-0.627718524341919,-1.5854809919940394,-0.6076849142657679,-0.39157574570856674,-0.22264585450002955,0.20346607274119155,-1.1145364817275583,-2.898193638479867,-0.0017285259908977678,0.37366288900375366,-2.106257915496826,-1.2348638772964478,-0.08443892747163773,-0.1667494773864746,0.21757124364376068,47.48460006713867,47.38426971435547,47.39860534667969,47.39860534667969,47.455936431884766,47.35560607910156
1734610543.8418515,0.2804931402206421,-0.4549037975123902,-0.5958743691444397,-0.5561786454967041,-1.5883005301104944,-0.5766366163836878,-0.3672659871422267,-0.23719360889568478,0.21437636485797032,-1.087261546122657,-2.903206849209033,0.0011390049829583366,0.1863989233970642,-2.104891061782837,-1.1959550380706787,-0.17211556434631348,-0.23961177468299866,0.24238911271095276,47.48460006713867,47.38426971435547,47.38426971435547,47.38426971435547,47.455936431884766,47.34127426147461
1734610543.9435585,0.32911765575408936,-0.46378786981616216,-0.6630404591560364,-0.48506708562884526,-1.5912507216082972,-0.5455711523639124,-0.3421042262234873,-0.249571272130279,0.2243415348123773,-1.0604143771683248,-2.907251081334248,0.005146803227132787,0.33288899064064026,-2.010305881500244,-1.1200995445251465,-0.034173108637332916,-0.25005942583084106,0.24208152294158936,47.455936431884766,47.34127426147461,47.38426971435547,47.41293716430664,47.44160079956055,47.32693862915039
1734610544.0445328,0.37800806760787964,-0.4727882903865357,-0.7301024794578552,-0.41367490709338384,-1.5940454641925257,-0.5145252386676233,-0.3164792313614925,-0.25978743418820943,0.23303241773265676,-1.0337940925328433,-2.911587887787691,0.009687951776888087,0.24474205076694489,-1.968729853630066,-1.0172137022018433,-0.034094154834747314,-0.25029799342155457,0.250352144241333,47.455936431884766,47.38426971435547,47.369937896728516,47.41293716430664,47.48460006713867,47.32693862915039
1734610544.1457186,0.4256691336631775,-0.4814853233150025,-0.7956633567810059,-0.3433818382075806,-1.5970237890826624,-0.48401147523988897,-0.28981398694078025,-0.26792782655561553,0.24065065834324167,-1.0073875705212538,-2.91594639674949,0.013975348661177642,0.38983353972435,-1.9343605041503906,-0.955346941947937,-0.15885783731937408,-0.20847859978675842,0.26671215891838074,47.47026824951172,47.35560607910156,47.38426971435547,47.41293716430664,47.47026824951172,47.35560607910156
1734610544.2466865,0.4746999740600586,-0.49034781873736577,-0.8625946640968323,-0.2719864410213013,-1.5998409430133265,-0.45294028917421514,-0.26271769919164134,-0.27412724997141696,0.24712904581317946,-0.9802716396570887,-2.9203967893760026,0.019494487837753562,0.2661639153957367,-1.8179863691329956,-0.8763850331306458,-0.1828131377696991,-0.19955703616142273,0.2264849692583084,47.498931884765625,47.369937896728516,47.35560607910156,47.38426971435547,47.455936431884766,47.369937896728516
1734610544.3478355,0.5226054787635803,-0.4991358083537598,-0.9281944036483765,-0.20225532472644048,-1.6025732199298304,-0.4224436918841761,-0.23611255434832815,-0.2781243761021735,0.25237562534462643,-0.9539695381591052,-2.924406506174321,0.02587974186061173,0.2523099184036255,-1.762662410736084,-0.7753863334655762,-0.07912688702344894,-0.24317936599254608,0.23088453710079193,47.498931884765625,47.34127426147461,47.34127426147461,47.39860534667969,47.44160079956055,47.35560607910156
1734610544.4490469,0.5661996603012085,-0.5071320098689576,-0.9883363842964172,-0.13819880903277593,-1.605264965687887,-0.39451867738832647,-0.21188920027615424,-0.2799113998708307,0.2561280583133827,-0.9303368564672877,-2.9279152754050677,0.0317969911513209,0.18815408647060394,-1.7282543182373047,-0.6461222767829895,-0.11021596938371658,-0.218215674161911,0.18078958988189697,47.498931884765625,47.369937896728516,47.38426971435547,47.41293716430664,47.44160079956055,47.35560607910156
1734610544.5506856,0.6013652682304382,-0.5134522479823609,-1.0368292331695557,-0.08641167104754643,-1.6072996298419397,-0.3720811049090784,-0.19248796820802336,-0.2801897083521748,0.2583786424639112,-0.911247937536135,-2.931046903312505,0.03670734553720619,0.27323630452156067,-1.6887375116348267,-0.6068832874298096,-0.21206045150756836,-0.18746638298034668,0.24347369372844696,47.455936431884766,47.34127426147461,47.39860534667969,47.427268981933594,47.455936431884766,47.34127426147461
1734610544.65153,0.6276023387908936,-0.5181597036174317,-1.073041558265686,-0.04801650465045171,-1.6088998953448694,-0.3552926222430628,-0.17821753393639622,-0.2797462627414249,0.2596655280695464,-0.8970364834922947,-2.9331369652575177,0.040790793415357234,0.20622485876083374,-1.6620781421661377,-0.5301229357719421,-0.23479890823364258,-0.2159903645515442,0.1811203509569168,47.48460006713867,47.34127426147461,47.41293716430664,47.39860534667969,47.47026824951172,47.31260681152344
1734610544.753273,0.6461268663406372,-0.5216158193400879,-1.0981931686401367,-0.02115531385455327,-1.6099494139300745,-0.34364587465395147,-0.16825499871432997,-0.2791367787987921,0.2603851883343913,-0.8867290713170157,-2.934788438390934,0.043784958621197176,0.1906237155199051,-1.5684770345687866,-0.43189316987991333,-0.29937943816185,-0.15835611522197723,0.2222941517829895,47.513267517089844,47.34127426147461,47.41293716430664,47.44160079956055,47.47026824951172,47.34127426147461
1734610544.8540063,0.6559910774230957,-0.5233615201762696,-1.111486554145813,-0.006831721668579149,-1.6104725042926233,-0.3373974005328577,-0.16298435754859114,-0.2787116575392392,0.26065760934455295,-0.881349624174173,-2.935802465265245,0.04517901498159931,0.12418019771575928,-1.53777015209198,-0.3521764874458313,-0.36016762256622314,-0.18242663145065308,0.19209204614162445,47.47026824951172,47.34127426147461,47.39860534667969,47.44160079956055,47.5275993347168,47.38426971435547
1734610544.9557185,0.6578616499900818,-0.5236738485148926,-1.1140291690826416,-0.004095749264099169,-1.6106269995318812,-0.3362835089312952,-0.16199391309319802,-0.2786110241701802,0.2606986955061329,-0.880217852204663,-2.9359917552126853,0.045370109386617466,0.1214229166507721,-1.3925317525863647,-0.35033220052719116,-0.4883333444595337,-0.13512413203716278,0.053856849670410156,47.48460006713867,47.38426971435547,47.44160079956055,47.47026824951172,47.498931884765625,47.38426971435547
1734610545.0563216,0.6579530835151672,-0.5236544174006958,-1.1142089366912842,-0.004101232891418505,-1.6106269995318812,-0.33621055284609014,-0.1619728876784363,-0.2786293206697176,0.26070915116186016,-0.8801674662155957,-2.9359052589467676,0.045584997806741655,0.08517715334892273,-1.5308467149734497,-0.35654452443122864,-0.45181071758270264,-0.10303147882223129,0.12196043133735657,47.48460006713867,47.38426971435547,47.41293716430664,47.44160079956055,47.48460006713867,47.41293716430664
1734610545.156966,0.6579262614250183,-0.5237301152995606,-1.1142327785491943,-0.004113273029663134,-1.6105864683734339,-0.33625680605043584,-0.16197052732187467,-0.27862927878336574,0.26073463011347864,-0.8801298630872604,-2.935879118163707,0.045755696437765815,0.07166962325572968,-1.5675849914550781,-0.35426241159439087,-0.42885076999664307,-0.08857562392950058,0.1368635892868042,47.54193115234375,47.41293716430664,47.427268981933594,47.48460006713867,47.47026824951172,47.369937896728516
1734610545.258587,0.657914400100708,-0.5237458509257813,-1.1142327785491943,-0.0041057628444214345,-1.610615078602926,-0.33624488512148076,-0.16197515257583553,-0.2786199986767904,0.26073885458958046,-0.8801586779743912,-2.9358415762023795,0.04573984302767597,0.09844988584518433,-1.5220445394515991,-0.34053540229797363,-0.43493175506591797,-0.07607445865869522,0.13722117245197296,47.47026824951172,47.369937896728516,47.44160079956055,47.47026824951172,47.48460006713867,47.38426971435547
1734610545.3599908,0.6579278707504272,-0.5237906736186524,-1.1142489910125732,-0.004101471309997606,-1.6105940977679651,-0.3362167517291468,-0.16196397996803796,-0.27862261696501917,0.26075299919071904,-0.8801760220674001,-2.935818842711279,0.04583164663266344,0.09618604183197021,-1.5127501487731934,-0.3393740653991699,-0.43250611424446106,-0.07554742693901062,0.1202719658613205,47.513267517089844,47.39860534667969,47.39860534667969,47.427268981933594,47.498931884765625,47.369937896728516
1734610545.4703076,0.6579411625862122,-0.5237458509257813,-1.1142576932907104,-0.004101471309997606,-1.610647980366842,-0.3362167517291468,-0.16197180009646792,-0.2786178693270974,0.2607409287162532,-0.8801522240793433,-2.9358040600405455,0.04573863796915119,0.11480681598186493,-1.521202802658081,-0.3464584946632385,-0.4274306893348694,-0.07463932782411575,0.1137872263789177,47.54193115234375,47.38426971435547,47.41293716430664,47.44160079956055,47.5275993347168,47.38426971435547
1734610545.5720525,0.6580251455307007,-0.5237582486918946,-1.114213228225708,-0.004075841312744188,-1.6106537024127405,-0.33616859117616826,-0.1619431127389421,-0.2786257113848292,0.26073821004367126,-0.8801076031884032,-2.9358508891007777,0.045669859065810434,0.16181279718875885,-1.3775888681411743,-0.35133570432662964,-0.4791373014450073,-0.053223296999931335,0.17029060423374176,47.48460006713867,47.38426971435547,47.44160079956055,47.455936431884766,47.48460006713867,47.369937896728516
1734610545.6736445,0.6593425869941711,-0.5232656759074708,-1.1142208576202393,-0.0046506685069580556,-1.6103838125811976,-0.3351982275592249,-0.1616830053876299,-0.2790005752164516,0.26064728585464014,-0.879637838641506,-2.936191390794103,0.04615896730805842,0.22735734283924103,-0.9810029864311218,-0.3498955965042114,-0.6769422888755798,0.06855550408363342,0.17325107753276825,47.455936431884766,47.39860534667969,47.427268981933594,47.41293716430664,47.44160079956055,47.35560607910156
1734610545.7749875,0.6654694080352783,-0.520818905239441,-1.1142652034759521,-0.006827072506286669,-1.6091826597796839,-0.3313530127154749,-0.1604437571708122,-0.2806152354544021,0.26015045876218623,-0.8766893606491664,-2.9383106043707974,0.04753222310296063,0.31412023305892944,-0.8063812255859375,-0.3721199035644531,-0.766083300113678,0.13473890721797943,0.16855867207050323,47.513267517089844,47.369937896728516,47.455936431884766,47.427268981933594,47.513267517089844,47.35560607910156
1734610545.875661,0.6815524101257324,-0.5139512580684205,-1.1142723560333252,-0.012986020450927782,-1.6058943907367151,-0.3208358923541468,-0.15704018462006675,-0.28514851299293487,0.2586570181509353,-0.8691123123989458,-2.9441913088272402,0.051089623139518404,0.40731847286224365,-0.748089611530304,-0.3690800070762634,-0.7101370096206665,0.17269426584243774,0.2392137050628662,47.498931884765625,47.38426971435547,47.369937896728516,47.427268981933594,47.48460006713867,47.35560607910156
1734610545.976619,0.7121160626411438,-0.5011056226542969,-1.114380121231079,-0.02441926420245366,-1.5998485724078577,-0.30088788667787725,-0.1503273934180602,-0.2934479072359128,0.2558713302526293,-0.8548469094528589,-2.9551055903055303,0.05734703554770713,0.3995946943759918,-0.7984514236450195,-0.3838752210140228,-0.785857617855072,0.16864560544490814,0.25181135535240173,47.513267517089844,47.369937896728516,47.41293716430664,47.41293716430664,47.48460006713867,47.38426971435547
1734610546.0779295,0.7537933588027954,-0.4836493295482178,-1.114504098892212,-0.040188507442810106,-1.591581169758932,-0.2735994497882288,-0.14056979260950947,-0.3045140953956485,0.2520344005309607,-0.8354314697188684,-2.969975731064122,0.06545167917130819,0.5453029870986938,-0.8061909675598145,-0.41129055619239807,-0.7552520632743835,0.29559051990509033,0.281731516122818,47.455936431884766,47.369937896728516,47.41293716430664,47.44160079956055,47.455936431884766,47.369937896728516
1734610546.1784852,0.808269739151001,-0.46099265039477544,-1.114693522453308,-0.06046076238665776,-1.5807212034808558,-0.23846418062318975,-0.12667155633886168,-0.3183734077747573,0.24691474910282113,-0.8091547799196075,-2.9899294631284477,0.0745639187860039,0.39753541350364685,-0.8240216374397278,-0.4787406027317047,-0.9045939445495605,0.19629555940628052,0.2839142084121704,47.48460006713867,47.369937896728516,47.41293716430664,47.39860534667969,47.455936431884766,47.34127426147461
1734610546.2797036,0.8752778172492981,-0.4327971500209351,-1.114839792251587,-0.08583422124896245,-1.567366902028219,-0.19467622438539678,-0.10804974216560569,-0.3345252410329675,0.24036018098268855,-0.7774405875231999,-3.0144460030102893,0.08370729322060592,0.5163418650627136,-0.8955999612808228,-0.5222682952880859,-0.7423327565193176,0.21201583743095398,0.2857978641986847,47.48460006713867,47.35560607910156,47.41293716430664,47.427268981933594,47.48460006713867,47.35560607910156
1734610546.3806746,0.9470793604850769,-0.40302927911791997,-1.1151095628738403,-0.11238522947344975,-1.5531371275531214,-0.14828235307802373,-0.0861030495282765,-0.35028355730587807,0.23320599750760762,-0.7423202272597491,-3.041013106680375,0.09064246759479955,0.3104875385761261,-0.9788604378700256,-0.5545257925987244,-0.8732706904411316,0.18170154094696045,0.32936352491378784,47.48460006713867,47.34127426147461,47.41293716430664,47.44160079956055,47.455936431884766,47.32693862915039
1734610546.4812148,1.0167839527130127,-0.37384922922167974,-1.115339994430542,-0.1388901037028809,-1.5393794218646448,-0.10277778307069951,-0.063156536705454,-0.3641541791353325,0.22601988296968487,0.7053125989371019,3.0526590268649048,-0.09478296496396459,0.511011004447937,-0.9900849461555481,-0.5653017163276672,-0.7271862626075745,0.2789354920387268,0.2778915762901306,47.498931884765625,47.35560607910156,47.38426971435547,47.38426971435547,47.47026824951172,47.32693862915039
1734610546.5818708,1.0859243869781494,-0.3451412481120606,-1.1155486106872559,-0.16450496137652593,-1.5256355444537562,-0.05795318285097295,-0.0386956280915299,-0.3760697449169695,0.21870099633499046,0.663731661653487,3.0442035688186544,-0.09488146413151566,0.20632433891296387,-1.041864275932312,-0.6132344007492065,-0.8317598700523376,0.19108252227306366,0.33810752630233765,47.48460006713867,47.369937896728516,47.38426971435547,47.44160079956055,47.455936431884766,47.34127426147461
1734610546.6826935,1.1453129053115845,-0.32032568872485356,-1.1157433986663818,-0.1869691175273438,-1.5139153639422815,-0.01928741136659795,-0.016600311616091507,-0.3849106569775484,0.21224850548254043,0.6285855669244764,3.0366077709100483,-0.09320925461337248,0.23058342933654785,-1.1069209575653076,-0.6380261778831482,-0.7721695899963379,0.22322216629981995,0.19677290320396423,47.48460006713867,47.38426971435547,47.44160079956055,47.427268981933594,47.47026824951172,47.34127426147461
1734610546.7837963,1.1916649341583252,-0.30094678819689946,-1.1159350872039795,-0.20428390920672612,-1.5045765081988733,0.010812324471771717,0.0013840431733737803,-0.39076295062125227,0.20709612879082268,0.6011969569296213,3.030273632868382,-0.09027800337790337,0.12819120287895203,-1.126560091972351,-0.644795835018158,-0.8424381613731384,0.17040961980819702,0.23263338208198547,47.48460006713867,47.35560607910156,47.44160079956055,47.455936431884766,47.47026824951172,47.34127426147461
1734610546.884689,1.2259618043899536,-0.28637559831652837,-1.1160147190093994,-0.21752603471789556,-1.497875992451803,0.033513475209474564,0.014958079968905351,-0.3945715975311774,0.2031745274153029,0.5817443959730815,3.0255810185052248,-0.08746318415333396,0.3024141490459442,-1.1619373559951782,-0.6512449979782104,-0.7483654618263245,0.2676423192024231,0.28801119327545166,47.48460006713867,47.369937896728516,47.427268981933594,47.47026824951172,47.48460006713867,47.34127426147461
1734610546.98628,1.2479503154754639,-0.27713413656268315,-1.116053581237793,-0.225629524593689,-1.4934046904193323,0.0477987565100193,0.023877398303214933,-0.3966597294947198,0.2006362651281363,0.5688959355802785,3.022424066791593,-0.08490832137328817,0.23915249109268188,-1.2400439977645874,-0.6390439867973328,-0.7882483005523682,0.24065658450126648,0.14425459504127502,47.44160079956055,47.38426971435547,47.38426971435547,47.427268981933594,47.47026824951172,47.34127426147461
1734610547.0873911,1.2581703662872314,-0.27289612710986333,-1.116086721420288,-0.22948534906420903,-1.4914148489581507,0.05435004457831383,0.028034383479792896,-0.3975645614133689,0.1994804213443692,0.5628196897614484,3.0210810416561995,-0.08386444875140961,0.21984104812145233,-1.2694087028503418,-0.6609216332435608,-0.7281165719032288,0.2084520161151886,0.16319279372692108,47.455936431884766,47.39860534667969,47.39860534667969,47.47026824951172,47.513267517089844,47.35560607910156
1734610547.1893904,1.259056806564331,-0.27276237428698735,-1.1160975694656372,-0.22963567197833257,-1.4912551085101526,0.054684676229953766,0.028409459442561548,-0.39758962159745753,0.19944962372831057,0.5619430273233653,3.0210530837983898,-0.08386961296041687,0.03400329872965813,-1.4126068353652954,-0.6311584711074829,-0.6443507671356201,0.19888024032115936,0.12077585607767105,47.513267517089844,47.35560607910156,47.41293716430664,47.427268981933594,47.498931884765625,47.38426971435547
1734610547.2905345,1.2591238021850586,-0.2728122037700196,-1.1161580085754395,-0.22969241560015874,-1.4911983648883265,0.05478930473327637,0.02844507272554999,-0.3976027845652519,0.19948261658880506,0.5619790944823846,3.0209990379372966,-0.08412536087040469,0.08579681813716888,-1.321901798248291,-0.6151967644691467,-0.665890634059906,0.20463964343070984,0.19614258408546448,47.498931884765625,47.38426971435547,47.41293716430664,47.427268981933594,47.47026824951172,47.38426971435547
1734610547.391538,1.259073257446289,-0.2727402013591309,-1.1161386966705322,-0.22968800485644536,-1.4911754767047327,0.05478932335972786,0.02842935902355305,-0.3976078202821485,0.1994533742445021,0.5620547157748174,3.0209547677925843,-0.0839857849226594,0.11220099031925201,-1.3008711338043213,-0.585092306137085,-0.6880123615264893,0.1821167916059494,0.17987552285194397,47.498931884765625,47.369937896728516,47.44160079956055,47.427268981933594,47.48460006713867,47.34127426147461
1734610547.4924421,1.2591347694396973,-0.27273865163836675,-1.1161625385284424,-0.22968800485644536,-1.4911921660052698,0.0548219196498394,0.02844999361311594,-0.39760536290622933,0.19945572910748474,0.5620132713184031,3.020978840033687,-0.08401199183899635,0.0829845666885376,-1.1926286220550537,-0.5788573026657104,-0.6952784657478333,0.1648707091808319,0.15857717394828796,47.498931884765625,47.38426971435547,47.39860534667969,47.44160079956055,47.47026824951172,47.38426971435547
1734610547.593141,1.259192943572998,-0.272691087131836,-1.1161549091339111,-0.22969551504168706,-1.4912007490741175,0.054813165217638016,0.02847004129210913,-0.3976067428752752,0.19943769089012436,0.5619157752786952,3.021000247651492,-0.08393508256753376,0.10097965598106384,-1.2130061388015747,-0.5686686635017395,-0.6874336004257202,0.1288314312696457,0.12373530864715576,47.498931884765625,47.38426971435547,47.44160079956055,47.41293716430664,47.498931884765625,47.38426971435547
1734610547.6952257,1.259143590927124,-0.2727402013591309,-1.116159200668335,-0.22974033773455815,-1.4912293593036097,0.05480559915304184,0.028441688321671234,-0.39761366071861054,0.19946022065616043,0.5619810880127198,3.021027275692341,-0.08408312849786316,0.11314226686954498,-1.2132986783981323,-0.5646032691001892,-0.6862605214118958,0.13089054822921753,0.1069812998175621,47.47026824951172,47.39860534667969,47.455936431884766,47.47026824951172,47.498931884765625,47.41293716430664
1734610547.7966754,1.2591347694396973,-0.27282269418750005,-1.1161223649978638,-0.2297073167613526,-1.4911711851703089,0.05478493124246597,0.02845472075349506,-0.3976065407484213,0.19948358345973485,0.5619503412933728,3.0209758420953094,-0.0841140276042025,0.12843792140483856,-1.210666298866272,-0.5501134991645813,-0.6816011071205139,0.1322038471698761,0.10372209548950195,47.48460006713867,47.34127426147461,47.41293716430664,47.44160079956055,47.48460006713867,47.369937896728516
1734610547.8980048,1.2591267824172974,-0.27276845396075444,-1.1161795854568481,-0.22967906415972905,-1.4912408033954065,0.054863668978214264,0.028437076757560374,-0.39759914956503334,0.19946734328579968,0.5620973897418974,3.021014853293796,-0.08405973535410262,0.09504833817481995,-1.2097910642623901,-0.5349175333976746,-0.6898804306983948,0.11047188192605972,0.10761839151382446,47.48460006713867,47.369937896728516,47.39860534667969,47.44160079956055,47.498931884765625,47.369937896728516
1734610547.998619,1.2590930461883545,-0.27272828043017583,-1.116146206855774,-0.22971184671435552,-1.4911955038653772,0.05483068525791168,0.028427292611377976,-0.3976082826954326,0.19944313675693273,0.5620504388439166,3.0210198643554538,-0.08396462267881656,0.11064448952674866,-1.2066417932510376,-0.5220895409584045,-0.6887498497962952,0.1138228103518486,0.10833161324262619,47.54193115234375,47.38426971435547,47.41293716430664,47.44160079956055,47.48460006713867,47.34127426147461
1734610548.0997212,1.2591266632080078,-0.2727371019176026,-1.1161223649978638,-0.2296791833690186,-1.4912202993976038,0.05480248108506203,0.028441366761432677,-0.3976010770512939,0.19944840174241965,0.5620047539113336,3.0210052558330336,-0.08393141451856395,0.10583227872848511,-1.1922459602355957,-0.5157337784767151,-0.6672582030296326,0.10619955509901047,0.09793156385421753,47.5275993347168,47.39860534667969,47.427268981933594,47.44160079956055,47.47026824951172,47.369937896728516
1734610548.202006,1.259167194366455,-0.27271492898974614,-1.1161795854568481,-0.22970886648211675,-1.4911964575396937,0.05478930473327637,0.028460044826672394,-0.39761000879413344,0.19945118636302991,0.5619151929435482,3.021002725806619,-0.08403290957393174,0.1049347072839737,-1.1839240789413452,-0.5005407929420471,-0.6778016686439514,0.08848945796489716,0.09422320127487183,47.498931884765625,47.38426971435547,47.41293716430664,47.41293716430664,47.513267517089844,47.34127426147461
1734610548.3088582,1.2591509819030762,-0.2727118295482178,-1.1161550283432007,-0.22968347490344243,-1.4912074247943323,0.05482187122106552,0.028428061652692415,-0.397608983186133,0.19946979532872125,0.5619996460233588,3.021020823155464,-0.084087721082513,0.09841904044151306,-1.2017766237258911,-0.4994354248046875,-0.6575769186019897,0.10316725075244904,0.08287715911865234,47.48460006713867,47.35560607910156,47.35560607910156,47.47026824951172,47.48460006713867,47.369937896728516
1734610548.410654,1.2591761350631714,-0.2725798648646851,-1.1161625385284424,-0.22971959531817632,-1.4911869207965296,0.05481001362204552,0.02846303801486307,-0.3976185640297539,0.19940016011549394,0.5619365520606157,3.0209760341344474,-0.08381706983997388,0.08526147156953812,-1.1284210681915283,-0.5818965435028076,-0.7081620097160339,0.09761269390583038,0.17174920439720154,47.5275993347168,47.369937896728516,47.39860534667969,47.47026824951172,47.513267517089844,47.38426971435547
1734610548.5116167,1.2590690851211548,-0.27115757883105474,-1.1167668104171753,-0.23055882871661382,-1.4912756125079554,0.05572851747274399,0.028318229668577322,-0.39787105344439766,0.1990347426984733,0.5634927970443715,3.020758685694783,-0.08379078066273461,0.011764807626605034,-1.116919755935669,-0.6792031526565552,-0.7297723293304443,0.010488495230674744,0.19807784259319305,47.5275993347168,47.38426971435547,47.38426971435547,47.455936431884766,47.498931884765625,47.38426971435547
1734610548.6125567,1.2589505910873413,-0.26551707208666997,-1.1189223527908325,-0.23362477243457036,-1.4918306509601038,0.05938340350985527,0.027841772126069763,-0.39878362395147393,0.19752159311442022,0.5692871058493555,3.020114076134479,-0.08286795942131575,-0.1411839872598648,-1.0045851469039917,-0.6639125943183899,-0.7028486728668213,-0.10410507023334503,0.20200659334659576,47.48460006713867,47.38426971435547,47.39860534667969,47.44160079956055,47.48460006713867,47.369937896728516
1734610548.713206,1.2583832740783691,-0.24907536924395757,-1.1251707077026367,-0.2424876254848023,-1.493246857319967,0.06972123682498932,0.0264265325710273,-0.40140320110835237,0.1930771312998849,0.5859940625731606,3.0180151413354004,-0.08008494623036258,-0.15163657069206238,-0.9495541453361511,-0.6819373369216919,-0.7693005204200745,-0.13555335998535156,0.2605092525482178,47.498931884765625,47.369937896728516,47.39860534667969,47.44160079956055,47.48460006713867,47.369937896728516
1734610548.8149776,1.257359504699707,-0.21861119688067632,-1.1366901397705078,-0.2589951318553467,-1.4959319273578089,0.08877835422754288,0.02384453535077244,-0.4060931817886178,0.1847442502199397,0.6167571894902665,3.0140180136527865,-0.07500745761072046,-0.22243423759937286,-0.9201352596282959,-0.7482015490531921,-0.790715754032135,-0.15456344187259674,0.311690092086792,47.498931884765625,47.35560607910156,47.38426971435547,47.44160079956055,47.44160079956055,47.35560607910156
1734610548.9158351,1.2558887004852295,-0.17636795461688237,-1.1522321701049805,-0.28166695058856206,-1.4995372931109827,0.11532093584537506,0.0203940078025888,-0.41216697085348036,0.17291023831238572,0.6596269355862666,3.0078082378524087,-0.06707652607230392,-0.16800762712955475,-1.003867268562317,-0.761590301990509,-0.8320218920707703,-0.15261729061603546,0.26996877789497375,47.48460006713867,47.38426971435547,47.427268981933594,47.44160079956055,47.498931884765625,47.39860534667969
1734610549.0170074,1.2540119886398315,-0.12117131174121099,-1.1730337142944336,-0.31158895910296636,-1.5044048468219202,0.1500042974948883,0.016038564471943316,-0.4194842984917631,0.15722468328963715,0.7155037516236065,2.9991357308181583,-0.058068525619528,-0.2082514762878418,-0.919106662273407,-0.8100768327713013,-0.8142801523208618,-0.15914694964885712,0.33707958459854126,47.54193115234375,47.35560607910156,47.498931884765625,47.455936431884766,47.48460006713867,47.38426971435547
1734610549.1178052,1.2518572807312012,-0.05510862291369634,-1.1980687379837036,-0.34724541128192143,-1.5101431051837366,0.19172397255897522,0.011193128932612793,-0.4271878702856383,0.1380418648341538,0.7824036660742384,2.9874413474230703,-0.047513300120960306,-0.20741786062717438,-1.0504790544509888,-0.8959993720054626,-0.8248359560966492,-0.14472173154354095,0.3147539496421814,47.48460006713867,47.369937896728516,47.427268981933594,47.455936431884766,47.48460006713867,47.38426971435547
1734610549.218675,1.2494088411331177,0.016242786044738722,-1.224766731262207,-0.38582928598437505,-1.5162885824786585,0.23651273548603058,0.006298674798182815,-0.4342428793037905,0.11684541482133307,0.8542488343474662,2.973369759103383,-0.03603849270474262,-0.2135779857635498,-1.1122856140136719,-0.9796746969223022,-0.8456396460533142,-0.18709152936935425,0.23747795820236206,47.513267517089844,47.41293716430664,47.34127426147461,47.41293716430664,47.48460006713867,47.369937896728516
1734610549.319469,1.247193455696106,0.08419744550671382,-1.2501134872436523,-0.42239613950762944,-1.5222252050982874,0.2792522609233856,0.002066101100803086,-0.4396650827297577,0.09629304134866276,0.9224594493216629,2.9586686642854523,-0.02501186848950137,-0.22263458371162415,-1.2449349164962769,-1.0160486698150635,-0.7985337972640991,-0.20276150107383728,0.2931000590324402,47.498931884765625,47.39860534667969,47.39860534667969,47.44160079956055,47.48460006713867,47.38426971435547
1734610549.4204273,1.2451982498168945,0.14133016645397944,-1.2715202569961548,-0.4532807630351563,-1.5271995703326624,0.31520193815231323,-0.0012604866600624699,-0.4433108107648436,0.07885235468856722,0.9798490734806665,2.945181376674769,-0.016362071074293133,-0.1683831810951233,-1.2679370641708374,-1.0259588956832886,-0.7628412842750549,-0.142454132437706,0.28253138065338135,47.498931884765625,47.38426971435547,47.427268981933594,47.44160079956055,47.455936431884766,47.34127426147461
1734610549.5209727,1.2437041997909546,0.1871664959141235,-1.288915991783142,-0.4780641359141846,-1.5311554113971155,0.34401756525039673,-0.0036766464261933952,-0.44562068924302106,0.06481123910257072,1.0255575763723204,2.9336954689624246,-0.009940633057627822,-0.1765894591808319,-1.3369065523147583,-1.0638630390167236,-0.7788235545158386,-0.16517367959022522,0.22952866554260254,47.498931884765625,47.369937896728516,47.41293716430664,47.44160079956055,47.47026824951172,47.369937896728516
1734610549.6218994,1.242658257484436,0.2198735910603027,-1.3010774850845337,-0.495805100803711,-1.5340645948993128,0.3644981384277344,-0.005300525438341973,-0.446923932184855,0.05471656839468009,1.05799240181159,2.925257260687782,-0.005152707853038587,-0.18979300558567047,-1.4403822422027588,-1.0123270750045776,-0.7422924041748047,-0.15350012481212616,0.20151233673095703,47.498931884765625,47.39860534667969,47.41293716430664,47.427268981933594,47.513267517089844,47.32693862915039
1734610549.7226715,1.2420094013214111,0.2409549194523315,-1.309069275856018,-0.5071852964213868,-1.5358465353595179,0.37787139415740967,-0.006263838555950313,-0.44761502666452607,0.04822462749161019,1.079046621487385,2.9194849276200734,-0.0022544257560256323,-0.22296284139156342,-1.4391952753067017,-1.0170398950576782,-0.6950781345367432,-0.1620185226202011,0.22049175202846527,47.48460006713867,47.35560607910156,47.41293716430664,47.41293716430664,47.47026824951172,47.35560607910156
1734610549.8238602,1.2416820526123047,0.2495763736912231,-1.3122729063034058,-0.5117067855647583,-1.536516014729635,0.38327863812446594,-0.006650476789448788,-0.44783596068193643,0.04554496509579445,1.0876359067646288,2.9170338059073218,-0.0007719296657365775,-0.1822224259376526,-1.4691897630691528,-1.054381251335144,-0.7463363409042358,-0.1633058488368988,0.15342888236045837,47.498931884765625,47.38426971435547,47.39860534667969,47.427268981933594,47.498931884765625,47.34127426147461
1734610549.9244723,1.2415776252746582,0.24980275213208003,-1.3123115301132202,-0.5118190807155152,-1.5366376082049769,0.38342294096946716,-0.006725158089813976,-0.44782962307238044,0.04546470448808282,1.088043132505144,2.9170139886935607,-0.0006586365828430961,-0.18189388513565063,-1.6592499017715454,-0.9889573454856873,-0.7070249319076538,-0.14831846952438354,0.07350029051303864,47.47026824951172,47.34127426147461,47.427268981933594,47.455936431884766,47.48460006713867,47.38426971435547
1734610550.0258965,1.241593837738037,0.24981836854901118,-1.3124735355377197,-0.5119763177684327,-1.5365880171405237,0.38337722420692444,-0.006720553173846273,-0.447873464040974,0.04550262456892182,1.087924130747387,2.916996244480336,-0.0011296550439933437,-0.17566871643066406,-1.5984938144683838,-0.9841639399528503,-0.7009614109992981,-0.1385410726070404,0.12408098578453064,47.498931884765625,47.34127426147461,47.427268981933594,47.44160079956055,47.44160079956055,47.39860534667969
1734610550.1268053,1.2415850162506104,0.24984733640637202,-1.3124780654907227,-0.5119525951198121,-1.5365994612323206,0.3833577334880829,-0.006724321505266667,-0.44786461602709354,0.045489037913029745,1.0879143002780842,2.91701355229779,-0.0010558158325645768,-0.1486605405807495,-1.571061134338379,-0.9889837503433228,-0.6891919374465942,-0.13682392239570618,0.13249187171459198,47.498931884765625,47.39860534667969,47.41293716430664,47.44160079956055,47.48460006713867,47.369937896728516
1734610550.2276924,1.241610050201416,0.24981836854901118,-1.3124616146087646,-0.5119719070247193,-1.5365751425372522,0.38340210914611816,-0.006709964639129224,-0.4478730552580791,0.045500069481352046,1.0879327978370261,2.916979768813191,-0.0011028053284426215,-0.15289276838302612,-1.478597640991211,-0.9866834282875061,-0.666121244430542,-0.12823212146759033,0.11804983764886856,47.48460006713867,47.41293716430664,47.41293716430664,47.44160079956055,47.48460006713867,47.39860534667969
1734610550.3287528,1.241655945777893,0.24982230245556636,-1.3124780654907227,-0.5119195741466065,-1.5366857687579554,0.38334906101226807,-0.006709891308024721,-0.4478538674736101,0.04549628713603915,1.0878292186917373,2.9171375443489707,-0.0010455910359538022,-0.15776392817497253,-1.4357789754867554,-0.9701454043388367,-0.6594178080558777,-0.12429136037826538,0.1433388590812683,47.498931884765625,47.39860534667969,47.47026824951172,47.44160079956055,47.498931884765625,47.369937896728516
1734610550.4304826,1.2416430711746216,0.24985913812603755,-1.3124752044677734,-0.5119109910777588,-1.5366080443011683,0.38341426849365234,-0.00669665443655174,-0.4478539157815018,0.045479844909232625,1.0879171900962763,2.917023249832032,-0.0009660984340765228,-0.16239091753959656,-1.4501923322677612,-0.9808214902877808,-0.6434133052825928,-0.12512540817260742,0.14185158908367157,47.48460006713867,47.369937896728516,47.38426971435547,47.44160079956055,47.48460006713867,47.32693862915039
1734610550.5315387,1.241610050201416,0.24981789171185298,-1.3124288320541382,-0.5119272035411377,-1.5365966002093714,0.38341429829597473,-0.006710881500032073,-0.44786024812317027,0.04549007071628741,1.0879610078576365,2.9169944657991627,-0.0009836055915848688,-0.15460646152496338,-1.4523814916610718,-0.9807308316230774,-0.6378457546234131,-0.11418351531028748,0.11836837977170944,47.455936431884766,47.34127426147461,47.34127426147461,47.44160079956055,47.513267517089844,47.369937896728516
1734610550.632711,1.2416143417358398,0.24985484659161372,-1.312482476234436,-0.5119926494411011,-1.5366247336017054,0.38344240188598633,-0.006719534560033673,-0.4478711338255774,0.04548994095360298,1.0880024798253694,2.9170065062117634,-0.0011118492585636076,-0.17309212684631348,-1.4374088048934937,-0.9589502215385437,-0.6302834153175354,-0.11632040143013,0.12248726934194565,47.48460006713867,47.38426971435547,47.427268981933594,47.44160079956055,47.513267517089844,47.35560607910156
1734610550.7340848,1.2416549921035767,0.2498265939899902,-1.3124407529830933,-0.5119227927974244,-1.5365832487689417,0.38341760635375977,-0.006687367810910054,-0.44786023004659953,0.04548834041170549,1.0878955933063723,2.917004614479715,-0.0009801336073603482,-0.15998396277427673,-1.4234557151794434,-0.968812108039856,-0.6320606470108032,-0.09833762049674988,0.13133206963539124,47.47026824951172,47.34127426147461,47.39860534667969,47.427268981933594,47.498931884765625,47.35560607910156
1734610550.8343377,1.2415904998779297,0.24984602510418696,-1.3124407529830933,-0.5119480651668091,-1.5365832487689417,0.38345861434936523,-0.006717475821361517,-0.44786338537549564,0.0454822320857067,1.088049098562057,2.9169472198780175,-0.000989737956821006,-0.13778215646743774,-1.428186058998108,-0.9687080383300781,-0.6192303895950317,-0.10678017139434814,0.1389901340007782,47.47026824951172,47.369937896728516,47.39860534667969,47.38426971435547,47.455936431884766,47.38426971435547
1734610550.935711,1.2415733337402344,0.24983851491894526,-1.3124572038650513,-0.5119393628886719,-1.5366171042071741,0.38340994715690613,-0.006732439514049995,-0.44786028390839205,0.04548758000823716,1.0880146797113868,2.916995704058933,-0.0010163315969322986,-0.14581367373466492,-1.438225269317627,-0.9523372650146484,-0.6225275993347168,-0.10027912259101868,0.1355942189693451,47.48460006713867,47.369937896728516,47.39860534667969,47.47026824951172,47.498931884765625,47.369937896728516
1734610551.0371227,1.2415895462036133,0.24986807882275386,-1.3124451637268066,-0.5119674962810059,-1.5365832487689417,0.38345861434936523,-0.0067186651154736345,-0.4478656127007795,0.04547534375418255,1.0880502797936598,2.91694674042264,-0.0009925389953429804,-0.1466725468635559,-1.7469894886016846,-0.7778390645980835,-0.6031122207641602,-0.0896511822938919,0.09477554261684418,47.513267517089844,47.34127426147461,47.427268981933594,47.44160079956055,47.48460006713867,47.35560607910156
1734610551.1378593,1.241598129272461,0.24859075128521724,-1.3114832639694214,-0.5119238656810303,-1.5365966002093714,0.38328656554222107,-0.0067441760067755725,-0.44794167483469133,0.04583285176070365,1.087785930564036,2.9170528928353803,-0.0014197178607667116,-0.0833866223692894,-2.1286299228668213,-0.4830172657966614,-0.5751734972000122,-0.07301962375640869,-0.10451162606477737,47.455936431884766,47.39860534667969,47.427268981933594,47.455936431884766,47.48460006713867,47.427268981933594
1734610551.238295,1.241673469543457,0.24277882158245845,-1.3068103790283203,-0.5117145341685791,-1.536440674458639,0.382177472114563,-0.006789718947075514,-0.4482843247804305,0.04740504060525058,1.085988110563096,2.917535965726562,-0.0028832529707479883,0.018129270523786545,-2.2380857467651367,-0.3767601549625397,-0.4379799962043762,0.0175836980342865,-0.17783062160015106,47.48460006713867,47.369937896728516,47.427268981933594,47.44160079956055,47.48460006713867,47.369937896728516
1734610551.339301,1.2423088550567627,0.2265975910374145,-1.2939157485961914,-0.5112472337535401,-1.536060635243551,0.3793735206127167,-0.006733210181240505,-0.4492265541310989,0.051823903555022144,1.0807845627512038,2.9189980751605384,-0.007303873355806361,0.11334133893251419,-2.3891797065734863,-0.34827721118927,-0.36096203327178955,0.13356423377990723,-0.1763514280319214,47.48460006713867,47.38426971435547,47.39860534667969,47.44160079956055,47.498931884765625,47.35560607910156
1734610551.4398432,1.2431435585021973,0.19706039010968013,-1.269898772239685,-0.5103306335261841,-1.5353592077838343,0.37417492270469666,-0.006707552706219664,-0.45075490262414997,0.05982956077110199,1.0716536197233653,2.9215180724685714,-0.014538904171449922,0.17031006515026093,-2.3729631900787354,-0.33201703429222107,-0.3181939721107483,0.15667469799518585,-0.1737331748008728,47.498931884765625,47.38426971435547,47.38426971435547,47.44160079956055,47.48460006713867,47.34127426147461
1734610551.5405793,1.2444415092468262,0.1546463209339599,-1.2356046438217163,-0.5090233844569703,-1.5343597571002405,0.36681169271469116,-0.006506579521224374,-0.45260611728099825,0.07143311529644883,1.0585265040928882,2.9250924500305953,-0.025240791358208343,0.1563122570514679,-2.584362030029297,-0.32083141803741455,-0.35285472869873047,0.178613543510437,-0.1623455286026001,47.48460006713867,47.38426971435547,47.41293716430664,47.44160079956055,47.455936431884766,47.369937896728516
1734610551.6414099,1.2460638284683228,0.1006653743931274,-1.1922242641448975,-0.5073444408229371,-1.533013645802633,0.3574219346046448,-0.00603863508768525,-0.45436632164907037,0.08634457745342508,1.0417751434264573,2.9294823966757053,-0.03925414769479425,0.17914386093616486,-2.35693621635437,-0.2771869897842407,-0.3046104311943054,0.20741039514541626,-0.2205832600593567,47.44160079956055,47.34127426147461,47.35560607910156,47.39860534667969,47.44160079956055,47.32693862915039
1734610551.7421255,1.2480535507202148,0.03507320463146968,-1.1393229961395264,-0.505275086765625,-1.5314620176898401,0.34589630365371704,-0.005159078685267042,-0.45556027068498495,0.10451380000656979,1.0212249197080694,2.9348525729373622,-0.055953493074491364,0.16819444298744202,-2.547022819519043,-0.268485426902771,-0.35608527064323425,0.1873110830783844,-0.16982951760292053,47.38426971435547,47.298274993896484,47.32693862915039,47.369937896728516,47.39860534667969,47.32693862915039
1734610551.842554,1.2502247095108032,-0.03629787385974126,-1.0816959142684937,-0.503123478298523,-1.5297420660602015,0.33343183994293213,-0.0038095053199109523,-0.45572192476297907,0.12431712925190669,0.9989073595067168,2.94047912511158,-0.07418367026134755,0.16545064747333527,-2.323923110961914,-0.27378684282302856,-0.3199361562728882,0.20424064993858337,-0.15619146823883057,47.455936431884766,47.22661209106445,47.32693862915039,47.38426971435547,47.427268981933594,47.31260681152344
1734610551.9437447,1.252309799194336,-0.1063651603511353,-1.0251625776290894,-0.5009551805308838,-1.528029743825094,0.3212510049343109,-0.0021096731735166623,-0.4546941123731107,0.14371436208784438,0.9770934199837432,2.9457790168610756,-0.09206506512458235,0.1733965426683426,-2.286606788635254,-0.2814739942550659,-0.3329636752605438,0.2532861828804016,-0.23802702128887177,47.47026824951172,47.35560607910156,47.369937896728516,47.38426971435547,47.455936431884766,47.35560607910156
1734610552.0444977,1.2545247077941895,-0.17636199415240483,-0.9687498807907104,-0.4988095325282593,-1.526339356099264,0.30892589688301086,1.560106265092445e-05,-0.45251070665317056,0.162975280862537,0.9548333482845478,2.9510792883419037,-0.11006896866325183,0.11420577764511108,-2.168113946914673,-0.2952859401702881,-0.3143059015274048,0.18933218717575073,-0.18155762553215027,47.513267517089844,47.369937896728516,47.41293716430664,47.427268981933594,47.455936431884766,47.34127426147461
1734610552.1452956,1.256603717803955,-0.24770768106494145,-0.9113107919692993,-0.49659283578906255,-1.5246723333941858,0.29657116532325745,0.002463400444818151,-0.4490906358224992,0.18239476418551268,0.932685331337995,2.9561909457080042,-0.12847694970325663,0.1522889882326126,-2.37381649017334,-0.27919286489486694,-0.2891276478767395,0.1933305561542511,-0.2452622652053833,47.498931884765625,47.34127426147461,47.369937896728516,47.41293716430664,47.44160079956055,47.34127426147461
1734610552.246323,1.2586921453475952,-0.31765909612689214,-0.8549150824546814,-0.4943719667247315,-1.5229595343219202,0.284258633852005,0.005260359709544052,-0.4445831722710046,0.20111585744651714,0.9105353212349773,2.961105793677083,-0.1463401974553229,0.17972595989704132,-2.387796640396118,-0.2522369623184204,-0.3570224642753601,0.18995338678359985,-0.18851806223392487,47.44160079956055,47.369937896728516,47.39860534667969,47.38426971435547,47.427268981933594,47.31260681152344
1734610552.3474658,1.260849952697754,-0.38913996637377934,-0.7972807288169861,-0.49225326002154546,-1.5213020483600062,0.27185824513435364,0.00844446870867243,-0.4388494822242094,0.2198699649721926,0.8881099563621877,2.9659711955741104,-0.1648228869457602,0.17742863297462463,-2.245429039001465,-0.1760852038860321,-0.36334681510925293,0.23306375741958618,-0.2553838789463043,47.47026824951172,47.32693862915039,47.35560607910156,47.38426971435547,47.427268981933594,47.34127426147461
1734610552.4480274,1.263066291809082,-0.45918293417010503,-0.7406609654426575,-0.49009402215991216,-1.5195801893817347,0.2595950663089752,0.011959971844760916,-0.4321116402685755,0.23774841958290044,0.8657484391913071,2.970598998696265,-0.18258733823953144,0.16590335965156555,-2.0620298385620117,-0.16125169396400452,-0.2991141080856323,0.21712251007556915,-0.24855735898017883,47.498931884765625,47.369937896728516,47.41293716430664,47.39860534667969,47.455936431884766,47.35560607910156
1734610552.5491915,1.265143871307373,-0.5305647414973755,-0.683148205280304,-0.48784180105242925,-1.5179031530963343,0.24708251655101776,0.015760374435850044,-0.42414236984151255,0.2554463141406355,0.8431835775924588,2.975161034551481,-0.20092168287015225,0.14439810812473297,-2.1637892723083496,-0.1744355857372284,-0.3483174443244934,0.2475929707288742,-0.2195589244365692,47.48460006713867,47.369937896728516,47.369937896728516,47.39860534667969,47.427268981933594,47.34127426147461
1734610552.650387,1.267202377319336,-0.6004907053760071,-0.6267192363739014,-0.4856606286815186,-1.5162394682513636,0.2349829524755478,0.019783344435042028,-0.4153078257843076,0.27215451948593283,0.82122645834322,2.979394927051988,-0.21878435568516205,0.1559237837791443,-2.1434998512268066,-0.211665540933609,-0.2908160090446472,0.244979590177536,-0.20225289463996887,47.48460006713867,47.35560607910156,47.34127426147461,47.38426971435547,47.427268981933594,47.32693862915039
1734610552.7519567,1.26932954788208,-0.6719198983958741,-0.5692874789237976,-0.48352916658435063,-1.5144966284381312,0.22247575223445892,0.024177651048638966,-0.40529646320673945,0.2885713940536152,0.798461441824973,2.983582391808863,-0.23751828795428045,0.21946337819099426,-2.0473430156707764,-0.18284323811531067,-0.3288653492927551,0.22321009635925293,-0.17746253311634064,47.427268981933594,47.31260681152344,47.35560607910156,47.369937896728516,47.369937896728516,47.298274993896484
1734610552.8530488,1.271484375,-0.7432430547526856,-0.511691689491272,-0.4812973302653809,-1.5127556959735315,0.20990164577960968,0.028837923050921338,-0.3943009254244212,0.30412543291486993,0.775532253403193,2.987674646844961,-0.25569014767366155,0.204903706908226,-2.0345020294189453,-0.16091494262218475,-0.35804587602615356,0.2031630128622055,-0.20412226021289825,47.47026824951172,47.34127426147461,47.39860534667969,47.38426971435547,47.41293716430664,47.31260681152344
1734610552.953643,1.273571252822876,-0.8129757803729554,-0.4553992748260498,-0.479122595196106,-1.5111220518695276,0.19787189364433289,0.033591955135015616,-0.3826595820981965,0.3185186252584178,0.753512592534396,2.9914548181007214,-0.2734968864073933,0.1543494164943695,-1.790331244468689,-0.12514203786849976,-0.3518202304840088,0.1871485561132431,-0.24711862206459045,47.47026824951172,47.35560607910156,47.369937896728516,47.34127426147461,47.41293716430664,47.34127426147461
1734610553.0544527,1.2754392623901367,-0.8741592925838013,-0.40614405274391174,-0.477242187862732,-1.5096114317523401,0.18710757791996002,0.03795471807819402,-0.3717751200572564,0.33046412219507215,0.7337507445426363,2.9946682209763384,-0.28938634731012275,0.16550830006599426,-1.5653197765350342,-0.14592602849006653,-0.34524300694465637,0.1925487220287323,-0.1711801290512085,47.47026824951172,47.38426971435547,47.38426971435547,47.41293716430664,47.455936431884766,47.32693862915039
1734610553.1553116,1.2769865989685059,-0.9242368501475831,-0.3655799925327301,-0.4756654065898438,-1.5084131399737757,0.17835795879364014,0.041627707149669776,-0.3624081895037136,0.33966557675740183,0.717645944116823,2.9972440005851304,-0.30194975729112916,0.1517295241355896,-1.587937593460083,-0.20346292853355408,-0.35827749967575073,0.18321387469768524,-0.20928886532783508,47.498931884765625,47.369937896728516,47.455936431884766,47.41293716430664,47.48460006713867,47.369937896728516
1734610553.256804,1.2780499458312988,-0.9611083430102845,-0.33585575222969055,-0.47451599061999516,-1.5075948874102991,0.17192904651165009,0.04434240142924406,-0.3552717851764685,0.3461544529922148,0.7059227613227456,2.9991116676528873,-0.311443858435173,0.16522426903247833,-1.4635305404663086,-0.22695228457450867,-0.3643793761730194,0.19903606176376343,-0.18633922934532166,47.498931884765625,47.39860534667969,47.427268981933594,47.44160079956055,47.47026824951172,47.35560607910156
1734610553.3584707,1.2787814140319824,-0.9865103524974366,-0.3155732750892639,-0.47380252302203374,-1.5070098082171839,0.16748879849910736,0.046236581976945676,-0.3502594805591805,0.3505130097807357,0.6977969528424373,3.000336414685815,-0.31840918654385164,0.16554731130599976,-1.3642185926437378,-0.24001649022102356,-0.3835296630859375,0.20096313953399658,-0.18483424186706543,47.498931884765625,47.369937896728516,47.41293716430664,47.41293716430664,47.47026824951172,47.369937896728516
1734610553.4593258,1.2792309522628784,-0.9993254703334351,-0.305132657289505,-0.4734179538539429,-1.5066044966327112,0.16525068879127502,0.04725353048801313,-0.3476941513108301,0.3526210720018264,0.6935496581732911,3.0008816915960836,-0.3215599565014544,0.14693298935890198,-1.3032881021499634,-0.23860442638397217,-0.37092405557632446,0.16447813808918,-0.187405064702034,47.5275993347168,47.38426971435547,47.427268981933594,47.427268981933594,47.48460006713867,47.35560607910156
1734610553.5664654,1.2792123556137085,-1.0008986753276368,-0.3037874698638916,-0.4733428520015259,-1.506641689931051,0.1650540679693222,0.04733540407479575,-0.3473697015219287,0.3528608208684386,0.6932957227390318,3.000983929364182,-0.32180594307159277,0.17566630244255066,-1.22149658203125,-0.4247664213180542,-0.40359699726104736,0.16345152258872986,-0.1957540214061737,47.498931884765625,47.35560607910156,47.38426971435547,47.427268981933594,47.498931884765625,47.369937896728516
1734610553.6673055,1.2763967514038086,-1.0020965498736878,-0.3042628765106201,-0.47095807016406255,-1.5065339247332972,0.16326084733009338,0.0465962407386856,-0.34680232804871597,0.35302127058762317,0.6949550778945556,3.0010218093681016,-0.3209154746016719,-0.3436938524246216,-1.4547556638717651,-0.6428582072257996,-0.3500446677207947,0.13463179767131805,-0.2238743156194687,47.455936431884766,47.39860534667969,47.41293716430664,47.39860534667969,47.513267517089844,47.369937896728516
1734610553.7680204,1.2621523141860962,-1.0060765904239197,-0.3062867224216461,-0.46093185365710454,-1.5065186659442347,0.15583087503910065,0.04253815553145551,-0.34467423896178506,0.3533533151755096,0.7059872527903646,3.0009517367499114,-0.3156604105422211,-0.37907230854034424,-1.4483613967895508,-0.7997278571128845,-0.29620712995529175,0.1707811951637268,-0.233705073595047,47.48460006713867,47.369937896728516,47.41293716430664,47.47026824951172,47.48460006713867,47.369937896728516
